( Made using CamBam - http://www.cambam.co.uk )
( leftSide 9/27/2015 8:59:19 PM )
( T0 : 3.0 )
G21 G90 G64 G40
G0 Z10.0
( T0 : 3.0 )
T0 M6
( Pocket1 )
G17
M3 S1000
G0 X12.85 Y59.0495
G0 Z1.0
G1 F300.0 Z-3.2
G2 F800.0 X13.579 Y61.1532 I3.4 J0.0
G3 X13.3382 Y59.0509 I9.0568 J-2.1024
G1 Y12.7026
G3 X13.9831 Y9.3 I9.2976 J0.0
G1 X12.85
G1 Y59.0495
G1 F300.0 X12.25
G2 F800.0 X14.7717 Y62.7663 I4.0 J0.0
G3 X13.9382 Y59.0509 I7.8641 J-3.7155
G1 Y12.7026
G3 X14.9139 Y8.7 I8.6976 J0.0
G1 X12.25
G1 Y59.0495
G1 F300.0 X11.05
G2 F800.0 X15.7968 Y64.2297 I5.2 J0.0
G1 X17.3471 Y64.3654
G3 X15.1382 Y59.0509 I5.2887 J-5.3145
G1 Y12.7026
G3 X17.2369 Y7.5 I7.4976 J0.0
G1 X11.05
G1 Y59.0495
G0 Z10.0
G0 X141.8692 Y72.4681
G0 Z1.0
G1 F300.0 Z-3.2
G2 F800.0 X143.1 Y69.85 I-2.1692 J-2.6181
G1 Y9.3
G1 X142.0049
G3 X142.6499 Y12.7026 I-8.6526 J3.4026
G1 Y68.7389
G3 X141.8692 Y72.4681 I-9.2976 J0.0
G1 F300.0 X141.3196 Y72.2275
G3 F800.0 X140.4392 Y73.7811 I-7.9673 J-3.4886
G2 X143.7 Y69.85 I-0.7392 J-3.9311
G1 Y8.7
G1 X141.0742
G3 X142.0499 Y12.7026 I-7.7219 J4.0026
G1 Y68.7389
G3 X141.3196 Y72.2275 I-8.6976 J0.0
G1 F300.0 X140.2204 Y71.7461
G3 F800.0 X137.6397 Y74.8896 I-6.8681 J-3.0073
G1 X139.2468 Y75.0302
G2 X144.9 Y69.85 I0.4532 J-5.1802
G1 Y7.5
G1 X138.7511
G3 X140.8499 Y12.7026 I-5.3988 J5.2026
G1 Y68.7389
G3 X140.2204 Y71.7461 I-7.4976 J0.0
G0 Z10.0
G0 X135.8234 Y69.8209
G0 Z1.0
G1 F300.0 Z-3.2
G3 F800.0 X133.1171 Y71.4262 I-2.4711 J-1.082
G1 X22.4006 Y61.7382
G3 X19.9382 Y59.0509 I0.2351 J-2.6873
G1 Y12.7026
G3 X22.6358 Y10.005 I2.6976 J0.0
G1 X133.3523
G3 X136.0499 Y12.7026 I0.0 J2.6976
G1 Y68.7389
G3 X135.8234 Y69.8209 I-2.6976 J0.0
G1 F300.0 X134.7263 Y69.3405
G3 F800.0 X133.2215 Y70.2332 I-1.3741 J-0.6016
G1 X22.505 Y60.5452
G3 X21.1358 Y59.0509 I0.1308 J-1.4943
G1 Y12.7026
G3 X22.6358 Y11.2026 I1.5 J0.0
G1 X133.3523
G3 X134.8523 Y12.7026 I0.0 J1.5
G1 Y68.7389
G3 X134.7263 Y69.3405 I-1.5 J0.0
G0 Z10.0
G0 X136.9226 Y70.3022
G0 Z1.0
G1 F300.0 Z-3.2
G2 F800.0 X137.2499 Y68.7389 I-3.5703 J-1.5633
G1 Y12.7026
G2 X133.3523 Y8.805 I-3.8976 J0.0
G1 X22.6358
G2 X18.7382 Y12.7026 I0.0 J3.8976
G1 Y59.0509
G2 X22.296 Y62.9336 I3.8976 J0.0
G1 X133.0125 Y72.6216
G2 X136.9226 Y70.3022 I0.3398 J-3.8828
G1 F300.0 X138.0219 Y70.7835
G2 F800.0 X138.4499 Y68.7389 I-4.6696 J-2.0446
G1 Y12.7026
G2 X133.3523 Y7.605 I-5.0976 J0.0
G1 X22.6358
G2 X17.5382 Y12.7026 I0.0 J5.0976
G1 Y59.0509
G2 X22.1914 Y64.1291 I5.0976 J0.0
G1 X132.9079 Y73.8171
G2 X138.0219 Y70.7835 I0.4444 J-5.0782
G1 F300.0 X139.1211 Y71.2648
G2 F800.0 X139.6499 Y68.7389 I-5.7688 J-2.526
G1 Y12.7026
G2 X133.3523 Y6.405 I-6.2976 J0.0
G1 X22.6358
G2 X16.3382 Y12.7026 I0.0 J6.2976
G1 Y59.0509
G2 X22.0868 Y65.3245 I6.2976 J0.0
G1 X132.8033 Y75.0125
G2 X139.1211 Y71.2648 I0.549 J-6.2736
G0 Z10.0
G0 X138.6906 Y76.1861
G0 Z1.0
G1 F300.0 Z-3.2
G1 F800.0 X139.1422 Y76.2256
G2 X146.1 Y69.85 I0.5578 J-6.3756
G1 Y6.3
G1 X9.85
G1 Y59.0495
G2 X15.6922 Y65.4252 I6.4 J0.0
G1 X138.6906 Y76.1861
G1 F300.0 X138.586 Y77.3816
G1 F800.0 X139.0376 Y77.4211
G2 X147.3 Y69.85 I0.6624 J-7.5711
G1 Y5.1
G1 X8.65
G1 Y59.0495
G2 X15.5876 Y66.6206 I7.6 J0.0
G1 X138.586 Y77.3816
G1 F300.0 X138.4814 Y78.577
G1 F800.0 X138.933 Y78.6165
G2 X148.5 Y69.85 I0.767 J-8.7665
G1 Y3.9
G1 X7.45
G1 Y59.0495
G2 X15.483 Y67.816 I8.8 J0.0
G1 X138.4814 Y78.577
G1 F300.0 X138.3768 Y79.7724
G1 F800.0 X138.8284 Y79.8119
G2 X149.7 Y69.85 I0.8716 J-9.9619
G1 Y2.7
G1 X6.25
G1 Y59.0495
G2 X15.3784 Y69.0115 I10.0 J0.0
G1 X138.3768 Y79.7724
G1 F300.0 X138.2722 Y80.9679
G1 F800.0 X138.7239 Y81.0074
G2 X150.9 Y69.85 I0.9761 J-11.1574
G1 Y1.5
G1 X5.05
G1 Y59.0495
G2 X15.2739 Y70.2069 I11.2 J0.0
G1 X138.2722 Y80.9679
G0 Z10.0
G0 X141.8692 Y72.4681
G0 Z-2.2
G1 F300.0 Z-6.35
G2 F800.0 X143.1 Y69.85 I-2.1692 J-2.6181
G1 Y9.3
G1 X142.0049
G3 X142.6499 Y12.7026 I-8.6526 J3.4026
G1 Y68.7389
G3 X141.8692 Y72.4681 I-9.2976 J0.0
G1 F300.0 X141.3196 Y72.2275
G3 F800.0 X140.4392 Y73.7811 I-7.9673 J-3.4886
G2 X143.7 Y69.85 I-0.7392 J-3.9311
G1 Y8.7
G1 X141.0742
G3 X142.0499 Y12.7026 I-7.7219 J4.0026
G1 Y68.7389
G3 X141.3196 Y72.2275 I-8.6976 J0.0
G1 F300.0 X140.2204 Y71.7461
G3 F800.0 X137.6397 Y74.8896 I-6.8681 J-3.0073
G1 X139.2468 Y75.0302
G2 X144.9 Y69.85 I0.4532 J-5.1802
G1 Y7.5
G1 X138.7511
G3 X140.8499 Y12.7026 I-5.3988 J5.2026
G1 Y68.7389
G3 X140.2204 Y71.7461 I-7.4976 J0.0
G0 Z10.0
G0 X13.579 Y61.1532
G0 Z-2.2
G1 F300.0 Z-6.35
G3 F800.0 X13.3382 Y59.0509 I9.0568 J-2.1024
G1 Y12.7026
G3 X13.9831 Y9.3 I9.2976 J0.0
G1 X12.85
G1 Y59.0495
G2 X13.579 Y61.1532 I3.4 J0.0
G1 F300.0 X14.1634 Y61.0176
G3 F800.0 X13.9382 Y59.0509 I8.4723 J-1.9667
G1 Y12.7026
G3 X14.9139 Y8.7 I8.6976 J0.0
G1 X12.25
G1 Y59.0495
G2 X14.7717 Y62.7663 I4.0 J0.0
G3 X14.1634 Y61.0176 I7.8641 J-3.7155
G1 F300.0 X15.3324 Y60.7462
G3 F800.0 X15.1382 Y59.0509 I7.3034 J-1.6954
G1 Y12.7026
G3 X17.2369 Y7.5 I7.4976 J0.0
G1 X11.05
G1 Y59.0495
G2 X15.7968 Y64.2297 I5.2 J0.0
G1 X17.3471 Y64.3654
G3 X15.3324 Y60.7462 I5.2887 J-5.3145
G0 Z10.0
G0 X20.008 Y59.6609
G0 Z-2.15
G1 F300.0 Z-6.35
G3 F800.0 X19.9382 Y59.0509 I2.6277 J-0.61
G1 Y12.7026
G3 X22.6358 Y10.005 I2.6976 J0.0
G1 X133.3523
G3 X136.0499 Y12.7026 I0.0 J2.6976
G1 Y68.7389
G3 X133.1171 Y71.4262 I-2.6976 J0.0
G1 X22.4006 Y61.7382
G3 X20.008 Y59.6609 I0.2351 J-2.6873
G1 F300.0 X21.1746 Y59.39
G3 F800.0 X21.1358 Y59.0509 I1.4611 J-0.3392
G1 Y12.7026
G3 X22.6358 Y11.2026 I1.5 J0.0
G1 X133.3523
G3 X134.8523 Y12.7026 I0.0 J1.5
G1 Y68.7389
G3 X133.2215 Y70.2332 I-1.5 J0.0
G1 X22.505 Y60.5452
G3 X21.1746 Y59.39 I0.1308 J-1.4943
G0 Z10.0
G0 X18.8391 Y59.9322
G0 Z-2.15
G1 F300.0 Z-6.35
G2 F800.0 X22.296 Y62.9336 I3.7966 J-0.8813
G1 X133.0125 Y72.6216
G2 X137.2499 Y68.7389 I0.3398 J-3.8828
G1 Y12.7026
G2 X133.3523 Y8.805 I-3.8976 J0.0
G1 X22.6358
G2 X18.7382 Y12.7026 I0.0 J3.8976
G1 Y59.0509
G2 X18.8391 Y59.9322 I3.8976 J0.0
G1 F300.0 X17.6702 Y60.2035
G2 F800.0 X22.1914 Y64.1291 I4.9656 J-1.1527
G1 X132.9079 Y73.8171
G2 X138.4499 Y68.7389 I0.4444 J-5.0782
G1 Y12.7026
G2 X133.3523 Y7.605 I-5.0976 J0.0
G1 X22.6358
G2 X17.5382 Y12.7026 I0.0 J5.0976
G1 Y59.0509
G2 X17.6702 Y60.2035 I5.0976 J0.0
G1 F300.0 X16.5013 Y60.4749
G2 F800.0 X22.0868 Y65.3245 I6.1345 J-1.424
G1 X132.8033 Y75.0125
G2 X139.6499 Y68.7389 I0.549 J-6.2736
G1 Y12.7026
G2 X133.3523 Y6.405 I-6.2976 J0.0
G1 X22.6358
G2 X16.3382 Y12.7026 I0.0 J6.2976
G1 Y59.0509
G2 X16.5013 Y60.4749 I6.2976 J0.0
G0 Z10.0
G0 X16.0653 Y65.4578
G0 Z-2.15
G1 F300.0 Z-6.35
G1 F800.0 X139.1422 Y76.2256
G2 X146.1 Y69.85 I0.5578 J-6.3756
G1 Y6.3
G1 X9.85
G1 Y59.0495
G2 X15.6922 Y65.4252 I6.4 J0.0
G1 X16.0653 Y65.4578
G1 F300.0 X15.9607 Y66.6532
G1 F800.0 X139.0376 Y77.4211
G2 X147.3 Y69.85 I0.6624 J-7.5711
G1 Y5.1
G1 X8.65
G1 Y59.0495
G2 X15.5876 Y66.6206 I7.6 J0.0
G1 X15.9607 Y66.6532
G1 F300.0 X15.8562 Y67.8487
G1 F800.0 X138.933 Y78.6165
G2 X148.5 Y69.85 I0.767 J-8.7665
G1 Y3.9
G1 X7.45
G1 Y59.0495
G2 X15.483 Y67.816 I8.8 J0.0
G1 X15.8562 Y67.8487
G1 F300.0 X15.7516 Y69.0441
G1 F800.0 X138.8284 Y79.8119
G2 X149.7 Y69.85 I0.8716 J-9.9619
G1 Y2.7
G1 X6.25
G1 Y59.0495
G2 X15.3784 Y69.0115 I10.0 J0.0
G1 X15.7516 Y69.0441
G1 F300.0 X15.647 Y70.2395
G1 F800.0 X138.7239 Y81.0074
G2 X150.9 Y69.85 I0.9761 J-11.1574
G1 Y1.5
G1 X5.05
G1 Y59.0495
G2 X15.2739 Y70.2069 I11.2 J0.0
G1 X15.647 Y70.2395
( Drill1 )
S1000
G0 Z10.0
G0 X139.7 Y57.15
G0 Z10.0
G0 X139.75 Y57.15
G0 Z1.0
G1 F300.0 Z0.0
G2 F800.0 X139.675 Y57.1067 Z-0.5 I-0.05 J0.0
G2 Y57.1933 Z-1.0 I0.025 J0.0433
G2 X139.75 Y57.15 Z-1.5 I0.025 J-0.0433
G2 X139.675 Y57.1067 Z-2.0 I-0.05 J0.0
G2 Y57.1933 Z-2.5 I0.025 J0.0433
G2 X139.75 Y57.15 Z-3.0 I0.025 J-0.0433
G2 X139.675 Y57.1067 Z-3.5 I-0.05 J0.0
G2 Y57.1933 Z-4.0 I0.025 J0.0433
G2 X139.75 Y57.15 Z-4.5 I0.025 J-0.0433
G2 X139.675 Y57.1067 Z-5.0 I-0.05 J0.0
G2 Y57.1933 Z-5.5 I0.025 J0.0433
G2 X139.75 Y57.15 Z-6.0 I0.025 J-0.0433
G2 X139.675 Y57.1067 Z-6.5 I-0.05 J0.0
G2 Y57.1933 Z-7.0 I0.025 J0.0433
G2 X139.75 Y57.15 Z-7.5 I0.025 J-0.0433
G2 X139.675 Y57.1067 Z-8.0 I-0.05 J0.0
G2 Y57.1933 Z-8.5 I0.025 J0.0433
G2 X139.75 Y57.15 Z-9.0 I0.025 J-0.0433
G2 X139.675 Y57.1067 Z-9.5 I-0.05 J0.0
G2 Y57.1933 Z-10.0 I0.025 J0.0433
G2 X139.75 Y57.15 Z-10.5 I0.025 J-0.0433
G2 X139.675 Y57.1067 Z-11.0 I-0.05 J0.0
G2 Y57.1933 Z-11.5 I0.025 J0.0433
G2 X139.75 Y57.15 Z-12.0 I0.025 J-0.0433
G2 X139.675 Y57.1067 Z-12.5 I-0.05 J0.0
G2 Y57.1933 Z-13.0 I0.025 J0.0433
G2 X139.75 Y57.15 Z-13.5 I0.025 J-0.0433
G2 X139.675 Y57.1067 Z-14.0 I-0.05 J0.0
G2 Y57.1933 Z-14.5 I0.025 J0.0433
G2 X139.75 Y57.15 Z-15.0 I0.025 J-0.0433
G2 X139.675 Y57.1067 Z-15.5 I-0.05 J0.0
G2 Y57.1933 Z-16.0 I0.025 J0.0433
G2 X139.75 Y57.15 Z-16.5 I0.025 J-0.0433
G2 X139.675 Y57.1067 Z-17.0 I-0.05 J0.0
G2 Y57.1933 Z-17.5 I0.025 J0.0433
G2 X139.75 Y57.15 Z-18.0 I0.025 J-0.0433
G2 X139.675 Y57.1067 Z-18.5 I-0.05 J0.0
G2 Y57.1933 Z-19.0 I0.025 J0.0433
G2 X139.6845 Y57.1976 Z-19.05 I0.025 J-0.0433
G2 X139.7489 Y57.1396 I0.0155 J-0.0476
G2 X139.6665 Y57.1128 I-0.0489 J0.0104
G2 X139.6845 Y57.1976 I0.0335 J0.0372
G0 Z10.0
G0 X139.75 Y12.7
G0 Z1.0
G1 F300.0 Z0.0
G2 F800.0 X139.675 Y12.6567 Z-0.5 I-0.05 J0.0
G2 Y12.7433 Z-1.0 I0.025 J0.0433
G2 X139.75 Y12.7 Z-1.5 I0.025 J-0.0433
G2 X139.675 Y12.6567 Z-2.0 I-0.05 J0.0
G2 Y12.7433 Z-2.5 I0.025 J0.0433
G2 X139.75 Y12.7 Z-3.0 I0.025 J-0.0433
G2 X139.675 Y12.6567 Z-3.5 I-0.05 J0.0
G2 Y12.7433 Z-4.0 I0.025 J0.0433
G2 X139.75 Y12.7 Z-4.5 I0.025 J-0.0433
G2 X139.675 Y12.6567 Z-5.0 I-0.05 J0.0
G2 Y12.7433 Z-5.5 I0.025 J0.0433
G2 X139.75 Y12.7 Z-6.0 I0.025 J-0.0433
G2 X139.675 Y12.6567 Z-6.5 I-0.05 J0.0
G2 Y12.7433 Z-7.0 I0.025 J0.0433
G2 X139.75 Y12.7 Z-7.5 I0.025 J-0.0433
G2 X139.675 Y12.6567 Z-8.0 I-0.05 J0.0
G2 Y12.7433 Z-8.5 I0.025 J0.0433
G2 X139.75 Y12.7 Z-9.0 I0.025 J-0.0433
G2 X139.675 Y12.6567 Z-9.5 I-0.05 J0.0
G2 Y12.7433 Z-10.0 I0.025 J0.0433
G2 X139.75 Y12.7 Z-10.5 I0.025 J-0.0433
G2 X139.675 Y12.6567 Z-11.0 I-0.05 J0.0
G2 Y12.7433 Z-11.5 I0.025 J0.0433
G2 X139.75 Y12.7 Z-12.0 I0.025 J-0.0433
G2 X139.675 Y12.6567 Z-12.5 I-0.05 J0.0
G2 Y12.7433 Z-13.0 I0.025 J0.0433
G2 X139.75 Y12.7 Z-13.5 I0.025 J-0.0433
G2 X139.675 Y12.6567 Z-14.0 I-0.05 J0.0
G2 Y12.7433 Z-14.5 I0.025 J0.0433
G2 X139.75 Y12.7 Z-15.0 I0.025 J-0.0433
G2 X139.675 Y12.6567 Z-15.5 I-0.05 J0.0
G2 Y12.7433 Z-16.0 I0.025 J0.0433
G2 X139.75 Y12.7 Z-16.5 I0.025 J-0.0433
G2 X139.675 Y12.6567 Z-17.0 I-0.05 J0.0
G2 Y12.7433 Z-17.5 I0.025 J0.0433
G2 X139.75 Y12.7 Z-18.0 I0.025 J-0.0433
G2 X139.675 Y12.6567 Z-18.5 I-0.05 J0.0
G2 Y12.7433 Z-19.0 I0.025 J0.0433
G2 X139.6845 Y12.7476 Z-19.05 I0.025 J-0.0433
G2 X139.7489 Y12.6896 I0.0155 J-0.0476
G2 X139.6665 Y12.6628 I-0.0489 J0.0104
G2 X139.6845 Y12.7476 I0.0335 J0.0372
G0 Z10.0
G0 X16.56 Y12.7
G0 Z1.0
G1 F300.0 Z0.0
G2 F800.0 X16.485 Y12.6567 Z-0.5 I-0.05 J0.0
G2 Y12.7433 Z-1.0 I0.025 J0.0433
G2 X16.56 Y12.7 Z-1.5 I0.025 J-0.0433
G2 X16.485 Y12.6567 Z-2.0 I-0.05 J0.0
G2 Y12.7433 Z-2.5 I0.025 J0.0433
G2 X16.56 Y12.7 Z-3.0 I0.025 J-0.0433
G2 X16.485 Y12.6567 Z-3.5 I-0.05 J0.0
G2 Y12.7433 Z-4.0 I0.025 J0.0433
G2 X16.56 Y12.7 Z-4.5 I0.025 J-0.0433
G2 X16.485 Y12.6567 Z-5.0 I-0.05 J0.0
G2 Y12.7433 Z-5.5 I0.025 J0.0433
G2 X16.56 Y12.7 Z-6.0 I0.025 J-0.0433
G2 X16.485 Y12.6567 Z-6.5 I-0.05 J0.0
G2 Y12.7433 Z-7.0 I0.025 J0.0433
G2 X16.56 Y12.7 Z-7.5 I0.025 J-0.0433
G2 X16.485 Y12.6567 Z-8.0 I-0.05 J0.0
G2 Y12.7433 Z-8.5 I0.025 J0.0433
G2 X16.56 Y12.7 Z-9.0 I0.025 J-0.0433
G2 X16.485 Y12.6567 Z-9.5 I-0.05 J0.0
G2 Y12.7433 Z-10.0 I0.025 J0.0433
G2 X16.56 Y12.7 Z-10.5 I0.025 J-0.0433
G2 X16.485 Y12.6567 Z-11.0 I-0.05 J0.0
G2 Y12.7433 Z-11.5 I0.025 J0.0433
G2 X16.56 Y12.7 Z-12.0 I0.025 J-0.0433
G2 X16.485 Y12.6567 Z-12.5 I-0.05 J0.0
G2 Y12.7433 Z-13.0 I0.025 J0.0433
G2 X16.56 Y12.7 Z-13.5 I0.025 J-0.0433
G2 X16.485 Y12.6567 Z-14.0 I-0.05 J0.0
G2 Y12.7433 Z-14.5 I0.025 J0.0433
G2 X16.56 Y12.7 Z-15.0 I0.025 J-0.0433
G2 X16.485 Y12.6567 Z-15.5 I-0.05 J0.0
G2 Y12.7433 Z-16.0 I0.025 J0.0433
G2 X16.56 Y12.7 Z-16.5 I0.025 J-0.0433
G2 X16.485 Y12.6567 Z-17.0 I-0.05 J0.0
G2 Y12.7433 Z-17.5 I0.025 J0.0433
G2 X16.56 Y12.7 Z-18.0 I0.025 J-0.0433
G2 X16.485 Y12.6567 Z-18.5 I-0.05 J0.0
G2 Y12.7433 Z-19.0 I0.025 J0.0433
G2 X16.4945 Y12.7476 Z-19.05 I0.025 J-0.0433
G2 X16.5589 Y12.6896 I0.0155 J-0.0476
G2 X16.4765 Y12.6628 I-0.0489 J0.0104
G2 X16.4945 Y12.7476 I0.0335 J0.0372
G0 Z10.0
G0 X16.56 Y44.45
G0 Z1.0
G1 F300.0 Z0.0
G2 F800.0 X16.485 Y44.4067 Z-0.5 I-0.05 J0.0
G2 Y44.4933 Z-1.0 I0.025 J0.0433
G2 X16.56 Y44.45 Z-1.5 I0.025 J-0.0433
G2 X16.485 Y44.4067 Z-2.0 I-0.05 J0.0
G2 Y44.4933 Z-2.5 I0.025 J0.0433
G2 X16.56 Y44.45 Z-3.0 I0.025 J-0.0433
G2 X16.485 Y44.4067 Z-3.5 I-0.05 J0.0
G2 Y44.4933 Z-4.0 I0.025 J0.0433
G2 X16.56 Y44.45 Z-4.5 I0.025 J-0.0433
G2 X16.485 Y44.4067 Z-5.0 I-0.05 J0.0
G2 Y44.4933 Z-5.5 I0.025 J0.0433
G2 X16.56 Y44.45 Z-6.0 I0.025 J-0.0433
G2 X16.485 Y44.4067 Z-6.5 I-0.05 J0.0
G2 Y44.4933 Z-7.0 I0.025 J0.0433
G2 X16.56 Y44.45 Z-7.5 I0.025 J-0.0433
G2 X16.485 Y44.4067 Z-8.0 I-0.05 J0.0
G2 Y44.4933 Z-8.5 I0.025 J0.0433
G2 X16.56 Y44.45 Z-9.0 I0.025 J-0.0433
G2 X16.485 Y44.4067 Z-9.5 I-0.05 J0.0
G2 Y44.4933 Z-10.0 I0.025 J0.0433
G2 X16.56 Y44.45 Z-10.5 I0.025 J-0.0433
G2 X16.485 Y44.4067 Z-11.0 I-0.05 J0.0
G2 Y44.4933 Z-11.5 I0.025 J0.0433
G2 X16.56 Y44.45 Z-12.0 I0.025 J-0.0433
G2 X16.485 Y44.4067 Z-12.5 I-0.05 J0.0
G2 Y44.4933 Z-13.0 I0.025 J0.0433
G2 X16.56 Y44.45 Z-13.5 I0.025 J-0.0433
G2 X16.485 Y44.4067 Z-14.0 I-0.05 J0.0
G2 Y44.4933 Z-14.5 I0.025 J0.0433
G2 X16.56 Y44.45 Z-15.0 I0.025 J-0.0433
G2 X16.485 Y44.4067 Z-15.5 I-0.05 J0.0
G2 Y44.4933 Z-16.0 I0.025 J0.0433
G2 X16.56 Y44.45 Z-16.5 I0.025 J-0.0433
G2 X16.485 Y44.4067 Z-17.0 I-0.05 J0.0
G2 Y44.4933 Z-17.5 I0.025 J0.0433
G2 X16.56 Y44.45 Z-18.0 I0.025 J-0.0433
G2 X16.485 Y44.4067 Z-18.5 I-0.05 J0.0
G2 Y44.4933 Z-19.0 I0.025 J0.0433
G2 X16.4945 Y44.4976 Z-19.05 I0.025 J-0.0433
G2 X16.5589 Y44.4396 I0.0155 J-0.0476
G2 X16.4765 Y44.4128 I-0.0489 J0.0104
G2 X16.4945 Y44.4976 I0.0335 J0.0372
( Profile1 )
S1000
G0 Z10.0
G0 X-4.95 Y59.0495
G0 Z1.0
G1 F300.0 Z-3.4
G1 F800.0 Y0.0
G3 X3.55 Y-8.5 I8.5 J0.0
G1 X152.4
G3 X160.9 Y0.0 I0.0 J8.5
G1 Y69.85
G3 X137.8523 Y90.9693 I-21.2 J0.0
G1 X14.4023 Y80.1689
G3 X-4.95 Y59.0495 I1.8477 J-21.1193
G1 F300.0 X-3.75
G1 F800.0 Y0.0
G3 X3.55 Y-7.3 I7.3 J0.0
G1 X152.4
G3 X159.7 Y0.0 I0.0 J7.3
G1 Y69.85
G3 X137.9569 Y89.7739 I-20.0 J0.0
G1 X14.5069 Y78.9734
G3 X-3.75 Y59.0495 I1.7431 J-19.9239
G1 F300.0 X-2.55
G1 F800.0 Y0.0
G3 X3.55 Y-6.1 I6.1 J0.0
G1 X152.4
G3 X158.5 Y0.0 I0.0 J6.1
G1 Y69.85
G3 X138.0615 Y88.5785 I-18.8 J0.0
G1 X14.6115 Y77.778
G3 X-2.55 Y59.0495 I1.6385 J-18.7285
G1 F300.0 X-1.35
G1 F800.0 Y0.0
G3 X3.55 Y-4.9 I4.9 J0.0
G1 X152.4
G3 X157.3 Y0.0 I0.0 J4.9
G1 Y69.85
G3 X138.1661 Y87.383 I-17.6 J0.0
G1 X14.7161 Y76.5826
G3 X-1.35 Y59.0495 I1.5339 J-17.533
G1 F300.0 X-0.15
G1 F800.0 Y0.0
G3 X3.55 Y-3.7 I3.7 J0.0
G1 X152.4
G3 X156.1 Y0.0 I0.0 J3.7
G1 Y69.85
G3 X138.2706 Y86.1876 I-16.4 J0.0
G1 X14.8206 Y75.3871
G3 X-0.15 Y59.0495 I1.4294 J-16.3376
G1 F300.0 X1.05
G1 F800.0 Y0.0
G3 X3.55 Y-2.5 I2.5 J0.0
G1 X152.4
G3 X154.9 Y0.0 I0.0 J2.5
G1 Y69.85
G3 X138.3752 Y84.9922 I-15.2 J0.0
G1 X14.9252 Y74.1917
G3 X1.05 Y59.0495 I1.3248 J-15.1422
G1 F300.0 X2.05
G1 F800.0 Y0.0
G3 X3.55 Y-1.5 I1.5 J0.0
G1 X152.4
G3 X153.9 Y0.0 I0.0 J1.5
G1 Y69.85
G3 X138.4624 Y83.996 I-14.2 J0.0
G1 X15.0124 Y73.1955
G3 X2.05 Y59.0495 I1.2376 J-14.146
G0 Z10.0
G0 X-4.95
G0 Z-2.4
G1 F300.0 Z-6.8
G1 F800.0 Y0.0
G3 X3.55 Y-8.5 I8.5 J0.0
G1 X152.4
G3 X160.9 Y0.0 I0.0 J8.5
G1 Y69.85
G3 X137.8523 Y90.9693 I-21.2 J0.0
G1 X14.4023 Y80.1689
G3 X-4.95 Y59.0495 I1.8477 J-21.1193
G1 F300.0 X-3.75
G1 F800.0 Y0.0
G3 X3.55 Y-7.3 I7.3 J0.0
G1 X152.4
G3 X159.7 Y0.0 I0.0 J7.3
G1 Y69.85
G3 X137.9569 Y89.7739 I-20.0 J0.0
G1 X14.5069 Y78.9734
G3 X-3.75 Y59.0495 I1.7431 J-19.9239
G1 F300.0 X-2.55
G1 F800.0 Y0.0
G3 X3.55 Y-6.1 I6.1 J0.0
G1 X152.4
G3 X158.5 Y0.0 I0.0 J6.1
G1 Y69.85
G3 X138.0615 Y88.5785 I-18.8 J0.0
G1 X14.6115 Y77.778
G3 X-2.55 Y59.0495 I1.6385 J-18.7285
G1 F300.0 X-1.35
G1 F800.0 Y0.0
G3 X3.55 Y-4.9 I4.9 J0.0
G1 X152.4
G3 X157.3 Y0.0 I0.0 J4.9
G1 Y69.85
G3 X138.1661 Y87.383 I-17.6 J0.0
G1 X14.7161 Y76.5826
G3 X-1.35 Y59.0495 I1.5339 J-17.533
G1 F300.0 X-0.15
G1 F800.0 Y0.0
G3 X3.55 Y-3.7 I3.7 J0.0
G1 X152.4
G3 X156.1 Y0.0 I0.0 J3.7
G1 Y69.85
G3 X138.2706 Y86.1876 I-16.4 J0.0
G1 X14.8206 Y75.3871
G3 X-0.15 Y59.0495 I1.4294 J-16.3376
G1 F300.0 X1.05
G1 F800.0 Y0.0
G3 X3.55 Y-2.5 I2.5 J0.0
G1 X152.4
G3 X154.9 Y0.0 I0.0 J2.5
G1 Y69.85
G3 X138.3752 Y84.9922 I-15.2 J0.0
G1 X14.9252 Y74.1917
G3 X1.05 Y59.0495 I1.3248 J-15.1422
G1 F300.0 X2.05
G1 F800.0 Y0.0
G3 X3.55 Y-1.5 I1.5 J0.0
G1 X152.4
G3 X153.9 Y0.0 I0.0 J1.5
G1 Y69.85
G3 X138.4624 Y83.996 I-14.2 J0.0
G1 X15.0124 Y73.1955
G3 X2.05 Y59.0495 I1.2376 J-14.146
G0 Z10.0
G0 X-4.95
G0 Z-5.8
G1 F300.0 Z-10.0
G1 F800.0 Y0.0
G3 X3.55 Y-8.5 I8.5 J0.0
G1 X152.4
G3 X160.9 Y0.0 I0.0 J8.5
G1 Y69.85
G3 X137.8523 Y90.9693 I-21.2 J0.0
G1 X14.4023 Y80.1689
G3 X-4.95 Y59.0495 I1.8477 J-21.1193
G1 F300.0 X-3.75
G1 F800.0 Y0.0
G3 X3.55 Y-7.3 I7.3 J0.0
G1 X152.4
G3 X159.7 Y0.0 I0.0 J7.3
G1 Y69.85
G3 X137.9569 Y89.7739 I-20.0 J0.0
G1 X14.5069 Y78.9734
G3 X-3.75 Y59.0495 I1.7431 J-19.9239
G1 F300.0 X-2.55
G1 F800.0 Y0.0
G3 X3.55 Y-6.1 I6.1 J0.0
G1 X152.4
G3 X158.5 Y0.0 I0.0 J6.1
G1 Y69.85
G3 X138.0615 Y88.5785 I-18.8 J0.0
G1 X14.6115 Y77.778
G3 X-2.55 Y59.0495 I1.6385 J-18.7285
G1 F300.0 X-1.35
G1 F800.0 Y0.0
G3 X3.55 Y-4.9 I4.9 J0.0
G1 X152.4
G3 X157.3 Y0.0 I0.0 J4.9
G1 Y69.85
G3 X138.1661 Y87.383 I-17.6 J0.0
G1 X14.7161 Y76.5826
G3 X-1.35 Y59.0495 I1.5339 J-17.533
G1 F300.0 X-0.15
G1 F800.0 Y0.0
G3 X3.55 Y-3.7 I3.7 J0.0
G1 X152.4
G3 X156.1 Y0.0 I0.0 J3.7
G1 Y69.85
G3 X138.2706 Y86.1876 I-16.4 J0.0
G1 X14.8206 Y75.3871
G3 X-0.15 Y59.0495 I1.4294 J-16.3376
G1 F300.0 X1.05
G1 F800.0 Y0.0
G3 X3.55 Y-2.5 I2.5 J0.0
G1 X152.4
G3 X154.9 Y0.0 I0.0 J2.5
G1 Y69.85
G3 X138.3752 Y84.9922 I-15.2 J0.0
G1 X14.9252 Y74.1917
G3 X1.05 Y59.0495 I1.3248 J-15.1422
G1 F300.0 X2.05
G1 F800.0 Y0.0
G3 X3.55 Y-1.5 I1.5 J0.0
G1 X152.4
G3 X153.9 Y0.0 I0.0 J1.5
G1 Y69.85
G3 X138.4624 Y83.996 I-14.2 J0.0
G1 X15.0124 Y73.1955
G3 X2.05 Y59.0495 I1.2376 J-14.146
( Profile2 )
S1000
G1 F300.0 X0.05
G1 Z-13.4
G1 F800.0 Y0.0
G3 X3.55 Y-3.5 I3.5 J0.0
G1 X152.4
G3 X155.9 Y0.0 I0.0 J3.5
G1 Y69.85
G3 X138.2881 Y85.9884 I-16.2 J0.0
G1 X14.8381 Y75.1879
G3 X0.05 Y59.0495 I1.4119 J-16.1384
G1 F300.0 X1.25
G1 F800.0 Y0.0
G3 X3.55 Y-2.3 I2.3 J0.0
G1 X152.4
G3 X154.7 Y0.0 I0.0 J2.3
G1 Y69.85
G3 X138.3927 Y84.7929 I-15.0 J0.0
G1 X14.9427 Y73.9924
G3 X1.25 Y59.0495 I1.3073 J-14.9429
G1 F300.0 X2.05
G1 F800.0 Y0.0
G3 X3.55 Y-1.5 I1.5 J0.0
G1 X152.4
G3 X153.9 Y0.0 I0.0 J1.5
G1 Y69.85
G3 X138.4624 Y83.996 I-14.2 J0.0
G1 X15.0124 Y73.1955
G3 X2.05 Y59.0495 I1.2376 J-14.146
G1 F300.0 X0.05
G1 Z-16.8
G1 F800.0 Y0.0
G3 X3.55 Y-3.5 I3.5 J0.0
G1 X152.4
G3 X155.9 Y0.0 I0.0 J3.5
G1 Y69.85
G3 X138.2881 Y85.9884 I-16.2 J0.0
G1 X14.8381 Y75.1879
G3 X0.05 Y59.0495 I1.4119 J-16.1384
G1 F300.0 X1.25
G1 F800.0 Y0.0
G3 X3.55 Y-2.3 I2.3 J0.0
G1 X152.4
G3 X154.7 Y0.0 I0.0 J2.3
G1 Y69.85
G3 X138.3927 Y84.7929 I-15.0 J0.0
G1 X14.9427 Y73.9924
G3 X1.25 Y59.0495 I1.3073 J-14.9429
G1 F300.0 X2.05
G1 F800.0 Y0.0
G3 X3.55 Y-1.5 I1.5 J0.0
G1 X152.4
G3 X153.9 Y0.0 I0.0 J1.5
G1 Y69.85
G3 X138.4624 Y83.996 I-14.2 J0.0
G1 X15.0124 Y73.1955
G3 X2.05 Y59.0495 I1.2376 J-14.146
G1 F300.0 X0.05
G1 Z-19.05
G1 F800.0 Y0.0
G3 X3.55 Y-3.5 I3.5 J0.0
G1 X152.4
G3 X155.9 Y0.0 I0.0 J3.5
G1 Y69.85
G3 X138.2881 Y85.9884 I-16.2 J0.0
G1 X14.8381 Y75.1879
G3 X0.05 Y59.0495 I1.4119 J-16.1384
G1 F300.0 X1.25
G1 F800.0 Y0.0
G3 X3.55 Y-2.3 I2.3 J0.0
G1 X152.4
G3 X154.7 Y0.0 I0.0 J2.3
G1 Y69.85
G3 X138.3927 Y84.7929 I-15.0 J0.0
G1 X14.9427 Y73.9924
G3 X1.25 Y59.0495 I1.3073 J-14.9429
G1 F300.0 X2.05
G1 F800.0 Y0.0
G3 X3.55 Y-1.5 I1.5 J0.0
G1 X152.4
G3 X153.9 Y0.0 I0.0 J1.5
G1 Y69.85
G3 X138.4624 Y83.996 I-14.2 J0.0
G1 X15.0124 Y73.1955
G3 X2.05 Y59.0495 I1.2376 J-14.146
G0 Z10.0
M5
M30
