( Made using CamBam - http://www.cambam.co.uk )
( PanelPart 9/27/2015 5:57:28 PM )
( T0 : 2.99 )
G21 G90 G64 G40
G0 Z10.0
( T0 : 2.99 )
T0 M6
( Drill1 )
G17
M3 S1000
G0 X63.5 Y79.375
G0 Z10.0
G0 X65.505 Y79.375
G0 Z1.0
G1 F300.0 Z0.0
G2 F800.0 X62.4975 Y77.6386 Z-0.5 I-2.005 J0.0
G2 Y81.1114 Z-1.0 I1.0025 J1.7364
G2 X65.505 Y79.375 Z-1.5 I1.0025 J-1.7364
G2 X62.4975 Y77.6386 Z-2.0 I-2.005 J0.0
G2 Y81.1114 Z-2.5 I1.0025 J1.7364
G2 X65.505 Y79.375 Z-3.0 I1.0025 J-1.7364
G2 X62.4975 Y77.6386 Z-3.5 I-2.005 J0.0
G2 Y81.1114 Z-4.0 I1.0025 J1.7364
G2 X65.505 Y79.375 I1.0025 J-1.7364
G2 X62.4975 Y77.6386 I-2.005 J0.0
G2 Y81.1114 I1.0025 J1.7364
G0 Z10.0
G0 X63.555 Y86.375
G0 Z1.0
G1 F300.0 Z0.0
G2 F800.0 X63.4725 Y86.3274 Z-0.5 I-0.055 J0.0
G2 Y86.4226 Z-1.0 I0.0275 J0.0476
G2 X63.555 Y86.375 Z-1.5 I0.0275 J-0.0476
G2 X63.4725 Y86.3274 Z-2.0 I-0.055 J0.0
G2 Y86.4226 Z-2.5 I0.0275 J0.0476
G2 X63.555 Y86.375 Z-3.0 I0.0275 J-0.0476
G2 X63.4725 Y86.3274 Z-3.5 I-0.055 J0.0
G2 Y86.4226 Z-4.0 I0.0275 J0.0476
G2 X63.555 Y86.375 I0.0275 J-0.0476
G2 X63.4725 Y86.3274 I-0.055 J0.0
G2 Y86.4226 I0.0275 J0.0476
G0 Z10.0
G0 X47.005 Y107.95
G0 Z1.0
G1 F300.0 Z0.0
G2 F800.0 X43.2475 Y105.7806 Z-0.5 I-2.505 J0.0
G2 Y110.1194 Z-1.0 I1.2525 J2.1694
G2 X47.005 Y107.95 Z-1.5 I1.2525 J-2.1694
G2 X43.2475 Y105.7806 Z-2.0 I-2.505 J0.0
G2 Y110.1194 Z-2.5 I1.2525 J2.1694
G2 X47.005 Y107.95 Z-3.0 I1.2525 J-2.1694
G2 X43.2475 Y105.7806 Z-3.5 I-2.505 J0.0
G2 Y110.1194 Z-4.0 I1.2525 J2.1694
G2 X47.005 Y107.95 I1.2525 J-2.1694
G2 X43.2475 Y105.7806 I-2.505 J0.0
G2 Y110.1194 I1.2525 J2.1694
G0 Z10.0
G0 X38.155 Y123.825
G0 Z1.0
G1 F300.0 Z0.0
G2 F800.0 X38.0725 Y123.7774 Z-0.5 I-0.055 J0.0
G2 Y123.8726 Z-1.0 I0.0275 J0.0476
G2 X38.155 Y123.825 Z-1.5 I0.0275 J-0.0476
G2 X38.0725 Y123.7774 Z-2.0 I-0.055 J0.0
G2 Y123.8726 Z-2.5 I0.0275 J0.0476
G2 X38.155 Y123.825 Z-3.0 I0.0275 J-0.0476
G2 X38.0725 Y123.7774 Z-3.5 I-0.055 J0.0
G2 Y123.8726 Z-4.0 I0.0275 J0.0476
G2 X38.155 Y123.825 I0.0275 J-0.0476
G2 X38.0725 Y123.7774 I-0.055 J0.0
G2 Y123.8726 I0.0275 J0.0476
G0 Z10.0
G0 X21.505 Y107.95
G0 Z1.0
G1 F300.0 Z0.0
G2 F800.0 X17.7475 Y105.7806 Z-0.5 I-2.505 J0.0
G2 Y110.1194 Z-1.0 I1.2525 J2.1694
G2 X21.505 Y107.95 Z-1.5 I1.2525 J-2.1694
G2 X17.7475 Y105.7806 Z-2.0 I-2.505 J0.0
G2 Y110.1194 Z-2.5 I1.2525 J2.1694
G2 X21.505 Y107.95 Z-3.0 I1.2525 J-2.1694
G2 X17.7475 Y105.7806 Z-3.5 I-2.505 J0.0
G2 Y110.1194 Z-4.0 I1.2525 J2.1694
G2 X21.505 Y107.95 I1.2525 J-2.1694
G2 X17.7475 Y105.7806 I-2.505 J0.0
G2 Y110.1194 I1.2525 J2.1694
G0 Z10.0
G0 X3.23 Y101.6
G0 Z1.0
G1 F300.0 Z0.0
G2 F800.0 X3.1475 Y101.5524 Z-0.5 I-0.055 J0.0
G2 Y101.6476 Z-1.0 I0.0275 J0.0476
G2 X3.23 Y101.6 Z-1.5 I0.0275 J-0.0476
G2 X3.1475 Y101.5524 Z-2.0 I-0.055 J0.0
G2 Y101.6476 Z-2.5 I0.0275 J0.0476
G2 X3.23 Y101.6 Z-3.0 I0.0275 J-0.0476
G2 X3.1475 Y101.5524 Z-3.5 I-0.055 J0.0
G2 Y101.6476 Z-4.0 I0.0275 J0.0476
G2 X3.23 Y101.6 I0.0275 J-0.0476
G2 X3.1475 Y101.5524 I-0.055 J0.0
G2 Y101.6476 I0.0275 J0.0476
G0 Z10.0
G0 X31.805 Y86.375
G0 Z1.0
G1 F300.0 Z0.0
G2 F800.0 X31.7225 Y86.3274 Z-0.5 I-0.055 J0.0
G2 Y86.4226 Z-1.0 I0.0275 J0.0476
G2 X31.805 Y86.375 Z-1.5 I0.0275 J-0.0476
G2 X31.7225 Y86.3274 Z-2.0 I-0.055 J0.0
G2 Y86.4226 Z-2.5 I0.0275 J0.0476
G2 X31.805 Y86.375 Z-3.0 I0.0275 J-0.0476
G2 X31.7225 Y86.3274 Z-3.5 I-0.055 J0.0
G2 Y86.4226 Z-4.0 I0.0275 J0.0476
G2 X31.805 Y86.375 I0.0275 J-0.0476
G2 X31.7225 Y86.3274 I-0.055 J0.0
G2 Y86.4226 I0.0275 J0.0476
G0 Z10.0
G0 X33.755 Y79.375
G0 Z1.0
G1 F300.0 Z0.0
G2 F800.0 X30.7475 Y77.6386 Z-0.5 I-2.005 J0.0
G2 Y81.1114 Z-1.0 I1.0025 J1.7364
G2 X33.755 Y79.375 Z-1.5 I1.0025 J-1.7364
G2 X30.7475 Y77.6386 Z-2.0 I-2.005 J0.0
G2 Y81.1114 Z-2.5 I1.0025 J1.7364
G2 X33.755 Y79.375 Z-3.0 I1.0025 J-1.7364
G2 X30.7475 Y77.6386 Z-3.5 I-2.005 J0.0
G2 Y81.1114 Z-4.0 I1.0025 J1.7364
G2 X33.755 Y79.375 I1.0025 J-1.7364
G2 X30.7475 Y77.6386 I-2.005 J0.0
G2 Y81.1114 I1.0025 J1.7364
G0 Z10.0
G0 X33.005 Y52.0
G0 Z1.0
G1 F300.0 Z0.0
G2 F800.0 X29.2475 Y49.8306 Z-0.5 I-2.505 J0.0
G2 Y54.1694 Z-1.0 I1.2525 J2.1694
G2 X33.005 Y52.0 Z-1.5 I1.2525 J-2.1694
G2 X29.2475 Y49.8306 Z-2.0 I-2.505 J0.0
G2 Y54.1694 Z-2.5 I1.2525 J2.1694
G2 X33.005 Y52.0 Z-3.0 I1.2525 J-2.1694
G2 X29.2475 Y49.8306 Z-3.5 I-2.505 J0.0
G2 Y54.1694 Z-4.0 I1.2525 J2.1694
G2 X33.005 Y52.0 I1.2525 J-2.1694
G2 X29.2475 Y49.8306 I-2.505 J0.0
G2 Y54.1694 I1.2525 J2.1694
G0 Z10.0
G0 X19.405 Y52.25
G0 Z1.0
G1 F300.0 Z0.0
G2 F800.0 X16.5475 Y50.6002 Z-0.5 I-1.905 J0.0
G2 Y53.8998 Z-1.0 I0.9525 J1.6498
G2 X19.405 Y52.25 Z-1.5 I0.9525 J-1.6498
G2 X16.5475 Y50.6002 Z-2.0 I-1.905 J0.0
G2 Y53.8998 Z-2.5 I0.9525 J1.6498
G2 X19.405 Y52.25 Z-3.0 I0.9525 J-1.6498
G2 X16.5475 Y50.6002 Z-3.5 I-1.905 J0.0
G2 Y53.8998 Z-4.0 I0.9525 J1.6498
G2 X19.405 Y52.25 I0.9525 J-1.6498
G2 X16.5475 Y50.6002 I-1.905 J0.0
G2 Y53.8998 I0.9525 J1.6498
G0 Z10.0
G0 X19.405 Y33.25
G0 Z1.0
G1 F300.0 Z0.0
G2 F800.0 X16.5475 Y31.6002 Z-0.5 I-1.905 J0.0
G2 Y34.8998 Z-1.0 I0.9525 J1.6498
G2 X19.405 Y33.25 Z-1.5 I0.9525 J-1.6498
G2 X16.5475 Y31.6002 Z-2.0 I-1.905 J0.0
G2 Y34.8998 Z-2.5 I0.9525 J1.6498
G2 X19.405 Y33.25 Z-3.0 I0.9525 J-1.6498
G2 X16.5475 Y31.6002 Z-3.5 I-1.905 J0.0
G2 Y34.8998 Z-4.0 I0.9525 J1.6498
G2 X19.405 Y33.25 I0.9525 J-1.6498
G2 X16.5475 Y31.6002 I-1.905 J0.0
G2 Y34.8998 I0.9525 J1.6498
G0 Z10.0
G0 X33.005 Y33.25
G0 Z1.0
G1 F300.0 Z0.0
G2 F800.0 X29.2475 Y31.0806 Z-0.5 I-2.505 J0.0
G2 Y35.4194 Z-1.0 I1.2525 J2.1694
G2 X33.005 Y33.25 Z-1.5 I1.2525 J-2.1694
G2 X29.2475 Y31.0806 Z-2.0 I-2.505 J0.0
G2 Y35.4194 Z-2.5 I1.2525 J2.1694
G2 X33.005 Y33.25 Z-3.0 I1.2525 J-2.1694
G2 X29.2475 Y31.0806 Z-3.5 I-2.505 J0.0
G2 Y35.4194 Z-4.0 I1.2525 J2.1694
G2 X33.005 Y33.25 I1.2525 J-2.1694
G2 X29.2475 Y31.0806 I-2.505 J0.0
G2 Y35.4194 I1.2525 J2.1694
G0 Z10.0
G0 X33.005 Y14.25
G0 Z1.0
G1 F300.0 Z0.0
G2 F800.0 X29.2475 Y12.0806 Z-0.5 I-2.505 J0.0
G2 Y16.4194 Z-1.0 I1.2525 J2.1694
G2 X33.005 Y14.25 Z-1.5 I1.2525 J-2.1694
G2 X29.2475 Y12.0806 Z-2.0 I-2.505 J0.0
G2 Y16.4194 Z-2.5 I1.2525 J2.1694
G2 X33.005 Y14.25 Z-3.0 I1.2525 J-2.1694
G2 X29.2475 Y12.0806 Z-3.5 I-2.505 J0.0
G2 Y16.4194 Z-4.0 I1.2525 J2.1694
G2 X33.005 Y14.25 I1.2525 J-2.1694
G2 X29.2475 Y12.0806 I-2.505 J0.0
G2 Y16.4194 I1.2525 J2.1694
G0 Z10.0
G0 X19.405 Y14.25
G0 Z1.0
G1 F300.0 Z0.0
G2 F800.0 X16.5475 Y12.6002 Z-0.5 I-1.905 J0.0
G2 Y15.8998 Z-1.0 I0.9525 J1.6498
G2 X19.405 Y14.25 Z-1.5 I0.9525 J-1.6498
G2 X16.5475 Y12.6002 Z-2.0 I-1.905 J0.0
G2 Y15.8998 Z-2.5 I0.9525 J1.6498
G2 X19.405 Y14.25 Z-3.0 I0.9525 J-1.6498
G2 X16.5475 Y12.6002 Z-3.5 I-1.905 J0.0
G2 Y15.8998 Z-4.0 I0.9525 J1.6498
G2 X19.405 Y14.25 I0.9525 J-1.6498
G2 X16.5475 Y12.6002 I-1.905 J0.0
G2 Y15.8998 I0.9525 J1.6498
G0 Z10.0
G0 X3.23 Y25.4
G0 Z1.0
G1 F300.0 Z0.0
G2 F800.0 X3.1475 Y25.3524 Z-0.5 I-0.055 J0.0
G2 Y25.4476 Z-1.0 I0.0275 J0.0476
G2 X3.23 Y25.4 Z-1.5 I0.0275 J-0.0476
G2 X3.1475 Y25.3524 Z-2.0 I-0.055 J0.0
G2 Y25.4476 Z-2.5 I0.0275 J0.0476
G2 X3.23 Y25.4 Z-3.0 I0.0275 J-0.0476
G2 X3.1475 Y25.3524 Z-3.5 I-0.055 J0.0
G2 Y25.4476 Z-4.0 I0.0275 J0.0476
G2 X3.23 Y25.4 I0.0275 J-0.0476
G2 X3.1475 Y25.3524 I-0.055 J0.0
G2 Y25.4476 I0.0275 J0.0476
G0 Z10.0
G0 X38.155 Y3.175
G0 Z1.0
G1 F300.0 Z0.0
G2 F800.0 X38.0725 Y3.1274 Z-0.5 I-0.055 J0.0
G2 Y3.2226 Z-1.0 I0.0275 J0.0476
G2 X38.155 Y3.175 Z-1.5 I0.0275 J-0.0476
G2 X38.0725 Y3.1274 Z-2.0 I-0.055 J0.0
G2 Y3.2226 Z-2.5 I0.0275 J0.0476
G2 X38.155 Y3.175 Z-3.0 I0.0275 J-0.0476
G2 X38.0725 Y3.1274 Z-3.5 I-0.055 J0.0
G2 Y3.2226 Z-4.0 I0.0275 J0.0476
G2 X38.155 Y3.175 I0.0275 J-0.0476
G2 X38.0725 Y3.1274 I-0.055 J0.0
G2 Y3.2226 I0.0275 J0.0476
G0 Z10.0
G0 X133.317 Y33.25
G0 Z1.0
G1 F300.0 Z0.0
G2 F800.0 X128.7015 Y30.5852 Z-0.5 I-3.077 J0.0
G2 Y35.9148 Z-1.0 I1.5385 J2.6648
G2 X133.317 Y33.25 Z-1.5 I1.5385 J-2.6648
G2 X128.7015 Y30.5852 Z-2.0 I-3.077 J0.0
G2 Y35.9148 Z-2.5 I1.5385 J2.6648
G2 X133.317 Y33.25 Z-3.0 I1.5385 J-2.6648
G2 X128.7015 Y30.5852 Z-3.5 I-3.077 J0.0
G2 Y35.9148 Z-4.0 I1.5385 J2.6648
G2 X133.317 Y33.25 I1.5385 J-2.6648
G2 X128.7015 Y30.5852 I-3.077 J0.0
G2 Y35.9148 I1.5385 J2.6648
G0 Z10.0
G0 X130.245 Y44.2351
G0 Z1.0
G1 F300.0 Z0.0
G2 F800.0 X130.2375 Y44.2307 Z-0.5 I-0.005 J0.0
G2 Y44.2394 Z-1.0 I0.0025 J0.0043
G2 X130.245 Y44.2351 Z-1.5 I0.0025 J-0.0043
G2 X130.2375 Y44.2307 Z-2.0 I-0.005 J0.0
G2 Y44.2394 Z-2.5 I0.0025 J0.0043
G2 X130.245 Y44.2351 Z-3.0 I0.0025 J-0.0043
G2 X130.2375 Y44.2307 Z-3.5 I-0.005 J0.0
G2 Y44.2394 Z-4.0 I0.0025 J0.0043
G2 X130.245 Y44.2351 I0.0025 J-0.0043
G2 X130.2375 Y44.2307 I-0.005 J0.0
G2 Y44.2394 I0.0025 J0.0043
G0 Z10.0
G0 X135.955 Y77.0
G0 Z1.0
G1 F300.0 Z0.0
G2 F800.0 X135.4975 Y76.7359 Z-0.5 I-0.305 J0.0
G2 Y77.2641 Z-1.0 I0.1525 J0.2641
G2 X135.955 Y77.0 Z-1.5 I0.1525 J-0.2641
G2 X135.4975 Y76.7359 Z-2.0 I-0.305 J0.0
G2 Y77.2641 Z-2.5 I0.1525 J0.2641
G2 X135.955 Y77.0 Z-3.0 I0.1525 J-0.2641
G2 X135.4975 Y76.7359 Z-3.5 I-0.305 J0.0
G2 Y77.2641 Z-4.0 I0.1525 J0.2641
G2 X135.955 Y77.0 I0.1525 J-0.2641
G2 X135.4975 Y76.7359 I-0.305 J0.0
G2 Y77.2641 I0.1525 J0.2641
G0 Z10.0
G0 X135.955 Y95.0
G0 Z1.0
G1 F300.0 Z0.0
G2 F800.0 X135.4975 Y94.7359 Z-0.5 I-0.305 J0.0
G2 Y95.2641 Z-1.0 I0.1525 J0.2641
G2 X135.955 Y95.0 Z-1.5 I0.1525 J-0.2641
G2 X135.4975 Y94.7359 Z-2.0 I-0.305 J0.0
G2 Y95.2641 Z-2.5 I0.1525 J0.2641
G2 X135.955 Y95.0 Z-3.0 I0.1525 J-0.2641
G2 X135.4975 Y94.7359 Z-3.5 I-0.305 J0.0
G2 Y95.2641 Z-4.0 I0.1525 J0.2641
G2 X135.955 Y95.0 I0.1525 J-0.2641
G2 X135.4975 Y94.7359 I-0.305 J0.0
G2 Y95.2641 I0.1525 J0.2641
G0 Z10.0
G0 X158.555 Y95.25
G0 Z1.0
G1 F300.0 Z0.0
G2 F800.0 X155.6975 Y93.6002 Z-0.5 I-1.905 J0.0
G2 Y96.8998 Z-1.0 I0.9525 J1.6498
G2 X158.555 Y95.25 Z-1.5 I0.9525 J-1.6498
G2 X155.6975 Y93.6002 Z-2.0 I-1.905 J0.0
G2 Y96.8998 Z-2.5 I0.9525 J1.6498
G2 X158.555 Y95.25 Z-3.0 I0.9525 J-1.6498
G2 X155.6975 Y93.6002 Z-3.5 I-1.905 J0.0
G2 Y96.8998 Z-4.0 I0.9525 J1.6498
G2 X158.555 Y95.25 I0.9525 J-1.6498
G2 X155.6975 Y93.6002 I-1.905 J0.0
G2 Y96.8998 I0.9525 J1.6498
G0 Z10.0
G0 X158.555 Y76.25
G0 Z1.0
G1 F300.0 Z0.0
G2 F800.0 X155.6975 Y74.6002 Z-0.5 I-1.905 J0.0
G2 Y77.8998 Z-1.0 I0.9525 J1.6498
G2 X158.555 Y76.25 Z-1.5 I0.9525 J-1.6498
G2 X155.6975 Y74.6002 Z-2.0 I-1.905 J0.0
G2 Y77.8998 Z-2.5 I0.9525 J1.6498
G2 X158.555 Y76.25 Z-3.0 I0.9525 J-1.6498
G2 X155.6975 Y74.6002 Z-3.5 I-1.905 J0.0
G2 Y77.8998 Z-4.0 I0.9525 J1.6498
G2 X158.555 Y76.25 I0.9525 J-1.6498
G2 X155.6975 Y74.6002 I-1.905 J0.0
G2 Y77.8998 I0.9525 J1.6498
G0 Z10.0
G0 X174.68 Y101.6
G0 Z1.0
G1 F300.0 Z0.0
G2 F800.0 X174.5975 Y101.5524 Z-0.5 I-0.055 J0.0
G2 Y101.6476 Z-1.0 I0.0275 J0.0476
G2 X174.68 Y101.6 Z-1.5 I0.0275 J-0.0476
G2 X174.5975 Y101.5524 Z-2.0 I-0.055 J0.0
G2 Y101.6476 Z-2.5 I0.0275 J0.0476
G2 X174.68 Y101.6 Z-3.0 I0.0275 J-0.0476
G2 X174.5975 Y101.5524 Z-3.5 I-0.055 J0.0
G2 Y101.6476 Z-4.0 I0.0275 J0.0476
G2 X174.68 Y101.6 I0.0275 J-0.0476
G2 X174.5975 Y101.5524 I-0.055 J0.0
G2 Y101.6476 I0.0275 J0.0476
G0 Z10.0
G0 X139.755 Y123.825
G0 Z1.0
G1 F300.0 Z0.0
G2 F800.0 X139.6725 Y123.7774 Z-0.5 I-0.055 J0.0
G2 Y123.8726 Z-1.0 I0.0275 J0.0476
G2 X139.755 Y123.825 Z-1.5 I0.0275 J-0.0476
G2 X139.6725 Y123.7774 Z-2.0 I-0.055 J0.0
G2 Y123.8726 Z-2.5 I0.0275 J0.0476
G2 X139.755 Y123.825 Z-3.0 I0.0275 J-0.0476
G2 X139.6725 Y123.7774 Z-3.5 I-0.055 J0.0
G2 Y123.8726 Z-4.0 I0.0275 J0.0476
G2 X139.755 Y123.825 I0.0275 J-0.0476
G2 X139.6725 Y123.7774 I-0.055 J0.0
G2 Y123.8726 I0.0275 J0.0476
G0 Z10.0
G0 X105.455 Y95.0
G0 Z1.0
G1 F300.0 Z0.0
G2 F800.0 X104.9975 Y94.7359 Z-0.5 I-0.305 J0.0
G2 Y95.2641 Z-1.0 I0.1525 J0.2641
G2 X105.455 Y95.0 Z-1.5 I0.1525 J-0.2641
G2 X104.9975 Y94.7359 Z-2.0 I-0.305 J0.0
G2 Y95.2641 Z-2.5 I0.1525 J0.2641
G2 X105.455 Y95.0 Z-3.0 I0.1525 J-0.2641
G2 X104.9975 Y94.7359 Z-3.5 I-0.305 J0.0
G2 Y95.2641 Z-4.0 I0.1525 J0.2641
G2 X105.455 Y95.0 I0.1525 J-0.2641
G2 X104.9975 Y94.7359 I-0.305 J0.0
G2 Y95.2641 I0.1525 J0.2641
G0 Z10.0
G0 X105.455 Y77.0
G0 Z1.0
G1 F300.0 Z0.0
G2 F800.0 X104.9975 Y76.7359 Z-0.5 I-0.305 J0.0
G2 Y77.2641 Z-1.0 I0.1525 J0.2641
G2 X105.455 Y77.0 Z-1.5 I0.1525 J-0.2641
G2 X104.9975 Y76.7359 Z-2.0 I-0.305 J0.0
G2 Y77.2641 Z-2.5 I0.1525 J0.2641
G2 X105.455 Y77.0 Z-3.0 I0.1525 J-0.2641
G2 X104.9975 Y76.7359 Z-3.5 I-0.305 J0.0
G2 Y77.2641 Z-4.0 I0.1525 J0.2641
G2 X105.455 Y77.0 I0.1525 J-0.2641
G2 X104.9975 Y76.7359 I-0.305 J0.0
G2 Y77.2641 I0.1525 J0.2641
G0 Z10.0
G0 X139.755 Y3.175
G0 Z1.0
G1 F300.0 Z0.0
G2 F800.0 X139.6725 Y3.1274 Z-0.5 I-0.055 J0.0
G2 Y3.2226 Z-1.0 I0.0275 J0.0476
G2 X139.755 Y3.175 Z-1.5 I0.0275 J-0.0476
G2 X139.6725 Y3.1274 Z-2.0 I-0.055 J0.0
G2 Y3.2226 Z-2.5 I0.0275 J0.0476
G2 X139.755 Y3.175 Z-3.0 I0.0275 J-0.0476
G2 X139.6725 Y3.1274 Z-3.5 I-0.055 J0.0
G2 Y3.2226 Z-4.0 I0.0275 J0.0476
G2 X139.755 Y3.175 I0.0275 J-0.0476
G2 X139.6725 Y3.1274 I-0.055 J0.0
G2 Y3.2226 I0.0275 J0.0476
G0 Z10.0
G0 X174.68 Y25.4
G0 Z1.0
G1 F300.0 Z0.0
G2 F800.0 X174.5975 Y25.3524 Z-0.5 I-0.055 J0.0
G2 Y25.4476 Z-1.0 I0.0275 J0.0476
G2 X174.68 Y25.4 Z-1.5 I0.0275 J-0.0476
G2 X174.5975 Y25.3524 Z-2.0 I-0.055 J0.0
G2 Y25.4476 Z-2.5 I0.0275 J0.0476
G2 X174.68 Y25.4 Z-3.0 I0.0275 J-0.0476
G2 X174.5975 Y25.3524 Z-3.5 I-0.055 J0.0
G2 Y25.4476 Z-4.0 I0.0275 J0.0476
G2 X174.68 Y25.4 I0.0275 J-0.0476
G2 X174.5975 Y25.3524 I-0.055 J0.0
G2 Y25.4476 I0.0275 J0.0476
( Profile1 )
S1000
G0 Z10.0
G0 X100.9 Y91.5
G0 Z1.0
G1 F300.0 Z-1.5
G1 F800.0 X139.9
G1 Y80.5
G1 X100.9
G1 Y91.5
G1 F300.0 Z-3.0
G1 F800.0 X139.9
G1 Y80.5
G1 X100.9
G1 Y91.5
G1 F300.0 Z-4.0
G1 F800.0 X139.9
G1 Y80.5
G1 X100.9
G1 Y91.5
( Profile2 )
S1000
G0 Z10.0
G0 X0.0 Y-1.5
G0 Z1.0
G1 F300.0 Z-1.5
G1 F800.0 X177.8
G3 X179.3 Y0.0 I0.0 J1.5
G1 Y127.0
G3 X177.8 Y128.5 I-1.5 J0.0
G1 X0.0
G3 X-1.5 Y127.0 I0.0 J-1.5
G1 Y0.0
G3 X0.0 Y-1.5 I1.5 J0.0
G1 F300.0 Z-3.0
G1 F800.0 X177.8
G3 X179.3 Y0.0 I0.0 J1.5
G1 Y127.0
G3 X177.8 Y128.5 I-1.5 J0.0
G1 X0.0
G3 X-1.5 Y127.0 I0.0 J-1.5
G1 Y0.0
G3 X0.0 Y-1.5 I1.5 J0.0
G1 F300.0 Z-4.0
G1 F800.0 X177.8
G3 X179.3 Y0.0 I0.0 J1.5
G1 Y127.0
G3 X177.8 Y128.5 I-1.5 J0.0
G1 X0.0
G3 X-1.5 Y127.0 I0.0 J-1.5
G1 Y0.0
G3 X0.0 Y-1.5 I1.5 J0.0
G0 Z10.0
M5
M30
