( Made using CamBam - http://www.cambam.co.uk )
( rightSide 9/27/2015 10:11:48 PM )
( T0 : 3.0 )
G21 G90 G64 G40
G0 Z10.0
( T0 : 3.0 )
T0 M6
( Pocket1 )
G17
M3 S1000
G0 X139.55 Y59.0495
G0 Z1.0
G1 F300.0 Z-3.2
G1 F800.0 Y9.3
G1 X138.4169
G3 X139.0618 Y12.7026 I-8.6526 J3.4026
G1 Y59.0509
G3 X138.821 Y61.1532 I-9.2976 J0.0
G2 X139.55 Y59.0495 I-2.671 J-2.1037
G1 F300.0 X140.15
G1 F800.0 Y8.7
G1 X137.4861
G3 X138.4618 Y12.7026 I-7.7219 J4.0026
G1 Y59.0509
G3 X137.6283 Y62.7663 I-8.6976 J0.0
G2 X140.15 Y59.0495 I-1.4783 J-3.7168
G1 F300.0 X141.35
G1 F800.0 Y7.5
G1 X135.1631
G3 X137.2618 Y12.7026 I-5.3988 J5.2026
G1 Y59.0509
G3 X135.0529 Y64.3654 I-7.4976 J0.0
G1 X136.6032 Y64.2297
G2 X141.35 Y59.0495 I-0.4532 J-5.1802
G0 Z10.0
G0 X10.5308 Y72.4681
G0 Z1.0
G1 F300.0 Z-3.2
G3 F800.0 X9.7501 Y68.7389 I8.5169 J-3.7292
G1 Y12.7026
G3 X10.3951 Y9.3 I9.2976 J0.0
G1 X9.3
G1 Y69.85
G2 X10.5308 Y72.4681 I3.4 J0.0
G1 F300.0 X11.0804 Y72.2275
G3 F800.0 X10.3501 Y68.7389 I7.9673 J-3.4886
G1 Y12.7026
G3 X11.3258 Y8.7 I8.6976 J0.0
G1 X8.7
G1 Y69.85
G2 X11.9608 Y73.7811 I4.0 J0.0
G3 X11.0804 Y72.2275 I7.0869 J-5.0422
G1 F300.0 X12.1796 Y71.7461
G3 F800.0 X11.5501 Y68.7389 I6.8681 J-3.0073
G1 Y12.7026
G3 X13.6489 Y7.5 I7.4976 J0.0
G1 X7.5
G1 Y69.85
G2 X13.1532 Y75.0302 I5.2 J0.0
G1 X14.7603 Y74.8896
G3 X12.1796 Y71.7461 I4.2875 J-6.1508
G0 Z10.0
G0 X16.5766 Y69.8209
G0 Z1.0
G1 F300.0 Z-3.2
G3 F800.0 X16.3501 Y68.7389 I2.4711 J-1.082
G1 Y12.7026
G3 X19.0477 Y10.005 I2.6976 J0.0
G1 X129.7642
G3 X132.4618 Y12.7026 I0.0 J2.6976
G1 Y59.0509
G3 X129.9994 Y61.7382 I-2.6976 J0.0
G1 X19.2829 Y71.4262
G3 X16.5766 Y69.8209 I-0.2351 J-2.6873
G1 F300.0 X17.6737 Y69.3405
G3 F800.0 X17.5477 Y68.7389 I1.3741 J-0.6016
G1 Y12.7026
G3 X19.0477 Y11.2026 I1.5 J0.0
G1 X129.7642
G3 X131.2642 Y12.7026 I0.0 J1.5
G1 Y59.0509
G3 X129.895 Y60.5452 I-1.5 J0.0
G1 X19.1785 Y70.2332
G3 X17.6737 Y69.3405 I-0.1308 J-1.4943
G0 Z10.0
G0 X15.4774 Y70.3022
G0 Z1.0
G1 F300.0 Z-3.2
G2 F800.0 X19.3875 Y72.6216 I3.5703 J-1.5633
G1 X130.104 Y62.9336
G2 X133.6618 Y59.0509 I-0.3398 J-3.8828
G1 Y12.7026
G2 X129.7642 Y8.805 I-3.8976 J0.0
G1 X19.0477
G2 X15.1501 Y12.7026 I0.0 J3.8976
G1 Y68.7389
G2 X15.4774 Y70.3022 I3.8976 J0.0
G1 F300.0 X14.3781 Y70.7835
G2 F800.0 X19.4921 Y73.8171 I4.6696 J-2.0446
G1 X130.2086 Y64.1291
G2 X134.8618 Y59.0509 I-0.4444 J-5.0782
G1 Y12.7026
G2 X129.7642 Y7.605 I-5.0976 J0.0
G1 X19.0477
G2 X13.9501 Y12.7026 I0.0 J5.0976
G1 Y68.7389
G2 X14.3781 Y70.7835 I5.0976 J0.0
G1 F300.0 X13.2789 Y71.2648
G2 F800.0 X19.5967 Y75.0125 I5.7688 J-2.526
G1 X130.3132 Y65.3245
G2 X136.0618 Y59.0509 I-0.549 J-6.2736
G1 Y12.7026
G2 X129.7642 Y6.405 I-6.2976 J0.0
G1 X19.0477
G2 X12.7501 Y12.7026 I0.0 J6.2976
G1 Y68.7389
G2 X13.2789 Y71.2648 I6.2976 J0.0
G0 Z10.0
G0 X13.7094 Y76.1861
G0 Z1.0
G1 F300.0 Z-3.2
G1 F800.0 X136.7078 Y65.4252
G2 X142.55 Y59.0495 I-0.5578 J-6.3756
G1 Y6.3
G1 X6.3
G1 Y69.85
G2 X13.2578 Y76.2256 I6.4 J0.0
G1 X13.7094 Y76.1861
G1 F300.0 X13.814 Y77.3816
G1 F800.0 X136.8124 Y66.6206
G2 X143.75 Y59.0495 I-0.6624 J-7.5711
G1 Y5.1
G1 X5.1
G1 Y69.85
G2 X13.3624 Y77.4211 I7.6 J0.0
G1 X13.814 Y77.3816
G1 F300.0 X13.9186 Y78.577
G1 F800.0 X136.917 Y67.816
G2 X144.95 Y59.0495 I-0.767 J-8.7665
G1 Y3.9
G1 X3.9
G1 Y69.85
G2 X13.467 Y78.6165 I8.8 J0.0
G1 X13.9186 Y78.577
G1 F300.0 X14.0232 Y79.7724
G1 F800.0 X137.0216 Y69.0115
G2 X146.15 Y59.0495 I-0.8716 J-9.9619
G1 Y2.7
G1 X2.7
G1 Y69.85
G2 X13.5716 Y79.8119 I10.0 J0.0
G1 X14.0232 Y79.7724
G1 F300.0 X14.1278 Y80.9679
G1 F800.0 X137.1261 Y70.2069
G2 X147.35 Y59.0495 I-0.9761 J-11.1574
G1 Y1.5
G1 X1.5
G1 Y69.85
G2 X13.6761 Y81.0074 I11.2 J0.0
G1 X14.1278 Y80.9679
G0 Z10.0
G0 X10.5308 Y72.4681
G0 Z-2.2
G1 F300.0 Z-6.35
G3 F800.0 X9.7501 Y68.7389 I8.5169 J-3.7292
G1 Y12.7026
G3 X10.3951 Y9.3 I9.2976 J0.0
G1 X9.3
G1 Y69.85
G2 X10.5308 Y72.4681 I3.4 J0.0
G1 F300.0 X11.0804 Y72.2275
G3 F800.0 X10.3501 Y68.7389 I7.9673 J-3.4886
G1 Y12.7026
G3 X11.3258 Y8.7 I8.6976 J0.0
G1 X8.7
G1 Y69.85
G2 X11.9608 Y73.7811 I4.0 J0.0
G3 X11.0804 Y72.2275 I7.0869 J-5.0422
G1 F300.0 X12.1796 Y71.7461
G3 F800.0 X11.5501 Y68.7389 I6.8681 J-3.0073
G1 Y12.7026
G3 X13.6489 Y7.5 I7.4976 J0.0
G1 X7.5
G1 Y69.85
G2 X13.1532 Y75.0302 I5.2 J0.0
G1 X14.7603 Y74.8896
G3 X12.1796 Y71.7461 I4.2875 J-6.1508
G0 Z10.0
G0 X138.821 Y61.1532
G0 Z-2.2
G1 F300.0 Z-6.35
G2 F800.0 X139.55 Y59.0495 I-2.671 J-2.1037
G1 Y9.3
G1 X138.4169
G3 X139.0618 Y12.7026 I-8.6526 J3.4026
G1 Y59.0509
G3 X138.821 Y61.1532 I-9.2976 J0.0
G1 F300.0 X138.2366 Y61.0176
G3 F800.0 X137.6283 Y62.7663 I-8.4723 J-1.9667
G2 X140.15 Y59.0495 I-1.4783 J-3.7168
G1 Y8.7
G1 X137.4861
G3 X138.4618 Y12.7026 I-7.7219 J4.0026
G1 Y59.0509
G3 X138.2366 Y61.0176 I-8.6976 J0.0
G1 F300.0 X137.0676 Y60.7462
G3 F800.0 X135.0529 Y64.3654 I-7.3034 J-1.6954
G1 X136.6032 Y64.2297
G2 X141.35 Y59.0495 I-0.4532 J-5.1802
G1 Y7.5
G1 X135.1631
G3 X137.2618 Y12.7026 I-5.3988 J5.2026
G1 Y59.0509
G3 X137.0676 Y60.7462 I-7.4976 J0.0
G0 Z10.0
G0 X132.392 Y59.6609
G0 Z-2.15
G1 F300.0 Z-6.35
G3 F800.0 X129.9994 Y61.7382 I-2.6277 J-0.61
G1 X19.2829 Y71.4262
G3 X16.3501 Y68.7389 I-0.2351 J-2.6873
G1 Y12.7026
G3 X19.0477 Y10.005 I2.6976 J0.0
G1 X129.7642
G3 X132.4618 Y12.7026 I0.0 J2.6976
G1 Y59.0509
G3 X132.392 Y59.6609 I-2.6976 J0.0
G1 F300.0 X131.2254 Y59.39
G3 F800.0 X129.895 Y60.5452 I-1.4611 J-0.3392
G1 X19.1785 Y70.2332
G3 X17.5477 Y68.7389 I-0.1308 J-1.4943
G1 Y12.7026
G3 X19.0477 Y11.2026 I1.5 J0.0
G1 X129.7642
G3 X131.2642 Y12.7026 I0.0 J1.5
G1 Y59.0509
G3 X131.2254 Y59.39 I-1.5 J0.0
G0 Z10.0
G0 X133.5609 Y59.9322
G0 Z-2.15
G1 F300.0 Z-6.35
G2 F800.0 X133.6618 Y59.0509 I-3.7966 J-0.8813
G1 Y12.7026
G2 X129.7642 Y8.805 I-3.8976 J0.0
G1 X19.0477
G2 X15.1501 Y12.7026 I0.0 J3.8976
G1 Y68.7389
G2 X19.3875 Y72.6216 I3.8976 J0.0
G1 X130.104 Y62.9336
G2 X133.5609 Y59.9322 I-0.3398 J-3.8828
G1 F300.0 X134.7298 Y60.2035
G2 F800.0 X134.8618 Y59.0509 I-4.9656 J-1.1527
G1 Y12.7026
G2 X129.7642 Y7.605 I-5.0976 J0.0
G1 X19.0477
G2 X13.9501 Y12.7026 I0.0 J5.0976
G1 Y68.7389
G2 X19.4921 Y73.8171 I5.0976 J0.0
G1 X130.2086 Y64.1291
G2 X134.7298 Y60.2035 I-0.4444 J-5.0782
G1 F300.0 X135.8987 Y60.4749
G2 F800.0 X136.0618 Y59.0509 I-6.1345 J-1.424
G1 Y12.7026
G2 X129.7642 Y6.405 I-6.2976 J0.0
G1 X19.0477
G2 X12.7501 Y12.7026 I0.0 J6.2976
G1 Y68.7389
G2 X19.5967 Y75.0125 I6.2976 J0.0
G1 X130.3132 Y65.3245
G2 X135.8987 Y60.4749 I-0.549 J-6.2736
G0 Z10.0
G0 X136.3347 Y65.4578
G0 Z-2.15
G1 F300.0 Z-6.35
G1 F800.0 X136.7078 Y65.4252
G2 X142.55 Y59.0495 I-0.5578 J-6.3756
G1 Y6.3
G1 X6.3
G1 Y69.85
G2 X13.2578 Y76.2256 I6.4 J0.0
G1 X136.3347 Y65.4578
G1 F300.0 X136.4393 Y66.6532
G1 F800.0 X136.8124 Y66.6206
G2 X143.75 Y59.0495 I-0.6624 J-7.5711
G1 Y5.1
G1 X5.1
G1 Y69.85
G2 X13.3624 Y77.4211 I7.6 J0.0
G1 X136.4393 Y66.6532
G1 F300.0 X136.5438 Y67.8487
G1 F800.0 X136.917 Y67.816
G2 X144.95 Y59.0495 I-0.767 J-8.7665
G1 Y3.9
G1 X3.9
G1 Y69.85
G2 X13.467 Y78.6165 I8.8 J0.0
G1 X136.5438 Y67.8487
G1 F300.0 X136.6484 Y69.0441
G1 F800.0 X137.0216 Y69.0115
G2 X146.15 Y59.0495 I-0.8716 J-9.9619
G1 Y2.7
G1 X2.7
G1 Y69.85
G2 X13.5716 Y79.8119 I10.0 J0.0
G1 X136.6484 Y69.0441
G1 F300.0 X136.753 Y70.2395
G1 F800.0 X137.1261 Y70.2069
G2 X147.35 Y59.0495 I-0.9761 J-11.1574
G1 Y1.5
G1 X1.5
G1 Y69.85
G2 X13.6761 Y81.0074 I11.2 J0.0
G1 X136.753 Y70.2395
( Drill1 )
S1000
G0 Z10.0
G0 X12.7 Y57.15
G0 Z10.0
G0 X12.75 Y57.15
G0 Z1.0
G1 F300.0 Z0.0
G2 F800.0 X12.675 Y57.1067 Z-0.5 I-0.05 J0.0
G2 Y57.1933 Z-1.0 I0.025 J0.0433
G2 X12.75 Y57.15 Z-1.5 I0.025 J-0.0433
G2 X12.675 Y57.1067 Z-2.0 I-0.05 J0.0
G2 Y57.1933 Z-2.5 I0.025 J0.0433
G2 X12.75 Y57.15 Z-3.0 I0.025 J-0.0433
G2 X12.675 Y57.1067 Z-3.5 I-0.05 J0.0
G2 Y57.1933 Z-4.0 I0.025 J0.0433
G2 X12.75 Y57.15 Z-4.5 I0.025 J-0.0433
G2 X12.675 Y57.1067 Z-5.0 I-0.05 J0.0
G2 Y57.1933 Z-5.5 I0.025 J0.0433
G2 X12.75 Y57.15 Z-6.0 I0.025 J-0.0433
G2 X12.675 Y57.1067 Z-6.5 I-0.05 J0.0
G2 Y57.1933 Z-7.0 I0.025 J0.0433
G2 X12.75 Y57.15 Z-7.5 I0.025 J-0.0433
G2 X12.675 Y57.1067 Z-8.0 I-0.05 J0.0
G2 Y57.1933 Z-8.5 I0.025 J0.0433
G2 X12.75 Y57.15 Z-9.0 I0.025 J-0.0433
G2 X12.675 Y57.1067 Z-9.5 I-0.05 J0.0
G2 Y57.1933 Z-10.0 I0.025 J0.0433
G2 X12.75 Y57.15 Z-10.5 I0.025 J-0.0433
G2 X12.675 Y57.1067 Z-11.0 I-0.05 J0.0
G2 Y57.1933 Z-11.5 I0.025 J0.0433
G2 X12.75 Y57.15 Z-12.0 I0.025 J-0.0433
G2 X12.675 Y57.1067 Z-12.5 I-0.05 J0.0
G2 Y57.1933 Z-13.0 I0.025 J0.0433
G2 X12.75 Y57.15 Z-13.5 I0.025 J-0.0433
G2 X12.675 Y57.1067 Z-14.0 I-0.05 J0.0
G2 Y57.1933 Z-14.5 I0.025 J0.0433
G2 X12.75 Y57.15 Z-15.0 I0.025 J-0.0433
G2 X12.675 Y57.1067 Z-15.5 I-0.05 J0.0
G2 Y57.1933 Z-16.0 I0.025 J0.0433
G2 X12.75 Y57.15 Z-16.5 I0.025 J-0.0433
G2 X12.675 Y57.1067 Z-17.0 I-0.05 J0.0
G2 Y57.1933 Z-17.5 I0.025 J0.0433
G2 X12.75 Y57.15 Z-18.0 I0.025 J-0.0433
G2 X12.675 Y57.1067 Z-18.5 I-0.05 J0.0
G2 Y57.1933 Z-19.0 I0.025 J0.0433
G2 X12.6845 Y57.1976 Z-19.05 I0.025 J-0.0433
G2 X12.7489 Y57.1396 I0.0155 J-0.0476
G2 X12.6665 Y57.1128 I-0.0489 J0.0104
G2 X12.6845 Y57.1976 I0.0335 J0.0372
G0 Z10.0
G0 X12.75 Y12.7
G0 Z1.0
G1 F300.0 Z0.0
G2 F800.0 X12.675 Y12.6567 Z-0.5 I-0.05 J0.0
G2 Y12.7433 Z-1.0 I0.025 J0.0433
G2 X12.75 Y12.7 Z-1.5 I0.025 J-0.0433
G2 X12.675 Y12.6567 Z-2.0 I-0.05 J0.0
G2 Y12.7433 Z-2.5 I0.025 J0.0433
G2 X12.75 Y12.7 Z-3.0 I0.025 J-0.0433
G2 X12.675 Y12.6567 Z-3.5 I-0.05 J0.0
G2 Y12.7433 Z-4.0 I0.025 J0.0433
G2 X12.75 Y12.7 Z-4.5 I0.025 J-0.0433
G2 X12.675 Y12.6567 Z-5.0 I-0.05 J0.0
G2 Y12.7433 Z-5.5 I0.025 J0.0433
G2 X12.75 Y12.7 Z-6.0 I0.025 J-0.0433
G2 X12.675 Y12.6567 Z-6.5 I-0.05 J0.0
G2 Y12.7433 Z-7.0 I0.025 J0.0433
G2 X12.75 Y12.7 Z-7.5 I0.025 J-0.0433
G2 X12.675 Y12.6567 Z-8.0 I-0.05 J0.0
G2 Y12.7433 Z-8.5 I0.025 J0.0433
G2 X12.75 Y12.7 Z-9.0 I0.025 J-0.0433
G2 X12.675 Y12.6567 Z-9.5 I-0.05 J0.0
G2 Y12.7433 Z-10.0 I0.025 J0.0433
G2 X12.75 Y12.7 Z-10.5 I0.025 J-0.0433
G2 X12.675 Y12.6567 Z-11.0 I-0.05 J0.0
G2 Y12.7433 Z-11.5 I0.025 J0.0433
G2 X12.75 Y12.7 Z-12.0 I0.025 J-0.0433
G2 X12.675 Y12.6567 Z-12.5 I-0.05 J0.0
G2 Y12.7433 Z-13.0 I0.025 J0.0433
G2 X12.75 Y12.7 Z-13.5 I0.025 J-0.0433
G2 X12.675 Y12.6567 Z-14.0 I-0.05 J0.0
G2 Y12.7433 Z-14.5 I0.025 J0.0433
G2 X12.75 Y12.7 Z-15.0 I0.025 J-0.0433
G2 X12.675 Y12.6567 Z-15.5 I-0.05 J0.0
G2 Y12.7433 Z-16.0 I0.025 J0.0433
G2 X12.75 Y12.7 Z-16.5 I0.025 J-0.0433
G2 X12.675 Y12.6567 Z-17.0 I-0.05 J0.0
G2 Y12.7433 Z-17.5 I0.025 J0.0433
G2 X12.75 Y12.7 Z-18.0 I0.025 J-0.0433
G2 X12.675 Y12.6567 Z-18.5 I-0.05 J0.0
G2 Y12.7433 Z-19.0 I0.025 J0.0433
G2 X12.6845 Y12.7476 Z-19.05 I0.025 J-0.0433
G2 X12.7489 Y12.6896 I0.0155 J-0.0476
G2 X12.6665 Y12.6628 I-0.0489 J0.0104
G2 X12.6845 Y12.7476 I0.0335 J0.0372
G0 Z10.0
G0 X135.94 Y12.7
G0 Z1.0
G1 F300.0 Z0.0
G2 F800.0 X135.865 Y12.6567 Z-0.5 I-0.05 J0.0
G2 Y12.7433 Z-1.0 I0.025 J0.0433
G2 X135.94 Y12.7 Z-1.5 I0.025 J-0.0433
G2 X135.865 Y12.6567 Z-2.0 I-0.05 J0.0
G2 Y12.7433 Z-2.5 I0.025 J0.0433
G2 X135.94 Y12.7 Z-3.0 I0.025 J-0.0433
G2 X135.865 Y12.6567 Z-3.5 I-0.05 J0.0
G2 Y12.7433 Z-4.0 I0.025 J0.0433
G2 X135.94 Y12.7 Z-4.5 I0.025 J-0.0433
G2 X135.865 Y12.6567 Z-5.0 I-0.05 J0.0
G2 Y12.7433 Z-5.5 I0.025 J0.0433
G2 X135.94 Y12.7 Z-6.0 I0.025 J-0.0433
G2 X135.865 Y12.6567 Z-6.5 I-0.05 J0.0
G2 Y12.7433 Z-7.0 I0.025 J0.0433
G2 X135.94 Y12.7 Z-7.5 I0.025 J-0.0433
G2 X135.865 Y12.6567 Z-8.0 I-0.05 J0.0
G2 Y12.7433 Z-8.5 I0.025 J0.0433
G2 X135.94 Y12.7 Z-9.0 I0.025 J-0.0433
G2 X135.865 Y12.6567 Z-9.5 I-0.05 J0.0
G2 Y12.7433 Z-10.0 I0.025 J0.0433
G2 X135.94 Y12.7 Z-10.5 I0.025 J-0.0433
G2 X135.865 Y12.6567 Z-11.0 I-0.05 J0.0
G2 Y12.7433 Z-11.5 I0.025 J0.0433
G2 X135.94 Y12.7 Z-12.0 I0.025 J-0.0433
G2 X135.865 Y12.6567 Z-12.5 I-0.05 J0.0
G2 Y12.7433 Z-13.0 I0.025 J0.0433
G2 X135.94 Y12.7 Z-13.5 I0.025 J-0.0433
G2 X135.865 Y12.6567 Z-14.0 I-0.05 J0.0
G2 Y12.7433 Z-14.5 I0.025 J0.0433
G2 X135.94 Y12.7 Z-15.0 I0.025 J-0.0433
G2 X135.865 Y12.6567 Z-15.5 I-0.05 J0.0
G2 Y12.7433 Z-16.0 I0.025 J0.0433
G2 X135.94 Y12.7 Z-16.5 I0.025 J-0.0433
G2 X135.865 Y12.6567 Z-17.0 I-0.05 J0.0
G2 Y12.7433 Z-17.5 I0.025 J0.0433
G2 X135.94 Y12.7 Z-18.0 I0.025 J-0.0433
G2 X135.865 Y12.6567 Z-18.5 I-0.05 J0.0
G2 Y12.7433 Z-19.0 I0.025 J0.0433
G2 X135.8745 Y12.7476 Z-19.05 I0.025 J-0.0433
G2 X135.9389 Y12.6896 I0.0155 J-0.0476
G2 X135.8565 Y12.6628 I-0.0489 J0.0104
G2 X135.8745 Y12.7476 I0.0335 J0.0372
G0 Z10.0
G0 X135.94 Y44.45
G0 Z1.0
G1 F300.0 Z0.0
G2 F800.0 X135.865 Y44.4067 Z-0.5 I-0.05 J0.0
G2 Y44.4933 Z-1.0 I0.025 J0.0433
G2 X135.94 Y44.45 Z-1.5 I0.025 J-0.0433
G2 X135.865 Y44.4067 Z-2.0 I-0.05 J0.0
G2 Y44.4933 Z-2.5 I0.025 J0.0433
G2 X135.94 Y44.45 Z-3.0 I0.025 J-0.0433
G2 X135.865 Y44.4067 Z-3.5 I-0.05 J0.0
G2 Y44.4933 Z-4.0 I0.025 J0.0433
G2 X135.94 Y44.45 Z-4.5 I0.025 J-0.0433
G2 X135.865 Y44.4067 Z-5.0 I-0.05 J0.0
G2 Y44.4933 Z-5.5 I0.025 J0.0433
G2 X135.94 Y44.45 Z-6.0 I0.025 J-0.0433
G2 X135.865 Y44.4067 Z-6.5 I-0.05 J0.0
G2 Y44.4933 Z-7.0 I0.025 J0.0433
G2 X135.94 Y44.45 Z-7.5 I0.025 J-0.0433
G2 X135.865 Y44.4067 Z-8.0 I-0.05 J0.0
G2 Y44.4933 Z-8.5 I0.025 J0.0433
G2 X135.94 Y44.45 Z-9.0 I0.025 J-0.0433
G2 X135.865 Y44.4067 Z-9.5 I-0.05 J0.0
G2 Y44.4933 Z-10.0 I0.025 J0.0433
G2 X135.94 Y44.45 Z-10.5 I0.025 J-0.0433
G2 X135.865 Y44.4067 Z-11.0 I-0.05 J0.0
G2 Y44.4933 Z-11.5 I0.025 J0.0433
G2 X135.94 Y44.45 Z-12.0 I0.025 J-0.0433
G2 X135.865 Y44.4067 Z-12.5 I-0.05 J0.0
G2 Y44.4933 Z-13.0 I0.025 J0.0433
G2 X135.94 Y44.45 Z-13.5 I0.025 J-0.0433
G2 X135.865 Y44.4067 Z-14.0 I-0.05 J0.0
G2 Y44.4933 Z-14.5 I0.025 J0.0433
G2 X135.94 Y44.45 Z-15.0 I0.025 J-0.0433
G2 X135.865 Y44.4067 Z-15.5 I-0.05 J0.0
G2 Y44.4933 Z-16.0 I0.025 J0.0433
G2 X135.94 Y44.45 Z-16.5 I0.025 J-0.0433
G2 X135.865 Y44.4067 Z-17.0 I-0.05 J0.0
G2 Y44.4933 Z-17.5 I0.025 J0.0433
G2 X135.94 Y44.45 Z-18.0 I0.025 J-0.0433
G2 X135.865 Y44.4067 Z-18.5 I-0.05 J0.0
G2 Y44.4933 Z-19.0 I0.025 J0.0433
G2 X135.8745 Y44.4976 Z-19.05 I0.025 J-0.0433
G2 X135.9389 Y44.4396 I0.0155 J-0.0476
G2 X135.8565 Y44.4128 I-0.0489 J0.0104
G2 X135.8745 Y44.4976 I0.0335 J0.0372
( Profile1 )
S1000
G0 Z10.0
G0 X153.55 Y59.0495
G0 Z1.0
G1 F300.0 Z-3.4
G3 F800.0 X137.6665 Y76.3833 I-17.4 J0.0
G1 X14.2165 Y87.1838
G3 X-4.7 Y69.85 I-1.5165 J-17.3338
G1 Y0.0
G3 X0.0 Y-4.7 I4.7 J0.0
G1 X148.85
G3 X153.55 Y0.0 I0.0 J4.7
G1 Y59.0495
G1 F300.0 X152.35
G3 F800.0 X137.5619 Y75.1879 I-16.2 J0.0
G1 X14.1119 Y85.9884
G3 X-3.5 Y69.85 I-1.4119 J-16.1384
G1 Y0.0
G3 X0.0 Y-3.5 I3.5 J0.0
G1 X148.85
G3 X152.35 Y0.0 I0.0 J3.5
G1 Y59.0495
G1 F300.0 X151.15
G3 F800.0 X137.4573 Y73.9924 I-15.0 J0.0
G1 X14.0073 Y84.7929
G3 X-2.3 Y69.85 I-1.3073 J-14.9429
G1 Y0.0
G3 X0.0 Y-2.3 I2.3 J0.0
G1 X148.85
G3 X151.15 Y0.0 I0.0 J2.3
G1 Y59.0495
G1 F300.0 X150.35
G3 F800.0 X137.3876 Y73.1955 I-14.2 J0.0
G1 X13.9376 Y83.996
G3 X-1.5 Y69.85 I-1.2376 J-14.146
G1 Y0.0
G3 X0.0 Y-1.5 I1.5 J0.0
G1 X148.85
G3 X150.35 Y0.0 I0.0 J1.5
G1 Y59.0495
G0 Z10.0
G0 X153.55
G0 Z-2.4
G1 F300.0 Z-6.8
G3 F800.0 X137.6665 Y76.3833 I-17.4 J0.0
G1 X14.2165 Y87.1838
G3 X-4.7 Y69.85 I-1.5165 J-17.3338
G1 Y0.0
G3 X0.0 Y-4.7 I4.7 J0.0
G1 X148.85
G3 X153.55 Y0.0 I0.0 J4.7
G1 Y59.0495
G1 F300.0 X152.35
G3 F800.0 X137.5619 Y75.1879 I-16.2 J0.0
G1 X14.1119 Y85.9884
G3 X-3.5 Y69.85 I-1.4119 J-16.1384
G1 Y0.0
G3 X0.0 Y-3.5 I3.5 J0.0
G1 X148.85
G3 X152.35 Y0.0 I0.0 J3.5
G1 Y59.0495
G1 F300.0 X151.15
G3 F800.0 X137.4573 Y73.9924 I-15.0 J0.0
G1 X14.0073 Y84.7929
G3 X-2.3 Y69.85 I-1.3073 J-14.9429
G1 Y0.0
G3 X0.0 Y-2.3 I2.3 J0.0
G1 X148.85
G3 X151.15 Y0.0 I0.0 J2.3
G1 Y59.0495
G1 F300.0 X150.35
G3 F800.0 X137.3876 Y73.1955 I-14.2 J0.0
G1 X13.9376 Y83.996
G3 X-1.5 Y69.85 I-1.2376 J-14.146
G1 Y0.0
G3 X0.0 Y-1.5 I1.5 J0.0
G1 X148.85
G3 X150.35 Y0.0 I0.0 J1.5
G1 Y59.0495
G0 Z10.0
G0 X153.55
G0 Z-5.8
G1 F300.0 Z-10.0
G3 F800.0 X137.6665 Y76.3833 I-17.4 J0.0
G1 X14.2165 Y87.1838
G3 X-4.7 Y69.85 I-1.5165 J-17.3338
G1 Y0.0
G3 X0.0 Y-4.7 I4.7 J0.0
G1 X148.85
G3 X153.55 Y0.0 I0.0 J4.7
G1 Y59.0495
G1 F300.0 X152.35
G3 F800.0 X137.5619 Y75.1879 I-16.2 J0.0
G1 X14.1119 Y85.9884
G3 X-3.5 Y69.85 I-1.4119 J-16.1384
G1 Y0.0
G3 X0.0 Y-3.5 I3.5 J0.0
G1 X148.85
G3 X152.35 Y0.0 I0.0 J3.5
G1 Y59.0495
G1 F300.0 X151.15
G3 F800.0 X137.4573 Y73.9924 I-15.0 J0.0
G1 X14.0073 Y84.7929
G3 X-2.3 Y69.85 I-1.3073 J-14.9429
G1 Y0.0
G3 X0.0 Y-2.3 I2.3 J0.0
G1 X148.85
G3 X151.15 Y0.0 I0.0 J2.3
G1 Y59.0495
G1 F300.0 X150.35
G3 F800.0 X137.3876 Y73.1955 I-14.2 J0.0
G1 X13.9376 Y83.996
G3 X-1.5 Y69.85 I-1.2376 J-14.146
G1 Y0.0
G3 X0.0 Y-1.5 I1.5 J0.0
G1 X148.85
G3 X150.35 Y0.0 I0.0 J1.5
G1 Y59.0495
( Profile2 )
S1000
G1 F300.0 X152.35
G1 Z-11.5
G3 F800.0 X137.5619 Y75.1879 I-16.2 J0.0
G1 X14.1119 Y85.9884
G3 X-3.5 Y69.85 I-1.4119 J-16.1384
G1 Y0.0
G3 X0.0 Y-3.5 I3.5 J0.0
G1 X148.85
G3 X152.35 Y0.0 I0.0 J3.5
G1 Y59.0495
G1 F300.0 X151.15
G3 F800.0 X137.4573 Y73.9924 I-15.0 J0.0
G1 X14.0073 Y84.7929
G3 X-2.3 Y69.85 I-1.3073 J-14.9429
G1 Y0.0
G3 X0.0 Y-2.3 I2.3 J0.0
G1 X148.85
G3 X151.15 Y0.0 I0.0 J2.3
G1 Y59.0495
G1 F300.0 X150.35
G3 F800.0 X137.3876 Y73.1955 I-14.2 J0.0
G1 X13.9376 Y83.996
G3 X-1.5 Y69.85 I-1.2376 J-14.146
G1 Y0.0
G3 X0.0 Y-1.5 I1.5 J0.0
G1 X148.85
G3 X150.35 Y0.0 I0.0 J1.5
G1 Y59.0495
G1 F300.0 X152.35
G1 Z-13.0
G3 F800.0 X137.5619 Y75.1879 I-16.2 J0.0
G1 X14.1119 Y85.9884
G3 X-3.5 Y69.85 I-1.4119 J-16.1384
G1 Y0.0
G3 X0.0 Y-3.5 I3.5 J0.0
G1 X148.85
G3 X152.35 Y0.0 I0.0 J3.5
G1 Y59.0495
G1 F300.0 X151.15
G3 F800.0 X137.4573 Y73.9924 I-15.0 J0.0
G1 X14.0073 Y84.7929
G3 X-2.3 Y69.85 I-1.3073 J-14.9429
G1 Y0.0
G3 X0.0 Y-2.3 I2.3 J0.0
G1 X148.85
G3 X151.15 Y0.0 I0.0 J2.3
G1 Y59.0495
G1 F300.0 X150.35
G3 F800.0 X137.3876 Y73.1955 I-14.2 J0.0
G1 X13.9376 Y83.996
G3 X-1.5 Y69.85 I-1.2376 J-14.146
G1 Y0.0
G3 X0.0 Y-1.5 I1.5 J0.0
G1 X148.85
G3 X150.35 Y0.0 I0.0 J1.5
G1 Y59.0495
G1 F300.0 X152.35
G1 Z-14.5
G3 F800.0 X137.5619 Y75.1879 I-16.2 J0.0
G1 X14.1119 Y85.9884
G3 X-3.5 Y69.85 I-1.4119 J-16.1384
G1 Y0.0
G3 X0.0 Y-3.5 I3.5 J0.0
G1 X148.85
G3 X152.35 Y0.0 I0.0 J3.5
G1 Y59.0495
G1 F300.0 X151.15
G3 F800.0 X137.4573 Y73.9924 I-15.0 J0.0
G1 X14.0073 Y84.7929
G3 X-2.3 Y69.85 I-1.3073 J-14.9429
G1 Y0.0
G3 X0.0 Y-2.3 I2.3 J0.0
G1 X148.85
G3 X151.15 Y0.0 I0.0 J2.3
G1 Y59.0495
G1 F300.0 X150.35
G3 F800.0 X137.3876 Y73.1955 I-14.2 J0.0
G1 X13.9376 Y83.996
G3 X-1.5 Y69.85 I-1.2376 J-14.146
G1 Y0.0
G3 X0.0 Y-1.5 I1.5 J0.0
G1 X148.85
G3 X150.35 Y0.0 I0.0 J1.5
G1 Y59.0495
G1 F300.0 X152.35
G1 Z-16.0
G3 F800.0 X137.5619 Y75.1879 I-16.2 J0.0
G1 X14.1119 Y85.9884
G3 X-3.5 Y69.85 I-1.4119 J-16.1384
G1 Y0.0
G3 X0.0 Y-3.5 I3.5 J0.0
G1 X148.85
G3 X152.35 Y0.0 I0.0 J3.5
G1 Y59.0495
G1 F300.0 X151.15
G3 F800.0 X137.4573 Y73.9924 I-15.0 J0.0
G1 X14.0073 Y84.7929
G3 X-2.3 Y69.85 I-1.3073 J-14.9429
G1 Y0.0
G3 X0.0 Y-2.3 I2.3 J0.0
G1 X148.85
G3 X151.15 Y0.0 I0.0 J2.3
G1 Y59.0495
G1 F300.0 X150.35
G3 F800.0 X137.3876 Y73.1955 I-14.2 J0.0
G1 X13.9376 Y83.996
G3 X-1.5 Y69.85 I-1.2376 J-14.146
G1 Y0.0
G3 X0.0 Y-1.5 I1.5 J0.0
G1 X148.85
G3 X150.35 Y0.0 I0.0 J1.5
G1 Y59.0495
G1 F300.0 X152.35
G1 Z-17.5
G3 F800.0 X137.5619 Y75.1879 I-16.2 J0.0
G1 X14.1119 Y85.9884
G3 X-3.5 Y69.85 I-1.4119 J-16.1384
G1 Y0.0
G3 X0.0 Y-3.5 I3.5 J0.0
G1 X148.85
G3 X152.35 Y0.0 I0.0 J3.5
G1 Y59.0495
G1 F300.0 X151.15
G3 F800.0 X137.4573 Y73.9924 I-15.0 J0.0
G1 X14.0073 Y84.7929
G3 X-2.3 Y69.85 I-1.3073 J-14.9429
G1 Y0.0
G3 X0.0 Y-2.3 I2.3 J0.0
G1 X148.85
G3 X151.15 Y0.0 I0.0 J2.3
G1 Y59.0495
G1 F300.0 X150.35
G3 F800.0 X137.3876 Y73.1955 I-14.2 J0.0
G1 X13.9376 Y83.996
G3 X-1.5 Y69.85 I-1.2376 J-14.146
G1 Y0.0
G3 X0.0 Y-1.5 I1.5 J0.0
G1 X148.85
G3 X150.35 Y0.0 I0.0 J1.5
G1 Y59.0495
G1 F300.0 X152.35
G1 Z-19.05
G3 F800.0 X137.5619 Y75.1879 I-16.2 J0.0
G1 X14.1119 Y85.9884
G3 X-3.5 Y69.85 I-1.4119 J-16.1384
G1 Y0.0
G3 X0.0 Y-3.5 I3.5 J0.0
G1 X148.85
G3 X152.35 Y0.0 I0.0 J3.5
G1 Y59.0495
G1 F300.0 X151.15
G3 F800.0 X137.4573 Y73.9924 I-15.0 J0.0
G1 X14.0073 Y84.7929
G3 X-2.3 Y69.85 I-1.3073 J-14.9429
G1 Y0.0
G3 X0.0 Y-2.3 I2.3 J0.0
G1 X148.85
G3 X151.15 Y0.0 I0.0 J2.3
G1 Y59.0495
G1 F300.0 X150.35
G3 F800.0 X137.3876 Y73.1955 I-14.2 J0.0
G1 X13.9376 Y83.996
G3 X-1.5 Y69.85 I-1.2376 J-14.146
G1 Y0.0
G3 X0.0 Y-1.5 I1.5 J0.0
G1 X148.85
G3 X150.35 Y0.0 I0.0 J1.5
G1 Y59.0495
G0 Z10.0
M5
M30
