$100=40
$111=600
$101=40
$110=600
$102=40
$112=600
( Made using CamBam - http://www.cambam.co.uk )
( 10x10test 9/25/2015 2:00:43 PM )
( T0 : 3.0 )
G21 G90 ( G64 G40)
(G0 Z3.0)
( T0 : 3.0 )
(T0 M6)
( Profile1 )
(G17)
(M3 S1000)
G0 X0.0 Y-3.5
G0 Z1.0
G1 F300.0 Z-2.0
G1 F800.0 X50.0
G3 X53.5 Y0.0 I0.0 J3.5
G1 Y50.0
G3 X50.0 Y53.5 I-3.5 J0.0
G1 X0.0
G3 X-3.5 Y50.0 I0.0 J-3.5
G1 Y0.0
G3 X0.0 Y-3.5 I3.5 J0.0
G1 F300.0 Y-2.3
G1 F800.0 X50.0
G3 X52.3 Y0.0 I0.0 J2.3
G1 Y50.0
G3 X50.0 Y52.3 I-2.3 J0.0
G1 X0.0
G3 X-2.3 Y50.0 I0.0 J-2.3
G1 Y0.0
G3 X0.0 Y-2.3 I2.3 J0.0
G1 F300.0 Y-1.5
G1 F800.0 X50.0
G3 X51.5 Y0.0 I0.0 J1.5
G1 Y50.0
G3 X50.0 Y51.5 I-1.5 J0.0
G1 X0.0
G3 X-1.5 Y50.0 I0.0 J-1.5
G1 Y0.0
G3 X0.0 Y-1.5 I1.5 J0.0
G1 F300.0 Y-3.5
G1 Z-4.0
G1 F800.0 X50.0
G3 X53.5 Y0.0 I0.0 J3.5
G1 Y50.0
G3 X50.0 Y53.5 I-3.5 J0.0
G1 X0.0
G3 X-3.5 Y50.0 I0.0 J-3.5
G1 Y0.0
G3 X0.0 Y-3.5 I3.5 J0.0
G1 F300.0 Y-2.3
G1 F800.0 X50.0
G3 X52.3 Y0.0 I0.0 J2.3
G1 Y50.0
G3 X50.0 Y52.3 I-2.3 J0.0
G1 X0.0
G3 X-2.3 Y50.0 I0.0 J-2.3
G1 Y0.0
G3 X0.0 Y-2.3 I2.3 J0.0
G1 F300.0 Y-1.5
G1 F800.0 X50.0
G3 X51.5 Y0.0 I0.0 J1.5
G1 Y50.0
G3 X50.0 Y51.5 I-1.5 J0.0
G1 X0.0
G3 X-1.5 Y50.0 I0.0 J-1.5
G1 Y0.0
G3 X0.0 Y-1.5 I1.5 J0.0
G1 F300.0 Y-3.5
G1 Z-5.0
G1 F800.0 X50.0
G3 X53.5 Y0.0 I0.0 J3.5
G1 Y50.0
G3 X50.0 Y53.5 I-3.5 J0.0
G1 X0.0
G3 X-3.5 Y50.0 I0.0 J-3.5
G1 Y0.0
G3 X0.0 Y-3.5 I3.5 J0.0
G1 F300.0 Y-2.3
G1 F800.0 X50.0
G3 X52.3 Y0.0 I0.0 J2.3
G1 Y50.0
G3 X50.0 Y52.3 I-2.3 J0.0
G1 X0.0
G3 X-2.3 Y50.0 I0.0 J-2.3
G1 Y0.0
G3 X0.0 Y-2.3 I2.3 J0.0
G1 F300.0 Y-1.5
G1 F800.0 X50.0
G3 X51.5 Y0.0 I0.0 J1.5
G1 Y50.0
G3 X50.0 Y51.5 I-1.5 J0.0
G1 X0.0
G3 X-1.5 Y50.0 I0.0 J-1.5
G1 Y0.0
G3 X0.0 Y-1.5 I1.5 J0.0
G0 Z3.0
(M5)
(M30)
