(Generated by PartKam Version 0.05)

G20 G90 G40

(pocket 1)
G0 Z0.5
T0 M6
G17
M3
G0 X2.2328 Y2.2901
G1 Z-0.125 F30
G3 X2.2255 Y2.2792 I0.1291 J-0.0937 F60
G3 X2.225 Y2.2662 I0.159 J-0.013
G1 X2.225 Y2.2658
G1 X2.225 Y2.2655
G1 X2.225 Y2.265
G3 X2.2255 Y2.252 I0.1595 J0
G3 X2.2328 Y2.2412 I0.1363 J0.0829
G3 X2.2408 Y2.231 I0.1291 J0.0937
G3 X2.2531 Y2.2264 I0.0615 J0.1472
G3 X2.2656 Y2.2229 I0.0493 J0.1517
G3 X2.2782 Y2.2264 I-0.0367 J0.1552
G3 X2.2904 Y2.231 I-0.0493 J0.1517
G3 X2.2985 Y2.2412 I-0.121 J0.104
G3 X2.3057 Y2.252 I-0.1291 J0.0937
G3 X2.3063 Y2.265 I-0.159 J0.013
G1 X2.3063 Y2.2655
G1 X2.3063 Y2.2657
G1 X2.3062 Y2.2662
G3 X2.3057 Y2.2792 I-0.1595 J0
G3 X2.2985 Y2.2901 I-0.1363 J-0.0829
G3 X2.2904 Y2.3003 I-0.1291 J-0.0937
G3 X2.2782 Y2.3048 I-0.0615 J-0.1472
G3 X2.2656 Y2.3084 I-0.0493 J-0.1517
G3 X2.2531 Y2.3048 I0.0367 J-0.1552
G3 X2.2408 Y2.3003 I0.0493 J-0.1517
G3 X2.2328 Y2.2901 I0.121 J-0.104
G1 X2.1518 Y2.3488 F60
G3 X2.131 Y2.315 I0.21 J-0.1525 F60
G3 X2.1292 Y2.3105 I0.027 J-0.0139
G3 X2.128 Y2.3057 I0.0289 J-0.0094
G3 X2.125 Y2.2662 I0.2565 J-0.0395
G1 X2.125 Y2.2658
G1 X2.125 Y2.2656
G1 X2.125 Y2.265
G1 X2.125 Y2.265
G3 X2.128 Y2.2255 I0.2595 J0
G3 X2.1292 Y2.2207 I0.03 J0.0046
G3 X2.131 Y2.2162 I0.0289 J0.0094
G3 X2.1518 Y2.1824 I0.2308 J0.1187
G3 X2.1776 Y2.1522 I0.21 J0.1525
G3 X2.1813 Y2.149 I0.0216 J0.0214
G3 X2.1855 Y2.1464 I0.0179 J0.0246
G3 X2.2222 Y2.1313 I0.1169 J0.2317
G3 X2.2607 Y2.122 I0.0802 J0.2468
G3 X2.2656 Y2.1216 I0.0049 J0.03
G3 X2.2705 Y2.122 I0 J0.0304
G3 X2.3091 Y2.1313 I-0.0416 J0.2562
G3 X2.3458 Y2.1464 I-0.0802 J0.2468
G3 X2.35 Y2.149 I-0.0137 J0.0271
G3 X2.3537 Y2.1522 I-0.0179 J0.0246
G3 X2.3794 Y2.1824 I-0.1843 J0.1828
G3 X2.4002 Y2.2162 I-0.21 J0.1525
G3 X2.4021 Y2.2207 I-0.027 J0.0139
G3 X2.4032 Y2.2255 I-0.0289 J0.0094
G3 X2.4063 Y2.265 I-0.2565 J0.0395
G1 X2.4063 Y2.2654
G1 X2.4063 Y2.2657
G1 X2.4062 Y2.2662
G1 X2.4062 Y2.2662
G3 X2.4032 Y2.3057 I-0.2595 J0
G3 X2.4021 Y2.3105 I-0.03 J-0.0046
G3 X2.4002 Y2.315 I-0.0289 J-0.0094
G3 X2.3794 Y2.3488 I-0.2308 J-0.1187
G3 X2.3537 Y2.3791 I-0.21 J-0.1525
G3 X2.35 Y2.3823 I-0.0216 J-0.0214
G3 X2.3458 Y2.3848 I-0.0179 J-0.0246
G3 X2.3091 Y2.3999 I-0.1169 J-0.2317
G3 X2.2705 Y2.4093 I-0.0802 J-0.2468
G3 X2.2656 Y2.4097 I-0.0049 J-0.03
G3 X2.2607 Y2.4093 I0 J-0.0304
G3 X2.2222 Y2.3999 I0.0416 J-0.2562
G3 X2.1855 Y2.3848 I0.0802 J-0.2468
G3 X2.1813 Y2.3823 I0.0137 J-0.0271
G3 X2.1776 Y2.3791 I0.0179 J-0.0246
G3 X2.1518 Y2.3488 I0.1843 J-0.1828
G1 X2.0709 Y2.4076 F60
G3 X2.0421 Y2.3608 I0.2909 J-0.2113 F60
G3 X2.034 Y2.3414 I0.116 J-0.0596
G3 X2.0292 Y2.321 I0.124 J-0.0403
G3 X2.025 Y2.2662 I0.3553 J-0.0548
G1 X2.025 Y2.2658
G1 X2.025 Y2.2656
G1 X2.025 Y2.265
G1 X2.025 Y2.265
G3 X2.0292 Y2.2103 I0.3595 J0
G3 X2.034 Y2.1899 I0.1289 J0.0199
G3 X2.0421 Y2.1705 I0.124 J0.0403
G3 X2.0709 Y2.1236 I0.3197 J0.1644
G3 X2.1066 Y2.0817 I0.2909 J0.2113
G3 X2.1225 Y2.0681 I0.0926 J0.0918
G3 X2.1404 Y2.0572 I0.0767 J0.1055
G3 X2.1913 Y2.0362 I0.162 J0.321
G3 X2.2447 Y2.0233 I0.1111 J0.3419
G3 X2.2656 Y2.0216 I0.0209 J0.1287
G3 X2.2865 Y2.0233 I0 J0.1304
G3 X2.34 Y2.0362 I-0.0577 J0.3549
G3 X2.3908 Y2.0572 I-0.1111 J0.3419
G3 X2.4088 Y2.0681 I-0.0587 J0.1164
G3 X2.4247 Y2.0817 I-0.0767 J0.1055
G3 X2.4603 Y2.1236 I-0.2553 J0.2532
G3 X2.4891 Y2.1705 I-0.2909 J0.2113
G3 X2.4972 Y2.1899 I-0.116 J0.0596
G3 X2.5021 Y2.2103 I-0.124 J0.0403
G3 X2.5063 Y2.265 I-0.3553 J0.0548
G1 X2.5063 Y2.2654
G1 X2.5063 Y2.2656
G1 X2.5062 Y2.2662
G1 X2.5062 Y2.2662
G3 X2.5021 Y2.321 I-0.3595 J0
G3 X2.4972 Y2.3414 I-0.1289 J-0.0199
G3 X2.4891 Y2.3608 I-0.124 J-0.0403
G3 X2.4603 Y2.4076 I-0.3197 J-0.1644
G3 X2.4247 Y2.4495 I-0.2909 J-0.2113
G3 X2.4088 Y2.4632 I-0.0926 J-0.0918
G3 X2.3908 Y2.4741 I-0.0767 J-0.1055
G3 X2.34 Y2.495 I-0.162 J-0.321
G3 X2.2865 Y2.508 I-0.1111 J-0.3419
G3 X2.2656 Y2.5097 I-0.0209 J-0.1287
G3 X2.2447 Y2.508 I0 J-0.1304
G3 X2.1913 Y2.495 I0.0577 J-0.3549
G3 X2.1404 Y2.4741 I0.1111 J-0.3419
G3 X2.1225 Y2.4632 I0.0587 J-0.1164
G3 X2.1066 Y2.4495 I0.0767 J-0.1055
G3 X2.0709 Y2.4076 I0.2553 J-0.2532
G1 X1.99 Y2.4664 F60
G3 X1.9532 Y2.4065 I0.3718 J-0.27 F60
G3 X1.9389 Y2.3723 I0.2049 J-0.1054
G3 X1.9304 Y2.3362 I0.2191 J-0.0712
G3 X1.925 Y2.2662 I0.4542 J-0.07
G1 X1.925 Y2.2658
G1 X1.925 Y2.2657
G1 X1.925 Y2.265
G1 X1.925 Y2.265
G3 X1.9304 Y2.195 I0.4595 J0
G3 X1.9389 Y2.159 I0.2277 J0.0351
G3 X1.9532 Y2.1248 I0.2191 J0.0712
G3 X1.99 Y2.0649 I0.4086 J0.2102
G3 X2.0356 Y2.0113 I0.3718 J0.27
G3 X2.0637 Y1.9872 I0.1636 J0.1622
G3 X2.0954 Y1.9679 I0.1354 J0.1864
G3 X2.1603 Y1.9411 I0.207 J0.4102
G3 X2.2287 Y1.9246 I0.142 J0.437
G3 X2.2656 Y1.9216 I0.037 J0.2274
G3 X2.3026 Y1.9246 I0 J0.2304
G3 X2.3709 Y1.9411 I-0.0737 J0.4536
G3 X2.4359 Y1.9679 I-0.142 J0.437
G3 X2.4675 Y1.9872 I-0.1038 J0.2057
G3 X2.4957 Y2.0113 I-0.1354 J0.1864
G3 X2.5412 Y2.0649 I-0.3263 J0.3236
G3 X2.5781 Y2.1248 I-0.3718 J0.27
G3 X2.5923 Y2.159 I-0.2049 J0.1054
G3 X2.6009 Y2.195 I-0.2191 J0.0712
G3 X2.6063 Y2.265 I-0.4542 J0.07
G1 X2.6063 Y2.2654
G1 X2.6063 Y2.2656
G1 X2.6062 Y2.2662
G1 X2.6062 Y2.2662
G3 X2.6009 Y2.3362 I-0.4595 J0
G3 X2.5923 Y2.3723 I-0.2277 J-0.0351
G3 X2.5781 Y2.4065 I-0.2191 J-0.0712
G3 X2.5412 Y2.4664 I-0.4086 J-0.2102
G3 X2.4957 Y2.5199 I-0.3718 J-0.27
G3 X2.4675 Y2.5441 I-0.1636 J-0.1622
G3 X2.4359 Y2.5634 I-0.1354 J-0.1864
G3 X2.3709 Y2.5901 I-0.207 J-0.4102
G3 X2.3026 Y2.6067 I-0.142 J-0.437
G3 X2.2656 Y2.6097 I-0.037 J-0.2274
G3 X2.2287 Y2.6067 I0 J-0.2304
G3 X2.1603 Y2.5901 I0.0737 J-0.4536
G3 X2.0954 Y2.5634 I0.142 J-0.437
G3 X2.0637 Y2.5441 I0.1038 J-0.2057
G3 X2.0356 Y2.5199 I0.1354 J-0.1864
G3 X1.99 Y2.4664 I0.3263 J-0.3236
G1 X1.9091 Y2.5251 F60
G3 X1.8643 Y2.4522 I0.4527 J-0.3288 F60
G3 X1.8438 Y2.4032 I0.2938 J-0.1511
G3 X1.8315 Y2.3514 I0.3143 J-0.102
G3 X1.825 Y2.2662 I0.553 J-0.0852
G1 X1.825 Y2.2659
G1 X1.825 Y2.2657
G1 X1.825 Y2.265
G1 X1.825 Y2.265
G3 X1.8315 Y2.1798 I0.5595 J0
G3 X1.8438 Y2.1281 I0.3265 J0.0503
G3 X1.8643 Y2.079 I0.3143 J0.102
G3 X1.9091 Y2.0061 I0.4976 J0.2559
G3 X1.9646 Y1.9409 I0.4527 J0.3288
G3 X2.0049 Y1.9063 I0.2346 J0.2327
G3 X2.0503 Y1.8786 I0.1942 J0.2673
G3 X2.1294 Y1.846 I0.2521 J0.4995
G3 X2.2126 Y1.8259 I0.1729 J0.5321
G3 X2.2656 Y1.8216 I0.053 J0.3261
G3 X2.3186 Y1.8259 I0 J0.3304
G3 X2.4018 Y1.846 I-0.0897 J0.5523
G3 X2.4809 Y1.8786 I-0.1729 J0.5321
G3 X2.5263 Y1.9063 I-0.1489 J0.295
G3 X2.5667 Y1.9409 I-0.1942 J0.2673
G3 X2.6221 Y2.0061 I-0.3973 J0.394
G3 X2.667 Y2.079 I-0.4527 J0.3288
G3 X2.6874 Y2.1281 I-0.2938 J0.1511
G3 X2.6997 Y2.1798 I-0.3143 J0.102
G3 X2.7063 Y2.265 I-0.553 J0.0852
G1 X2.7063 Y2.2654
G1 X2.7063 Y2.2656
G1 X2.7062 Y2.2662
G1 X2.7062 Y2.2662
G3 X2.6997 Y2.3514 I-0.5595 J0
G3 X2.6874 Y2.4032 I-0.3265 J-0.0503
G3 X2.667 Y2.4522 I-0.3143 J-0.102
G3 X2.6221 Y2.5251 I-0.4976 J-0.2559
G3 X2.5667 Y2.5903 I-0.4527 J-0.3288
G3 X2.5263 Y2.625 I-0.2346 J-0.2327
G3 X2.4809 Y2.6526 I-0.1942 J-0.2673
G3 X2.4018 Y2.6852 I-0.2521 J-0.4995
G3 X2.3186 Y2.7054 I-0.1729 J-0.5321
G3 X2.2656 Y2.7097 I-0.053 J-0.3261
G3 X2.2126 Y2.7054 I0 J-0.3304
G3 X2.1294 Y2.6852 I0.0897 J-0.5523
G3 X2.0503 Y2.6526 I0.1729 J-0.5321
G3 X2.0049 Y2.625 I0.1489 J-0.295
G3 X1.9646 Y2.5903 I0.1942 J-0.2673
G3 X1.9091 Y2.5251 I0.3973 J-0.394
G1 X1.8282 Y2.5839 F60
G3 X1.7753 Y2.498 I0.5336 J-0.3876 F60
G3 X1.7487 Y2.434 I0.3827 J-0.1969
G3 X1.7327 Y2.3667 I0.4094 J-0.1329
G3 X1.725 Y2.2662 I0.6518 J-0.1004
G1 X1.725 Y2.2659
G1 X1.725 Y2.2657
G1 X1.725 Y2.265
G1 X1.725 Y2.265
G3 X1.7327 Y2.1646 I0.6595 J0
G3 X1.7487 Y2.0972 I0.4254 J0.0655
G3 X1.7753 Y2.0333 I0.4094 J0.1329
G3 X1.8282 Y1.9473 I0.5865 J0.3016
G3 X1.8936 Y1.8705 I0.5336 J0.3876
G3 X1.9461 Y1.8254 I0.3056 J0.3031
G3 X2.0052 Y1.7893 I0.253 J0.3482
G3 X2.0985 Y1.7509 I0.2971 J0.5888
G3 X2.1966 Y1.7271 I0.2038 J0.6272
G3 X2.2656 Y1.7216 I0.069 J0.4248
G3 X2.3347 Y1.7271 I0 J0.4304
G3 X2.4327 Y1.7509 I-0.1058 J0.651
G3 X2.526 Y1.7893 I-0.2038 J0.6272
G3 X2.5851 Y1.8254 I-0.1939 J0.3843
G3 X2.6377 Y1.8705 I-0.253 J0.3482
G3 X2.703 Y1.9473 I-0.4683 J0.4644
G3 X2.7559 Y2.0333 I-0.5336 J0.3876
G3 X2.7825 Y2.0972 I-0.3827 J0.1969
G3 X2.7986 Y2.1646 I-0.4094 J0.1329
G3 X2.8063 Y2.265 I-0.6518 J0.1004
G1 X2.8063 Y2.2654
G1 X2.8063 Y2.2656
G1 X2.8062 Y2.2662
G1 X2.8062 Y2.2662
G3 X2.7986 Y2.3667 I-0.6595 J0
G3 X2.7825 Y2.434 I-0.4254 J-0.0655
G3 X2.7559 Y2.498 I-0.4094 J-0.1329
G3 X2.703 Y2.5839 I-0.5865 J-0.3016
G3 X2.6377 Y2.6608 I-0.5336 J-0.3876
G3 X2.5851 Y2.7058 I-0.3056 J-0.3031
G3 X2.526 Y2.7419 I-0.253 J-0.3482
G3 X2.4327 Y2.7804 I-0.2971 J-0.5888
G3 X2.3347 Y2.8041 I-0.2038 J-0.6272
G3 X2.2656 Y2.8097 I-0.069 J-0.4248
G3 X2.1966 Y2.8041 I0 J-0.4304
G3 X2.0985 Y2.7804 I0.1058 J-0.651
G3 X2.0052 Y2.7419 I0.2038 J-0.6272
G3 X1.9461 Y2.7058 I0.1939 J-0.3843
G3 X1.8936 Y2.6608 I0.253 J-0.3482
G3 X1.8282 Y2.5839 I0.4683 J-0.4644
G1 X1.7473 Y2.6427 F60
G3 X1.6864 Y2.5437 I0.6145 J-0.4463 F60
G3 X1.6536 Y2.4649 I0.4717 J-0.2426
G3 X1.6339 Y2.3819 I0.5045 J-0.1638
G3 X1.625 Y2.2662 I0.7507 J-0.1157
G1 X1.625 Y2.2659
G1 X1.625 Y2.2657
G1 X1.625 Y2.265
G1 X1.625 Y2.265
G3 X1.6339 Y2.1494 I0.7595 J0
G3 X1.6536 Y2.0663 I0.5242 J0.0808
G3 X1.6864 Y1.9875 I0.5045 J0.1638
G3 X1.7473 Y1.8886 I0.6754 J0.3474
G3 X1.8226 Y1.8001 I0.6145 J0.4463
G3 X1.8873 Y1.7445 I0.3766 J0.3735
G3 X1.9602 Y1.7001 I0.3118 J0.4291
G3 X2.0676 Y1.6558 I0.3422 J0.6781
G3 X2.1806 Y1.6284 I0.2347 J0.7223
G3 X2.2656 Y1.6216 I0.0851 J0.5235
G3 X2.3507 Y1.6284 I0 J0.5304
G3 X2.4636 Y1.6558 I-0.1218 J0.7497
G3 X2.5711 Y1.7001 I-0.2347 J0.7223
G3 X2.6439 Y1.7445 I-0.239 J0.4735
G3 X2.7087 Y1.8001 I-0.3118 J0.4291
G3 X2.784 Y1.8886 I-0.5393 J0.5349
G3 X2.8448 Y1.9875 I-0.6145 J0.4463
G3 X2.8777 Y2.0663 I-0.4717 J0.2426
G3 X2.8974 Y2.1494 I-0.5045 J0.1638
G3 X2.9063 Y2.265 I-0.7507 J0.1157
G1 X2.9063 Y2.2654
G1 X2.9063 Y2.2656
G1 X2.9062 Y2.2662
G1 X2.9062 Y2.2662
G3 X2.8974 Y2.3819 I-0.7595 J0
G3 X2.8777 Y2.4649 I-0.5242 J-0.0808
G3 X2.8448 Y2.5437 I-0.5045 J-0.1638
G3 X2.784 Y2.6427 I-0.6754 J-0.3474
G3 X2.7087 Y2.7312 I-0.6145 J-0.4463
G3 X2.6439 Y2.7867 I-0.3766 J-0.3735
G3 X2.5711 Y2.8312 I-0.3118 J-0.4291
G3 X2.4636 Y2.8755 I-0.3422 J-0.6781
G3 X2.3507 Y2.9028 I-0.2347 J-0.7223
G3 X2.2656 Y2.9097 I-0.0851 J-0.5235
G3 X2.1806 Y2.9028 I0 J-0.5304
G3 X2.0676 Y2.8755 I0.1218 J-0.7497
G3 X1.9602 Y2.8312 I0.2347 J-0.7223
G3 X1.8873 Y2.7867 I0.239 J-0.4735
G3 X1.8226 Y2.7312 I0.3118 J-0.4291
G3 X1.7473 Y2.6427 I0.5393 J-0.5349
G1 X1.6664 Y2.7014 F60
G3 X1.5975 Y2.5894 I0.6954 J-0.5051 F60
G3 X1.5585 Y2.4958 I0.5606 J-0.2883
G3 X1.535 Y2.3971 I0.5996 J-0.1947
G3 X1.525 Y2.2662 I0.8495 J-0.1309
G1 X1.525 Y2.2659
G1 X1.525 Y2.2657
G1 X1.525 Y2.265
G1 X1.525 Y2.265
G3 X1.535 Y2.1341 I0.8595 J0
G3 X1.5585 Y2.0354 I0.6231 J0.096
G3 X1.5975 Y1.9418 I0.5996 J0.1947
G3 X1.6664 Y1.8298 I0.7644 J0.3931
G3 X1.7516 Y1.7296 I0.6954 J0.5051
G3 X1.8286 Y1.6636 I0.4476 J0.4439
G3 X1.9151 Y1.6108 I0.3706 J0.51
G3 X2.0367 Y1.5607 I0.3872 J0.7674
G3 X2.1645 Y1.5297 I0.2656 J0.8174
G3 X2.2656 Y1.5216 I0.1011 J0.6222
G3 X2.3667 Y1.5297 I0 J0.6304
G3 X2.4945 Y1.5607 I-0.1379 J0.8484
G3 X2.6161 Y1.6108 I-0.2656 J0.8174
G3 X2.7027 Y1.6636 I-0.284 J0.5628
G3 X2.7797 Y1.7296 I-0.3706 J0.51
G3 X2.8649 Y1.8298 I-0.6103 J0.6053
G3 X2.9338 Y1.9418 I-0.6954 J0.5051
G3 X2.9728 Y2.0354 I-0.5606 J0.2883
G3 X2.9962 Y2.1341 I-0.5996 J0.1947
G3 X3.0063 Y2.265 I-0.8495 J0.1309
G1 X3.0063 Y2.2654
G1 X3.0063 Y2.2656
G1 X3.0062 Y2.2662
G1 X3.0062 Y2.2662
G3 X2.9962 Y2.3971 I-0.8595 J0
G3 X2.9728 Y2.4958 I-0.6231 J-0.096
G3 X2.9338 Y2.5894 I-0.5996 J-0.1947
G3 X2.8649 Y2.7014 I-0.7644 J-0.3931
G3 X2.7797 Y2.8016 I-0.6954 J-0.5051
G3 X2.7027 Y2.8676 I-0.4476 J-0.4439
G3 X2.6161 Y2.9205 I-0.3706 J-0.51
G3 X2.4945 Y2.9706 I-0.3872 J-0.7674
G3 X2.3667 Y3.0015 I-0.2656 J-0.8174
G3 X2.2656 Y3.0097 I-0.1011 J-0.6222
G3 X2.1645 Y3.0015 I0 J-0.6304
G3 X2.0367 Y2.9706 I0.1379 J-0.8484
G3 X1.9151 Y2.9205 I0.2656 J-0.8174
G3 X1.8286 Y2.8676 I0.284 J-0.5628
G3 X1.7516 Y2.8016 I0.3706 J-0.51
G3 X1.6664 Y2.7014 I0.6103 J-0.6053
G1 X1.5855 Y2.7602 F60
G3 X1.5085 Y2.6352 I0.7764 J-0.5639 F60
G3 X1.4634 Y2.5267 I0.6495 J-0.3341
G3 X1.4362 Y2.4123 I0.6947 J-0.2256
G3 X1.425 Y2.2662 I0.9483 J-0.1461
G1 X1.425 Y2.2659
G1 X1.425 Y2.2657
G1 X1.425 Y2.265
G1 X1.425 Y2.265
G3 X1.4362 Y2.1189 I0.9595 J0
G3 X1.4634 Y2.0046 I0.7219 J0.1112
G3 X1.5085 Y1.8961 I0.6947 J0.2256
G3 X1.5855 Y1.771 I0.8533 J0.4389
G3 X1.6806 Y1.6592 I0.7764 J0.5639
G3 X1.7698 Y1.5827 I0.5186 J0.5144
G3 X1.8701 Y1.5215 I0.4294 J0.5909
G3 X2.0058 Y1.4656 I0.4323 J0.8566
G3 X2.1485 Y1.431 I0.2966 J0.9125
G3 X2.2656 Y1.4216 I0.1171 J0.7209
G3 X2.3828 Y1.431 I0 J0.7304
G3 X2.5254 Y1.4656 I-0.1539 J0.9471
G3 X2.6612 Y1.5215 I-0.2966 J0.9125
G3 X2.7615 Y1.5827 I-0.3291 J0.6521
G3 X2.8507 Y1.6592 I-0.4294 J0.5909
G3 X2.9458 Y1.771 I-0.6813 J0.6757
G3 X3.0227 Y1.8961 I-0.7764 J0.5639
G3 X3.0679 Y2.0046 I-0.6495 J0.3341
G3 X3.0951 Y2.1189 I-0.6947 J0.2256
G3 X3.1063 Y2.265 I-0.9483 J0.1461
G1 X3.1063 Y2.2654
G1 X3.1063 Y2.2656
G1 X3.1062 Y2.2662
G1 X3.1062 Y2.2662
G3 X3.0951 Y2.4123 I-0.9595 J0
G3 X3.0679 Y2.5267 I-0.7219 J-0.1112
G3 X3.0227 Y2.6352 I-0.6947 J-0.2256
G3 X2.9458 Y2.7602 I-0.8533 J-0.4389
G3 X2.8507 Y2.872 I-0.7764 J-0.5639
G3 X2.7615 Y2.9485 I-0.5186 J-0.5144
G3 X2.6612 Y3.0098 I-0.4294 J-0.5909
G3 X2.5254 Y3.0657 I-0.4323 J-0.8566
G3 X2.3828 Y3.1002 I-0.2966 J-0.9125
G3 X2.2656 Y3.1097 I-0.1171 J-0.7209
G3 X2.1485 Y3.1002 I0 J-0.7304
G3 X2.0058 Y3.0657 I0.1539 J-0.9471
G3 X1.8701 Y3.0098 I0.2966 J-0.9125
G3 X1.7698 Y2.9485 I0.3291 J-0.6521
G3 X1.6806 Y2.872 I0.4294 J-0.5909
G3 X1.5855 Y2.7602 I0.6813 J-0.6757
G1 X1.5046 Y2.819 F60
G3 X1.4196 Y2.6809 I0.8573 J-0.6226 F60
G3 X1.3683 Y2.5576 I0.7385 J-0.3798
G3 X1.3374 Y2.4276 I0.7898 J-0.2564
G3 X1.325 Y2.2662 I1.0472 J-0.1613
G1 X1.325 Y2.2659
G1 X1.325 Y2.2657
G1 X1.325 Y2.265
G1 X1.325 Y2.265
G3 X1.3374 Y2.1037 I1.0595 J0
G3 X1.3683 Y1.9737 I0.8207 J0.1265
G3 X1.4196 Y1.8503 I0.7898 J0.2564
G3 X1.5046 Y1.7123 I0.9422 J0.4846
G3 X1.6096 Y1.5888 I0.8573 J0.6226
G3 X1.711 Y1.5018 I0.5896 J0.5848
G3 X1.825 Y1.4322 I0.4882 J0.6718
G3 X1.9749 Y1.3705 I0.4773 J0.9459
G3 X2.1324 Y1.3323 I0.3275 J1.0077
G3 X2.2656 Y1.3216 I0.1332 J0.8197
G3 X2.3988 Y1.3323 I0 J0.8304
G3 X2.5563 Y1.3705 I-0.1699 J1.0458
G3 X2.7062 Y1.4322 I-0.3275 J1.0077
G3 X2.8203 Y1.5018 I-0.3741 J0.7414
G3 X2.9217 Y1.5888 I-0.4882 J0.6718
G3 X3.0267 Y1.7123 I-0.7523 J0.7461
G3 X3.1116 Y1.8503 I-0.8573 J0.6226
G3 X3.163 Y1.9737 I-0.7385 J0.3798
G3 X3.1939 Y2.1037 I-0.7898 J0.2564
G3 X3.2063 Y2.265 I-1.0472 J0.1613
G1 X3.2063 Y2.2654
G1 X3.2063 Y2.2656
G1 X3.2062 Y2.2662
G1 X3.2062 Y2.2662
G3 X3.1939 Y2.4276 I-1.0595 J0
G3 X3.163 Y2.5576 I-0.8207 J-0.1265
G3 X3.1116 Y2.6809 I-0.7898 J-0.2564
G3 X3.0267 Y2.819 I-0.9422 J-0.4846
G3 X2.9217 Y2.9424 I-0.8573 J-0.6226
G3 X2.8203 Y3.0294 I-0.5896 J-0.5848
G3 X2.7062 Y3.099 I-0.4882 J-0.6718
G3 X2.5563 Y3.1608 I-0.4773 J-0.9459
G3 X2.3988 Y3.1989 I-0.3275 J-1.0077
G3 X2.2656 Y3.2097 I-0.1332 J-0.8197
G3 X2.1324 Y3.1989 I0 J-0.8304
G3 X1.9749 Y3.1608 I0.1699 J-1.0458
G3 X1.825 Y3.099 I0.3275 J-1.0077
G3 X1.711 Y3.0294 I0.3741 J-0.7414
G3 X1.6096 Y2.9424 I0.4882 J-0.6718
G3 X1.5046 Y2.819 I0.7523 J-0.7461
G1 X1.4236 Y2.8777 F60
G3 X1.3307 Y2.7267 I0.9382 J-0.6814 F60
G3 X1.2732 Y2.5884 I0.8274 J-0.4255
G3 X1.2385 Y2.4428 I0.8849 J-0.2873
G3 X1.225 Y2.2662 I1.146 J-0.1766
G1 X1.225 Y2.2659
G1 X1.225 Y2.2657
G1 X1.225 Y2.265
G1 X1.225 Y2.265
G3 X1.2385 Y2.0884 I1.1595 J0
G3 X1.2732 Y1.9428 I0.9196 J0.1417
G3 X1.3307 Y1.8046 I0.8849 J0.2873
G3 X1.4236 Y1.6535 I1.0311 J0.5303
G3 X1.5386 Y1.5184 I0.9382 J0.6814
G3 X1.6522 Y1.4209 I0.6606 J0.6552
G3 X1.78 Y1.3429 I0.547 J0.7527
G3 X1.944 Y1.2754 I0.5224 J1.0352
G3 X2.1164 Y1.2336 I0.3584 J1.1028
G3 X2.2656 Y1.2216 I0.1492 J0.9184
G3 X2.4148 Y1.2336 I0 J0.9304
G3 X2.5872 Y1.2754 I-0.186 J1.1445
G3 X2.7513 Y1.3429 I-0.3584 J1.1028
G3 X2.8791 Y1.4209 I-0.4192 J0.8306
G3 X2.9927 Y1.5184 I-0.547 J0.7527
G3 X3.1076 Y1.6535 I-0.8233 J0.8165
G3 X3.2006 Y1.8046 I-0.9382 J0.6814
G3 X3.2581 Y1.9428 I-0.8274 J0.4255
G3 X3.2927 Y2.0884 I-0.8849 J0.2873
G3 X3.3063 Y2.265 I-1.146 J0.1766
G1 X3.3063 Y2.2654
G1 X3.3063 Y2.2656
G1 X3.3062 Y2.2662
G1 X3.3062 Y2.2662
G3 X3.2927 Y2.4428 I-1.1595 J0
G3 X3.2581 Y2.5884 I-0.9196 J-0.1417
G3 X3.2006 Y2.7267 I-0.8849 J-0.2873
G3 X3.1076 Y2.8777 I-1.0311 J-0.5303
G3 X2.9927 Y3.0129 I-0.9382 J-0.6814
G3 X2.8791 Y3.1103 I-0.6606 J-0.6552
G3 X2.7513 Y3.1883 I-0.547 J-0.7527
G3 X2.5872 Y3.2559 I-0.5224 J-1.0352
G3 X2.4148 Y3.2976 I-0.3584 J-1.1028
G3 X2.2656 Y3.3097 I-0.1492 J-0.9184
G3 X2.1164 Y3.2976 I0 J-0.9304
G3 X1.944 Y3.2559 I0.186 J-1.1445
G3 X1.78 Y3.1883 I0.3584 J-1.1028
G3 X1.6522 Y3.1103 I0.4192 J-0.8306
G3 X1.5386 Y3.0129 I0.547 J-0.7527
G3 X1.4236 Y2.8777 I0.8233 J-0.8165
G1 X1.3427 Y2.9365 F60
G3 X1.2418 Y2.7724 I1.0191 J-0.7402 F60
G3 X1.178 Y2.6193 I0.9163 J-0.4713
G3 X1.1397 Y2.458 I0.98 J-0.3182
G3 X1.125 Y2.2662 I1.2448 J-0.1918
G1 X1.125 Y2.2658
G1 X1.125 Y2.2657
G1 X1.125 Y2.265
G1 X1.125 Y2.265
G3 X1.1397 Y2.0732 I1.2595 J0
G3 X1.178 Y1.9119 I1.0184 J0.1569
G3 X1.2418 Y1.7589 I0.98 J0.3182
G3 X1.3427 Y1.5948 I1.1201 J0.5761
G3 X1.4676 Y1.448 I1.0191 J0.7402
G3 X1.5934 Y1.34 I0.7316 J0.7256
G3 X1.7349 Y1.2537 I0.6057 J0.8336
G3 X1.9131 Y1.1803 I0.5674 J1.1245
G3 X2.1004 Y1.1349 I0.3893 J1.1979
G3 X2.2656 Y1.1216 I0.1653 J1.0171
G3 X2.4309 Y1.1349 I0 J1.0304
G3 X2.6182 Y1.1803 I-0.202 J1.2432
G3 X2.7963 Y1.2537 I-0.3893 J1.1979
G3 X2.9378 Y1.34 I-0.4642 J0.9199
G3 X3.0637 Y1.448 I-0.6057 J0.8336
G3 X3.1885 Y1.5948 I-0.8943 J0.887
G3 X3.2895 Y1.7589 I-1.0191 J0.7402
G3 X3.3532 Y1.9119 I-0.9163 J0.4713
G3 X3.3916 Y2.0732 I-0.98 J0.3182
G3 X3.4063 Y2.265 I-1.2448 J0.1918
G1 X3.4063 Y2.2654
G1 X3.4063 Y2.2656
G1 X3.4062 Y2.2662
G1 X3.4062 Y2.2662
G3 X3.3916 Y2.458 I-1.2595 J0
G3 X3.3532 Y2.6193 I-1.0184 J-0.1569
G3 X3.2895 Y2.7724 I-0.98 J-0.3182
G3 X3.1885 Y2.9365 I-1.1201 J-0.5761
G3 X3.0637 Y3.0833 I-1.0191 J-0.7402
G3 X2.9378 Y3.1912 I-0.7316 J-0.7256
G3 X2.7963 Y3.2776 I-0.6057 J-0.8336
G3 X2.6182 Y3.351 I-0.5674 J-1.1245
G3 X2.4309 Y3.3963 I-0.3893 J-1.1979
G3 X2.2656 Y3.4097 I-0.1653 J-1.0171
G3 X2.1004 Y3.3963 I0 J-1.0304
G3 X1.9131 Y3.351 I0.202 J-1.2432
G3 X1.7349 Y3.2776 I0.3893 J-1.1979
G3 X1.5934 Y3.1912 I0.4642 J-0.9199
G3 X1.4676 Y3.0833 I0.6057 J-0.8336
G3 X1.3427 Y2.9365 I0.8943 J-0.887
G1 X1.2618 Y2.9953 F60
G3 X1.1528 Y2.8181 I1.1 J-0.7989 F60
G3 X1.0829 Y2.6502 I1.0052 J-0.517
G3 X1.0409 Y2.4733 I1.0751 J-0.3491
G3 X1.025 Y2.2662 I1.3437 J-0.207
G1 X1.025 Y2.2658
G1 X1.025 Y2.2657
G1 X1.025 Y2.265
G1 X1.025 Y2.265
G3 X1.0409 Y2.058 I1.3595 J0
G3 X1.0829 Y1.881 I1.1172 J0.1721
G3 X1.1528 Y1.7131 I1.0751 J0.3491
G3 X1.2618 Y1.536 I1.209 J0.6218
G3 X1.3966 Y1.3775 I1.1 J0.7989
G3 X1.5346 Y1.2591 I0.8026 J0.796
G3 X1.6899 Y1.1644 I0.6645 J0.9144
G3 X1.8822 Y1.0852 I0.6125 J1.2137
G3 X2.0843 Y1.0362 I0.4202 J1.293
G3 X2.2656 Y1.0216 I0.1813 J1.1158
G3 X2.4469 Y1.0362 I0 J1.1304
G3 X2.6491 Y1.0852 I-0.218 J1.3419
G3 X2.8414 Y1.1644 I-0.4202 J1.293
G3 X2.9966 Y1.2591 I-0.5093 J1.0092
G3 X3.1347 Y1.3775 I-0.6645 J0.9144
G3 X3.2694 Y1.536 I-0.9653 J0.9574
G3 X3.3784 Y1.7131 I-1.1 J0.7989
G3 X3.4483 Y1.881 I-1.0052 J0.517
G3 X3.4904 Y2.058 I-1.0751 J0.3491
G3 X3.5063 Y2.265 I-1.3437 J0.207
G1 X3.5063 Y2.2654
G1 X3.5063 Y2.2656
G1 X3.5062 Y2.2662
G1 X3.5062 Y2.2662
G3 X3.4904 Y2.4733 I-1.3595 J0
G3 X3.4483 Y2.6502 I-1.1172 J-0.1721
G3 X3.3784 Y2.8181 I-1.0751 J-0.3491
G3 X3.2694 Y2.9953 I-1.209 J-0.6218
G3 X3.1347 Y3.1537 I-1.1 J-0.7989
G3 X2.9966 Y3.2721 I-0.8026 J-0.796
G3 X2.8414 Y3.3669 I-0.6645 J-0.9144
G3 X2.6491 Y3.4461 I-0.6125 J-1.2137
G3 X2.4469 Y3.495 I-0.4202 J-1.293
G3 X2.2656 Y3.5097 I-0.1813 J-1.1158
G3 X2.0843 Y3.495 I0 J-1.1304
G3 X1.8822 Y3.4461 I0.218 J-1.3419
G3 X1.6899 Y3.3669 I0.4202 J-1.293
G3 X1.5346 Y3.2721 I0.5093 J-1.0092
G3 X1.3966 Y3.1537 I0.6645 J-0.9144
G3 X1.2618 Y2.9953 I0.9653 J-0.9574
G1 X1.1809 Y3.054 F60
G3 X1.0639 Y2.8639 I1.1809 J-0.8577 F60
G3 X0.9878 Y2.6811 I1.0942 J-0.5628
G3 X0.942 Y2.4885 I1.1703 J-0.38
G3 X0.925 Y2.2662 I1.4425 J-0.2223
G1 X0.925 Y2.2658
G1 X0.925 Y2.2656
G1 X0.925 Y2.265
G1 X0.925 Y2.265
G3 X0.942 Y2.0428 I1.4595 J0
G3 X0.9878 Y1.8502 I1.2161 J0.1874
G3 X1.0639 Y1.6674 I1.1703 J0.38
G3 X1.1809 Y1.4772 I1.2979 J0.6675
G3 X1.3256 Y1.3071 I1.1809 J0.8577
G3 X1.4758 Y1.1782 I0.8736 J0.8665
G3 X1.6448 Y1.0751 I0.7233 J0.9953
G3 X1.8513 Y0.9901 I0.6575 J1.303
G3 X2.0683 Y0.9375 I0.4511 J1.3881
G3 X2.2656 Y0.9216 I0.1973 J1.2145
G3 X2.463 Y0.9375 I0 J1.2304
G3 X2.68 Y0.9901 I-0.2341 J1.4406
G3 X2.8864 Y1.0751 I-0.4511 J1.3881
G3 X3.0554 Y1.1782 I-0.5543 J1.0985
G3 X3.2057 Y1.3071 I-0.7233 J0.9953
G3 X3.3503 Y1.4772 I-1.0363 J1.0278
G3 X3.4673 Y1.6674 I-1.1809 J0.8577
G3 X3.5434 Y1.8502 I-1.0942 J0.5628
G3 X3.5892 Y2.0428 I-1.1703 J0.38
G3 X3.6063 Y2.265 I-1.4425 J0.2223
G1 X3.6063 Y2.2654
G1 X3.6063 Y2.2656
G1 X3.6062 Y2.2662
G1 X3.6062 Y2.2662
G3 X3.5892 Y2.4885 I-1.4595 J0
G3 X3.5434 Y2.6811 I-1.2161 J-0.1874
G3 X3.4673 Y2.8639 I-1.1703 J-0.38
G3 X3.3503 Y3.054 I-1.2979 J-0.6675
G3 X3.2057 Y3.2241 I-1.1809 J-0.8577
G3 X3.0554 Y3.353 I-0.8736 J-0.8665
G3 X2.8864 Y3.4561 I-0.7233 J-0.9953
G3 X2.68 Y3.5412 I-0.6575 J-1.303
G3 X2.463 Y3.5937 I-0.4511 J-1.3881
G3 X2.2656 Y3.6097 I-0.1973 J-1.2145
G3 X2.0683 Y3.5937 I0 J-1.2304
G3 X1.8513 Y3.5412 I0.2341 J-1.4406
G3 X1.6448 Y3.4561 I0.4511 J-1.3881
G3 X1.4758 Y3.353 I0.5543 J-1.0985
G3 X1.3256 Y3.2241 I0.7233 J-0.9953
G3 X1.1809 Y3.054 I1.0363 J-1.0278
G1 X1.1 Y3.1128 F60
G3 X0.975 Y2.9096 I1.2618 J-0.9165 F60
G3 X0.8927 Y2.712 I1.1831 J-0.6085
G3 X0.8432 Y2.5037 I1.2654 J-0.4109
G3 X0.825 Y2.2662 I1.5413 J-0.2375
G1 X0.825 Y2.2658
G1 X0.825 Y2.2656
G1 X0.825 Y2.265
G1 X0.825 Y2.265
G3 X0.8432 Y2.0275 I1.5595 J0
G3 X0.8927 Y1.8193 I1.3149 J0.2026
G3 X0.975 Y1.6216 I1.2654 J0.4109
G3 X1.1 Y1.4185 I1.3868 J0.7133
G3 X1.2546 Y1.2367 I1.2618 J0.9165
G3 X1.4171 Y1.0973 I0.9446 J0.9369
G3 X1.5998 Y0.9858 I0.7821 J1.0762
G3 X1.8204 Y0.895 I0.7026 J1.3923
G3 X2.0522 Y0.8388 I0.482 J1.4832
G3 X2.2656 Y0.8216 I0.2134 J1.3132
G3 X2.479 Y0.8388 I0 J1.3304
G3 X2.7109 Y0.895 I-0.2501 J1.5393
G3 X2.9315 Y0.9858 I-0.482 J1.4832
G3 X3.1142 Y1.0973 I-0.5994 J1.1877
G3 X3.2767 Y1.2367 I-0.7821 J1.0762
G3 X3.4312 Y1.4185 I-1.1073 J1.0982
G3 X3.5563 Y1.6216 I-1.2618 J0.9165
G3 X3.6385 Y1.8193 I-1.1831 J0.6085
G3 X3.6881 Y2.0275 I-1.2654 J0.4109
G3 X3.7063 Y2.265 I-1.5413 J0.2375
G1 X3.7063 Y2.2654
G1 X3.7063 Y2.2656
G1 X3.7062 Y2.2662
G1 X3.7062 Y2.2662
G3 X3.6881 Y2.5037 I-1.5595 J0
G3 X3.6385 Y2.712 I-1.3149 J-0.2026
G3 X3.5563 Y2.9096 I-1.2654 J-0.4109
G3 X3.4312 Y3.1128 I-1.3868 J-0.7133
G3 X3.2767 Y3.2945 I-1.2618 J-0.9165
G3 X3.1142 Y3.4339 I-0.9446 J-0.9369
G3 X2.9315 Y3.5454 I-0.7821 J-1.0762
G3 X2.7109 Y3.6363 I-0.7026 J-1.3923
G3 X2.479 Y3.6925 I-0.482 J-1.4832
G3 X2.2656 Y3.7097 I-0.2134 J-1.3132
G3 X2.0522 Y3.6925 I0 J-1.3304
G3 X1.8204 Y3.6363 I0.2501 J-1.5393
G3 X1.5998 Y3.5454 I0.482 J-1.4832
G3 X1.4171 Y3.4339 I0.5994 J-1.1877
G3 X1.2546 Y3.2945 I0.7821 J-1.0762
G3 X1.1 Y3.1128 I1.1073 J-1.0982
G1 X1.0191 Y3.1716 F60
G3 X0.8861 Y2.9553 I1.3427 J-0.9752 F60
G3 X0.7976 Y2.7429 I1.272 J-0.6542
G3 X0.7444 Y2.5189 I1.3605 J-0.4417
G3 X0.725 Y2.2662 I1.6402 J-0.2527
G1 X0.725 Y2.2658
G1 X0.725 Y2.2656
G1 X0.725 Y2.2651
G1 X0.725 Y2.265
G3 X0.7444 Y2.0123 I1.6595 J0
G3 X0.7976 Y1.7884 I1.4137 J0.2178
G3 X0.8861 Y1.5759 I1.3605 J0.4417
G3 X1.0191 Y1.3597 I1.4758 J0.759
G3 X1.1836 Y1.1663 I1.3427 J0.9752
G3 X1.3583 Y1.0164 I1.0156 J1.0073
G3 X1.5547 Y0.8966 I0.8409 J1.1571
G3 X1.7895 Y0.7999 I0.7476 J1.4816
G3 X2.0362 Y0.7401 I0.5129 J1.5783
G3 X2.2656 Y0.7216 I0.2294 J1.4119
G3 X2.495 Y0.7401 I0 J1.4304
G3 X2.7418 Y0.7999 I-0.2662 J1.638
G3 X2.9765 Y0.8966 I-0.5129 J1.5783
G3 X3.173 Y1.0164 I-0.6444 J1.277
G3 X3.3477 Y1.1663 I-0.8409 J1.1571
G3 X3.5122 Y1.3597 I-1.1783 J1.1686
G3 X3.6452 Y1.5759 I-1.3427 J0.9752
G3 X3.7337 Y1.7884 I-1.272 J0.6542
G3 X3.7869 Y2.0123 I-1.3605 J0.4417
G3 X3.8063 Y2.265 I-1.6402 J0.2527
G1 X3.8063 Y2.2654
G1 X3.8063 Y2.2656
G1 X3.8062 Y2.2662
G1 X3.8062 Y2.2662
G3 X3.7869 Y2.5189 I-1.6595 J0
G3 X3.7337 Y2.7429 I-1.4137 J-0.2178
G3 X3.6452 Y2.9553 I-1.3605 J-0.4417
G3 X3.5122 Y3.1716 I-1.4758 J-0.759
G3 X3.3477 Y3.365 I-1.3427 J-0.9752
G3 X3.173 Y3.5148 I-1.0156 J-1.0073
G3 X2.9765 Y3.6347 I-0.8409 J-1.1571
G3 X2.7418 Y3.7314 I-0.7476 J-1.4816
G3 X2.495 Y3.7912 I-0.5129 J-1.5783
G3 X2.2656 Y3.8097 I-0.2294 J-1.4119
G3 X2.0362 Y3.7912 I0 J-1.4304
G3 X1.7895 Y3.7314 I0.2662 J-1.638
G3 X1.5547 Y3.6347 I0.5129 J-1.5783
G3 X1.3583 Y3.5148 I0.6444 J-1.277
G3 X1.1836 Y3.365 I0.8409 J-1.1571
G3 X1.0191 Y3.1716 I1.1783 J-1.1686
G1 X0.9382 Y3.2303 F60
G3 X0.7971 Y3.0011 I1.4236 J-1.034 F60
G3 X0.7025 Y2.7737 I1.3609 J-0.7
G3 X0.6455 Y2.5342 I1.4556 J-0.4726
G3 X0.625 Y2.2662 I1.739 J-0.2679
G1 X0.625 Y2.2659
G1 X0.625 Y2.2656
G1 X0.625 Y2.2651
G1 X0.625 Y2.265
G3 X0.6455 Y1.9971 I1.7595 J0
G3 X0.7025 Y1.7575 I1.5126 J0.2331
G3 X0.7971 Y1.5302 I1.4556 J0.4726
G3 X0.9382 Y1.3009 I1.5647 J0.8048
G3 X1.1126 Y1.0959 I1.4236 J1.034
G3 X1.2995 Y0.9355 I1.0866 J1.0777
G3 X1.5097 Y0.8073 I0.8997 J1.238
G3 X1.7586 Y0.7048 I0.7927 J1.5709
G3 X2.0202 Y0.6414 I0.5438 J1.6734
G3 X2.2656 Y0.6216 I0.2455 J1.5106
G3 X2.5111 Y0.6414 I0 J1.5304
G3 X2.7727 Y0.7048 I-0.2822 J1.7367
G3 X3.0216 Y0.8073 I-0.5438 J1.6734
G3 X3.2318 Y0.9355 I-0.6895 J1.3663
G3 X3.4187 Y1.0959 I-0.8997 J1.238
G3 X3.5931 Y1.3009 I-1.2493 J1.2391
G3 X3.7341 Y1.5302 I-1.4236 J1.034
G3 X3.8288 Y1.7575 I-1.3609 J0.7
G3 X3.8857 Y1.9971 I-1.4556 J0.4726
G3 X3.9063 Y2.265 I-1.739 J0.2679
G1 X3.9062 Y2.2654
G1 X3.9063 Y2.2656
G1 X3.9062 Y2.2662
G1 X3.9062 Y2.2662
G3 X3.8857 Y2.5342 I-1.7595 J0
G3 X3.8288 Y2.7737 I-1.5126 J-0.2331
G3 X3.7341 Y3.0011 I-1.4556 J-0.4726
G3 X3.5931 Y3.2303 I-1.5647 J-0.8048
G3 X3.4187 Y3.4354 I-1.4236 J-1.034
G3 X3.2318 Y3.5957 I-1.0866 J-1.0777
G3 X3.0216 Y3.724 I-0.8997 J-1.238
G3 X2.7727 Y3.8265 I-0.7927 J-1.5709
G3 X2.5111 Y3.8899 I-0.5438 J-1.6734
G3 X2.2656 Y3.9097 I-0.2455 J-1.5106
G3 X2.0202 Y3.8899 I0 J-1.5304
G3 X1.7586 Y3.8265 I0.2822 J-1.7367
G3 X1.5097 Y3.724 I0.5438 J-1.6734
G3 X1.2995 Y3.5957 I0.6895 J-1.3663
G3 X1.1126 Y3.4354 I0.8997 J-1.238
G3 X0.9382 Y3.2303 I1.2493 J-1.2391
G1 X0.8573 Y3.2891 F60
G3 X0.7082 Y3.0468 I1.5046 J-1.0928 F60
G3 X0.6074 Y2.8046 I1.4499 J-0.7457
G3 X0.5467 Y2.5494 I1.5507 J-0.5035
G3 X0.525 Y2.2662 I1.8378 J-0.2832
G1 X0.525 Y2.266
G1 X0.525 Y2.2657
G1 X0.525 Y2.2651
G1 X0.525 Y2.265
G3 X0.5467 Y1.9818 I1.8595 J0
G3 X0.6074 Y1.7266 I1.6114 J0.2483
G3 X0.7082 Y1.4844 I1.5507 J0.5035
G3 X0.8573 Y1.2422 I1.6536 J0.8505
G3 X1.0416 Y1.0254 I1.5046 J1.0928
G3 X1.2407 Y0.8547 I1.1576 J1.1481
G3 X1.4646 Y0.718 I0.9585 J1.3189
G3 X1.7277 Y0.6096 I0.8377 J1.6601
G3 X2.0041 Y0.5427 I0.5747 J1.7685
G3 X2.2656 Y0.5216 I0.2615 J1.6093
G3 X2.5271 Y0.5427 I0 J1.6304
G3 X2.8036 Y0.6096 I-0.2982 J1.8355
G3 X3.0666 Y0.718 I-0.5747 J1.7685
G3 X3.2906 Y0.8547 I-0.7345 J1.4556
G3 X3.4897 Y1.0254 I-0.9585 J1.3189
G3 X3.674 Y1.2422 I-1.3203 J1.3095
G3 X3.8231 Y1.4844 I-1.5046 J1.0928
G3 X3.9239 Y1.7266 I-1.4499 J0.7457
G3 X3.9846 Y1.9818 I-1.5507 J0.5035
G3 X4.0062 Y2.265 I-1.8378 J0.2832
G1 X4.0062 Y2.2652
G1 X4.0063 Y2.2656
G1 X4.0062 Y2.2661
G1 X4.0062 Y2.2662
G3 X3.9846 Y2.5494 I-1.8595 J0
G3 X3.9239 Y2.8046 I-1.6114 J-0.2483
G3 X3.8231 Y3.0468 I-1.5507 J-0.5035
G3 X3.674 Y3.2891 I-1.6536 J-0.8505
G3 X3.4897 Y3.5058 I-1.5046 J-1.0928
G3 X3.2906 Y3.6766 I-1.1576 J-1.1481
G3 X3.0666 Y3.8132 I-0.9585 J-1.3189
G3 X2.8036 Y3.9216 I-0.8377 J-1.6601
G3 X2.5271 Y3.9886 I-0.5747 J-1.7685
G3 X2.2656 Y4.0097 I-0.2615 J-1.6093
G3 X2.0041 Y3.9886 I0 J-1.6304
G3 X1.7277 Y3.9216 I0.2982 J-1.8355
G3 X1.4646 Y3.8132 I0.5747 J-1.7685
G3 X1.2407 Y3.6766 I0.7345 J-1.4556
G3 X1.0416 Y3.5058 I0.9585 J-1.3189
G3 X0.8573 Y3.2891 I1.3203 J-1.3095
G1 X0.7764 Y3.3479 F60
G3 X0.6193 Y3.0926 I1.5855 J-1.1515 F60
G3 X0.5123 Y2.8355 I1.5388 J-0.7914
G3 X0.4479 Y2.5646 I1.6458 J-0.5344
G3 X0.425 Y2.2662 I1.9367 J-0.2984
G1 X0.425 Y2.2658
G1 X0.425 Y2.2653
G1 X0.425 Y2.265
G3 X0.4479 Y1.9666 I1.9595 J0
G3 X0.5123 Y1.6957 I1.7102 J0.2635
G3 X0.6193 Y1.4387 I1.6458 J0.5344
G3 X0.7764 Y1.1834 I1.7426 J0.8962
G3 X0.9706 Y0.955 I1.5855 J1.1515
G3 X1.1819 Y0.7738 I1.2286 J1.2186
G3 X1.4196 Y0.6287 I1.0172 J1.3998
G3 X1.6968 Y0.5145 I0.8828 J1.7494
G3 X1.9881 Y0.444 I0.6056 J1.8636
G3 X2.2656 Y0.4216 I0.2775 J1.708
G3 X2.5432 Y0.444 I0 J1.7304
G3 X2.8345 Y0.5145 I-0.3143 J1.9342
G3 X3.1117 Y0.6287 I-0.6056 J1.8636
G3 X3.3493 Y0.7738 I-0.7796 J1.5449
G3 X3.5607 Y0.955 I-1.0172 J1.3998
G3 X3.7549 Y1.1834 I-1.3913 J1.3799
G3 X3.912 Y1.4387 I-1.5855 J1.1515
G3 X4.019 Y1.6957 I-1.5388 J0.7914
G3 X4.0834 Y1.9666 I-1.6458 J0.5344
G3 X4.1062 Y2.265 I-1.9367 J0.2984
G1 X4.1063 Y2.2654
G1 X4.1062 Y2.266
G1 X4.1062 Y2.2662
G3 X4.0834 Y2.5646 I-1.9595 J0
G3 X4.019 Y2.8355 I-1.7102 J-0.2635
G3 X3.912 Y3.0926 I-1.6458 J-0.5344
G3 X3.7549 Y3.3479 I-1.7426 J-0.8962
G3 X3.5607 Y3.5762 I-1.5855 J-1.1515
G3 X3.3493 Y3.7575 I-1.2286 J-1.2186
G3 X3.1117 Y3.9025 I-1.0172 J-1.3998
G3 X2.8345 Y4.0167 I-0.8828 J-1.7494
G3 X2.5432 Y4.0873 I-0.6056 J-1.8636
G3 X2.2656 Y4.1097 I-0.2775 J-1.708
G3 X1.9881 Y4.0873 I0 J-1.7304
G3 X1.6968 Y4.0167 I0.3143 J-1.9342
G3 X1.4196 Y3.9025 I0.6056 J-1.8636
G3 X1.1819 Y3.7575 I0.7796 J-1.5449
G3 X0.9706 Y3.5762 I1.0172 J-1.3998
G3 X0.7764 Y3.3479 I1.3913 J-1.3799
G1 X0.6955 Y3.4066 F60
G3 X0.5303 Y3.1383 I1.6664 J-1.2103 F60
G3 X0.4171 Y2.8664 I1.6277 J-0.8372
G3 X0.349 Y2.5799 I1.7409 J-0.5653
G3 X0.325 Y2.2662 I2.0355 J-0.3136
G1 X0.325 Y2.2655
G1 X0.325 Y2.265
G3 X0.349 Y1.9514 I2.0595 J0
G3 X0.4171 Y1.6649 I1.8091 J0.2787
G3 X0.5303 Y1.393 I1.7409 J0.5653
G3 X0.6955 Y1.1246 I1.8315 J0.942
G3 X0.8996 Y0.8846 I1.6664 J1.2103
G3 X1.1231 Y0.6929 I1.2996 J1.289
G3 X1.3745 Y0.5395 I1.076 J1.4807
G3 X1.6658 Y0.4194 I0.9278 J1.8387
G3 X1.9721 Y0.3453 I0.6365 J1.9587
G3 X2.2656 Y0.3216 I0.2936 J1.8067
G3 X2.5592 Y0.3453 I0 J1.8304
G3 X2.8654 Y0.4194 I-0.3303 J2.0329
G3 X3.1567 Y0.5395 I-0.6365 J1.9587
G3 X3.4081 Y0.6929 I-0.8246 J1.6341
G3 X3.6317 Y0.8846 I-1.076 J1.4807
G3 X3.8358 Y1.1246 I-1.4623 J1.4503
G3 X4.0009 Y1.393 I-1.6664 J1.2103
G3 X4.1141 Y1.6649 I-1.6277 J0.8372
G3 X4.1822 Y1.9514 I-1.7409 J0.5653
G3 X4.2062 Y2.265 I-2.0355 J0.3136
G1 X4.2062 Y2.2657
G1 X4.2062 Y2.2662
G3 X4.1822 Y2.5799 I-2.0595 J0
G3 X4.1141 Y2.8664 I-1.8091 J-0.2787
G3 X4.0009 Y3.1383 I-1.7409 J-0.5653
G3 X3.8358 Y3.4066 I-1.8315 J-0.942
G3 X3.6317 Y3.6466 I-1.6664 J-1.2103
G3 X3.4081 Y3.8384 I-1.2996 J-1.289
G3 X3.1567 Y3.9918 I-1.076 J-1.4807
G3 X2.8654 Y4.1118 I-0.9278 J-1.8387
G3 X2.5592 Y4.186 I-0.6365 J-1.9587
G3 X2.2656 Y4.2097 I-0.2936 J-1.8067
G3 X1.9721 Y4.186 I0 J-1.8304
G3 X1.6658 Y4.1118 I0.3303 J-2.0329
G3 X1.3745 Y3.9918 I0.6365 J-1.9587
G3 X1.1231 Y3.8384 I0.8246 J-1.6341
G3 X0.8996 Y3.6466 I1.076 J-1.4807
G3 X0.6955 Y3.4066 I1.4623 J-1.4503
G1 X0.6145 Y3.4654 F60
G3 X0.4414 Y3.184 I1.7473 J-1.2691 F60
G3 X0.322 Y2.8973 I1.7167 J-0.8829
G3 X0.2502 Y2.5951 I1.836 J-0.5962
G3 X0.225 Y2.2662 I2.1343 J-0.3289
G1 X0.225 Y2.2656
G1 X0.225 Y2.265
G3 X0.2502 Y1.9362 I2.1595 J0
G3 X0.322 Y1.634 I1.9079 J0.294
G3 X0.4414 Y1.3472 I1.836 J0.5962
G3 X0.6145 Y1.0659 I1.9204 J0.9877
G3 X0.8286 Y0.8142 I1.7473 J1.2691
G3 X1.0643 Y0.612 I1.3706 J1.3594
G3 X1.3295 Y0.4502 I1.1348 J1.5616
G3 X1.6349 Y0.3243 I0.9729 J1.928
G3 X1.956 Y0.2466 I0.6674 J2.0538
G3 X2.2656 Y0.2216 I0.3096 J1.9054
G3 X2.5752 Y0.2466 I0 J1.9304
G3 X2.8963 Y0.3243 I-0.3464 J2.1316
G3 X3.2018 Y0.4502 I-0.6674 J2.0538
G3 X3.4669 Y0.612 I-0.8697 J1.7234
G3 X3.7027 Y0.8142 I-1.1348 J1.5616
G3 X3.9167 Y1.0659 I-1.5333 J1.5207
G3 X4.0898 Y1.3472 I-1.7473 J1.2691
G3 X4.2092 Y1.634 I-1.7167 J0.8829
G3 X4.2811 Y1.9362 I-1.836 J0.5962
G3 X4.3062 Y2.265 I-2.1343 J0.3289
G1 X4.3062 Y2.2657
G1 X4.3062 Y2.2662
G3 X4.2811 Y2.5951 I-2.1595 J0
G3 X4.2092 Y2.8973 I-1.9079 J-0.294
G3 X4.0898 Y3.184 I-1.836 J-0.5962
G3 X3.9167 Y3.4654 I-1.9204 J-0.9877
G3 X3.7027 Y3.7171 I-1.7473 J-1.2691
G3 X3.4669 Y3.9193 I-1.3706 J-1.3594
G3 X3.2018 Y4.0811 I-1.1348 J-1.5616
G3 X2.8963 Y4.2069 I-0.9729 J-1.928
G3 X2.5752 Y4.2847 I-0.6674 J-2.0538
G3 X2.2656 Y4.3097 I-0.3096 J-1.9054
G3 X1.956 Y4.2847 I0 J-1.9304
G3 X1.6349 Y4.2069 I0.3464 J-2.1316
G3 X1.3295 Y4.0811 I0.6674 J-2.0538
G3 X1.0643 Y3.9193 I0.8697 J-1.7234
G3 X0.8286 Y3.7171 I1.1348 J-1.5616
G3 X0.6145 Y3.4654 I1.5333 J-1.5207
G1 X0.5336 Y3.5242 F60
G3 X0.3525 Y3.2298 I1.8282 J-1.3278 F60
G3 X0.2269 Y2.9282 I1.8056 J-0.9286
G3 X0.1514 Y2.6103 I1.9312 J-0.627
G3 X0.125 Y2.2662 I2.2332 J-0.3441
G1 X0.125 Y2.2656
G1 X0.125 Y2.265
G3 X0.1514 Y1.9209 I2.2595 J0
G3 X0.2269 Y1.6031 I2.0067 J0.3092
G3 X0.3525 Y1.3015 I1.9312 J0.627
G3 X0.5336 Y1.0071 I2.0093 J1.0334
G3 X0.7576 Y0.7438 I1.8282 J1.3278
G3 X1.0055 Y0.5311 I1.4416 J1.4298
G3 X1.2844 Y0.3609 I1.1936 J1.6425
G3 X1.604 Y0.2292 I1.0179 J2.0172
G3 X1.94 Y0.1479 I0.6983 J2.1489
G3 X2.2656 Y0.1216 I0.3256 J2.0041
G3 X2.5913 Y0.1479 I0 J2.0304
G3 X2.9272 Y0.2292 I-0.3624 J2.2303
G3 X3.2468 Y0.3609 I-0.6983 J2.1489
G3 X3.5257 Y0.5311 I-0.9147 J1.8127
G3 X3.7737 Y0.7438 I-1.1936 J1.6425
G3 X3.9976 Y1.0071 I-1.6043 J1.5912
G3 X4.1788 Y1.3015 I-1.8282 J1.3278
G3 X4.3043 Y1.6031 I-1.8056 J0.9286
G3 X4.3799 Y1.9209 I-1.9312 J0.627
G3 X4.4062 Y2.265 I-2.2332 J0.3441
G1 X4.4062 Y2.2657
G1 X4.4062 Y2.2662
G3 X4.3799 Y2.6103 I-2.2595 J0
G3 X4.3043 Y2.9282 I-2.0067 J-0.3092
G3 X4.1788 Y3.2298 I-1.9312 J-0.627
G3 X3.9976 Y3.5242 I-2.0093 J-1.0334
G3 X3.7737 Y3.7875 I-1.8282 J-1.3278
G3 X3.5257 Y4.0002 I-1.4416 J-1.4298
G3 X3.2468 Y4.1704 I-1.1936 J-1.6425
G3 X2.9272 Y4.302 I-1.0179 J-2.0172
G3 X2.5913 Y4.3834 I-0.6983 J-2.1489
G3 X2.2656 Y4.4097 I-0.3256 J-2.0041
G3 X1.94 Y4.3834 I0 J-2.0304
G3 X1.604 Y4.302 I0.3624 J-2.2303
G3 X1.2844 Y4.1704 I0.6983 J-2.1489
G3 X1.0055 Y4.0002 I0.9147 J-1.8127
G3 X0.7576 Y3.7875 I1.1936 J-1.6425
G3 X0.5336 Y3.5242 I1.6043 J-1.5912
G0 Z0.5
G0 X2.2328 Y2.2901
G1 Z-0.25 F30
G3 X2.2255 Y2.2792 I0.1291 J-0.0937 F60
G3 X2.225 Y2.2662 I0.159 J-0.013
G1 X2.225 Y2.2658
G1 X2.225 Y2.2655
G1 X2.225 Y2.265
G3 X2.2255 Y2.252 I0.1595 J0
G3 X2.2328 Y2.2412 I0.1363 J0.0829
G3 X2.2408 Y2.231 I0.1291 J0.0937
G3 X2.2531 Y2.2264 I0.0615 J0.1472
G3 X2.2656 Y2.2229 I0.0493 J0.1517
G3 X2.2782 Y2.2264 I-0.0367 J0.1552
G3 X2.2904 Y2.231 I-0.0493 J0.1517
G3 X2.2985 Y2.2412 I-0.121 J0.104
G3 X2.3057 Y2.252 I-0.1291 J0.0937
G3 X2.3063 Y2.265 I-0.159 J0.013
G1 X2.3063 Y2.2655
G1 X2.3063 Y2.2657
G1 X2.3062 Y2.2662
G3 X2.3057 Y2.2792 I-0.1595 J0
G3 X2.2985 Y2.2901 I-0.1363 J-0.0829
G3 X2.2904 Y2.3003 I-0.1291 J-0.0937
G3 X2.2782 Y2.3048 I-0.0615 J-0.1472
G3 X2.2656 Y2.3084 I-0.0493 J-0.1517
G3 X2.2531 Y2.3048 I0.0367 J-0.1552
G3 X2.2408 Y2.3003 I0.0493 J-0.1517
G3 X2.2328 Y2.2901 I0.121 J-0.104
G1 X2.1518 Y2.3488 F60
G3 X2.131 Y2.315 I0.21 J-0.1525 F60
G3 X2.1292 Y2.3105 I0.027 J-0.0139
G3 X2.128 Y2.3057 I0.0289 J-0.0094
G3 X2.125 Y2.2662 I0.2565 J-0.0395
G1 X2.125 Y2.2658
G1 X2.125 Y2.2656
G1 X2.125 Y2.265
G1 X2.125 Y2.265
G3 X2.128 Y2.2255 I0.2595 J0
G3 X2.1292 Y2.2207 I0.03 J0.0046
G3 X2.131 Y2.2162 I0.0289 J0.0094
G3 X2.1518 Y2.1824 I0.2308 J0.1187
G3 X2.1776 Y2.1522 I0.21 J0.1525
G3 X2.1813 Y2.149 I0.0216 J0.0214
G3 X2.1855 Y2.1464 I0.0179 J0.0246
G3 X2.2222 Y2.1313 I0.1169 J0.2317
G3 X2.2607 Y2.122 I0.0802 J0.2468
G3 X2.2656 Y2.1216 I0.0049 J0.03
G3 X2.2705 Y2.122 I0 J0.0304
G3 X2.3091 Y2.1313 I-0.0416 J0.2562
G3 X2.3458 Y2.1464 I-0.0802 J0.2468
G3 X2.35 Y2.149 I-0.0137 J0.0271
G3 X2.3537 Y2.1522 I-0.0179 J0.0246
G3 X2.3794 Y2.1824 I-0.1843 J0.1828
G3 X2.4002 Y2.2162 I-0.21 J0.1525
G3 X2.4021 Y2.2207 I-0.027 J0.0139
G3 X2.4032 Y2.2255 I-0.0289 J0.0094
G3 X2.4063 Y2.265 I-0.2565 J0.0395
G1 X2.4063 Y2.2654
G1 X2.4063 Y2.2657
G1 X2.4062 Y2.2662
G1 X2.4062 Y2.2662
G3 X2.4032 Y2.3057 I-0.2595 J0
G3 X2.4021 Y2.3105 I-0.03 J-0.0046
G3 X2.4002 Y2.315 I-0.0289 J-0.0094
G3 X2.3794 Y2.3488 I-0.2308 J-0.1187
G3 X2.3537 Y2.3791 I-0.21 J-0.1525
G3 X2.35 Y2.3823 I-0.0216 J-0.0214
G3 X2.3458 Y2.3848 I-0.0179 J-0.0246
G3 X2.3091 Y2.3999 I-0.1169 J-0.2317
G3 X2.2705 Y2.4093 I-0.0802 J-0.2468
G3 X2.2656 Y2.4097 I-0.0049 J-0.03
G3 X2.2607 Y2.4093 I0 J-0.0304
G3 X2.2222 Y2.3999 I0.0416 J-0.2562
G3 X2.1855 Y2.3848 I0.0802 J-0.2468
G3 X2.1813 Y2.3823 I0.0137 J-0.0271
G3 X2.1776 Y2.3791 I0.0179 J-0.0246
G3 X2.1518 Y2.3488 I0.1843 J-0.1828
G1 X2.0709 Y2.4076 F60
G3 X2.0421 Y2.3608 I0.2909 J-0.2113 F60
G3 X2.034 Y2.3414 I0.116 J-0.0596
G3 X2.0292 Y2.321 I0.124 J-0.0403
G3 X2.025 Y2.2662 I0.3553 J-0.0548
G1 X2.025 Y2.2658
G1 X2.025 Y2.2656
G1 X2.025 Y2.265
G1 X2.025 Y2.265
G3 X2.0292 Y2.2103 I0.3595 J0
G3 X2.034 Y2.1899 I0.1289 J0.0199
G3 X2.0421 Y2.1705 I0.124 J0.0403
G3 X2.0709 Y2.1236 I0.3197 J0.1644
G3 X2.1066 Y2.0817 I0.2909 J0.2113
G3 X2.1225 Y2.0681 I0.0926 J0.0918
G3 X2.1404 Y2.0572 I0.0767 J0.1055
G3 X2.1913 Y2.0362 I0.162 J0.321
G3 X2.2447 Y2.0233 I0.1111 J0.3419
G3 X2.2656 Y2.0216 I0.0209 J0.1287
G3 X2.2865 Y2.0233 I0 J0.1304
G3 X2.34 Y2.0362 I-0.0577 J0.3549
G3 X2.3908 Y2.0572 I-0.1111 J0.3419
G3 X2.4088 Y2.0681 I-0.0587 J0.1164
G3 X2.4247 Y2.0817 I-0.0767 J0.1055
G3 X2.4603 Y2.1236 I-0.2553 J0.2532
G3 X2.4891 Y2.1705 I-0.2909 J0.2113
G3 X2.4972 Y2.1899 I-0.116 J0.0596
G3 X2.5021 Y2.2103 I-0.124 J0.0403
G3 X2.5063 Y2.265 I-0.3553 J0.0548
G1 X2.5063 Y2.2654
G1 X2.5063 Y2.2656
G1 X2.5062 Y2.2662
G1 X2.5062 Y2.2662
G3 X2.5021 Y2.321 I-0.3595 J0
G3 X2.4972 Y2.3414 I-0.1289 J-0.0199
G3 X2.4891 Y2.3608 I-0.124 J-0.0403
G3 X2.4603 Y2.4076 I-0.3197 J-0.1644
G3 X2.4247 Y2.4495 I-0.2909 J-0.2113
G3 X2.4088 Y2.4632 I-0.0926 J-0.0918
G3 X2.3908 Y2.4741 I-0.0767 J-0.1055
G3 X2.34 Y2.495 I-0.162 J-0.321
G3 X2.2865 Y2.508 I-0.1111 J-0.3419
G3 X2.2656 Y2.5097 I-0.0209 J-0.1287
G3 X2.2447 Y2.508 I0 J-0.1304
G3 X2.1913 Y2.495 I0.0577 J-0.3549
G3 X2.1404 Y2.4741 I0.1111 J-0.3419
G3 X2.1225 Y2.4632 I0.0587 J-0.1164
G3 X2.1066 Y2.4495 I0.0767 J-0.1055
G3 X2.0709 Y2.4076 I0.2553 J-0.2532
G1 X1.99 Y2.4664 F60
G3 X1.9532 Y2.4065 I0.3718 J-0.27 F60
G3 X1.9389 Y2.3723 I0.2049 J-0.1054
G3 X1.9304 Y2.3362 I0.2191 J-0.0712
G3 X1.925 Y2.2662 I0.4542 J-0.07
G1 X1.925 Y2.2658
G1 X1.925 Y2.2657
G1 X1.925 Y2.265
G1 X1.925 Y2.265
G3 X1.9304 Y2.195 I0.4595 J0
G3 X1.9389 Y2.159 I0.2277 J0.0351
G3 X1.9532 Y2.1248 I0.2191 J0.0712
G3 X1.99 Y2.0649 I0.4086 J0.2102
G3 X2.0356 Y2.0113 I0.3718 J0.27
G3 X2.0637 Y1.9872 I0.1636 J0.1622
G3 X2.0954 Y1.9679 I0.1354 J0.1864
G3 X2.1603 Y1.9411 I0.207 J0.4102
G3 X2.2287 Y1.9246 I0.142 J0.437
G3 X2.2656 Y1.9216 I0.037 J0.2274
G3 X2.3026 Y1.9246 I0 J0.2304
G3 X2.3709 Y1.9411 I-0.0737 J0.4536
G3 X2.4359 Y1.9679 I-0.142 J0.437
G3 X2.4675 Y1.9872 I-0.1038 J0.2057
G3 X2.4957 Y2.0113 I-0.1354 J0.1864
G3 X2.5412 Y2.0649 I-0.3263 J0.3236
G3 X2.5781 Y2.1248 I-0.3718 J0.27
G3 X2.5923 Y2.159 I-0.2049 J0.1054
G3 X2.6009 Y2.195 I-0.2191 J0.0712
G3 X2.6063 Y2.265 I-0.4542 J0.07
G1 X2.6063 Y2.2654
G1 X2.6063 Y2.2656
G1 X2.6062 Y2.2662
G1 X2.6062 Y2.2662
G3 X2.6009 Y2.3362 I-0.4595 J0
G3 X2.5923 Y2.3723 I-0.2277 J-0.0351
G3 X2.5781 Y2.4065 I-0.2191 J-0.0712
G3 X2.5412 Y2.4664 I-0.4086 J-0.2102
G3 X2.4957 Y2.5199 I-0.3718 J-0.27
G3 X2.4675 Y2.5441 I-0.1636 J-0.1622
G3 X2.4359 Y2.5634 I-0.1354 J-0.1864
G3 X2.3709 Y2.5901 I-0.207 J-0.4102
G3 X2.3026 Y2.6067 I-0.142 J-0.437
G3 X2.2656 Y2.6097 I-0.037 J-0.2274
G3 X2.2287 Y2.6067 I0 J-0.2304
G3 X2.1603 Y2.5901 I0.0737 J-0.4536
G3 X2.0954 Y2.5634 I0.142 J-0.437
G3 X2.0637 Y2.5441 I0.1038 J-0.2057
G3 X2.0356 Y2.5199 I0.1354 J-0.1864
G3 X1.99 Y2.4664 I0.3263 J-0.3236
G1 X1.9091 Y2.5251 F60
G3 X1.8643 Y2.4522 I0.4527 J-0.3288 F60
G3 X1.8438 Y2.4032 I0.2938 J-0.1511
G3 X1.8315 Y2.3514 I0.3143 J-0.102
G3 X1.825 Y2.2662 I0.553 J-0.0852
G1 X1.825 Y2.2659
G1 X1.825 Y2.2657
G1 X1.825 Y2.265
G1 X1.825 Y2.265
G3 X1.8315 Y2.1798 I0.5595 J0
G3 X1.8438 Y2.1281 I0.3265 J0.0503
G3 X1.8643 Y2.079 I0.3143 J0.102
G3 X1.9091 Y2.0061 I0.4976 J0.2559
G3 X1.9646 Y1.9409 I0.4527 J0.3288
G3 X2.0049 Y1.9063 I0.2346 J0.2327
G3 X2.0503 Y1.8786 I0.1942 J0.2673
G3 X2.1294 Y1.846 I0.2521 J0.4995
G3 X2.2126 Y1.8259 I0.1729 J0.5321
G3 X2.2656 Y1.8216 I0.053 J0.3261
G3 X2.3186 Y1.8259 I0 J0.3304
G3 X2.4018 Y1.846 I-0.0897 J0.5523
G3 X2.4809 Y1.8786 I-0.1729 J0.5321
G3 X2.5263 Y1.9063 I-0.1489 J0.295
G3 X2.5667 Y1.9409 I-0.1942 J0.2673
G3 X2.6221 Y2.0061 I-0.3973 J0.394
G3 X2.667 Y2.079 I-0.4527 J0.3288
G3 X2.6874 Y2.1281 I-0.2938 J0.1511
G3 X2.6997 Y2.1798 I-0.3143 J0.102
G3 X2.7063 Y2.265 I-0.553 J0.0852
G1 X2.7063 Y2.2654
G1 X2.7063 Y2.2656
G1 X2.7062 Y2.2662
G1 X2.7062 Y2.2662
G3 X2.6997 Y2.3514 I-0.5595 J0
G3 X2.6874 Y2.4032 I-0.3265 J-0.0503
G3 X2.667 Y2.4522 I-0.3143 J-0.102
G3 X2.6221 Y2.5251 I-0.4976 J-0.2559
G3 X2.5667 Y2.5903 I-0.4527 J-0.3288
G3 X2.5263 Y2.625 I-0.2346 J-0.2327
G3 X2.4809 Y2.6526 I-0.1942 J-0.2673
G3 X2.4018 Y2.6852 I-0.2521 J-0.4995
G3 X2.3186 Y2.7054 I-0.1729 J-0.5321
G3 X2.2656 Y2.7097 I-0.053 J-0.3261
G3 X2.2126 Y2.7054 I0 J-0.3304
G3 X2.1294 Y2.6852 I0.0897 J-0.5523
G3 X2.0503 Y2.6526 I0.1729 J-0.5321
G3 X2.0049 Y2.625 I0.1489 J-0.295
G3 X1.9646 Y2.5903 I0.1942 J-0.2673
G3 X1.9091 Y2.5251 I0.3973 J-0.394
G1 X1.8282 Y2.5839 F60
G3 X1.7753 Y2.498 I0.5336 J-0.3876 F60
G3 X1.7487 Y2.434 I0.3827 J-0.1969
G3 X1.7327 Y2.3667 I0.4094 J-0.1329
G3 X1.725 Y2.2662 I0.6518 J-0.1004
G1 X1.725 Y2.2659
G1 X1.725 Y2.2657
G1 X1.725 Y2.265
G1 X1.725 Y2.265
G3 X1.7327 Y2.1646 I0.6595 J0
G3 X1.7487 Y2.0972 I0.4254 J0.0655
G3 X1.7753 Y2.0333 I0.4094 J0.1329
G3 X1.8282 Y1.9473 I0.5865 J0.3016
G3 X1.8936 Y1.8705 I0.5336 J0.3876
G3 X1.9461 Y1.8254 I0.3056 J0.3031
G3 X2.0052 Y1.7893 I0.253 J0.3482
G3 X2.0985 Y1.7509 I0.2971 J0.5888
G3 X2.1966 Y1.7271 I0.2038 J0.6272
G3 X2.2656 Y1.7216 I0.069 J0.4248
G3 X2.3347 Y1.7271 I0 J0.4304
G3 X2.4327 Y1.7509 I-0.1058 J0.651
G3 X2.526 Y1.7893 I-0.2038 J0.6272
G3 X2.5851 Y1.8254 I-0.1939 J0.3843
G3 X2.6377 Y1.8705 I-0.253 J0.3482
G3 X2.703 Y1.9473 I-0.4683 J0.4644
G3 X2.7559 Y2.0333 I-0.5336 J0.3876
G3 X2.7825 Y2.0972 I-0.3827 J0.1969
G3 X2.7986 Y2.1646 I-0.4094 J0.1329
G3 X2.8063 Y2.265 I-0.6518 J0.1004
G1 X2.8063 Y2.2654
G1 X2.8063 Y2.2656
G1 X2.8062 Y2.2662
G1 X2.8062 Y2.2662
G3 X2.7986 Y2.3667 I-0.6595 J0
G3 X2.7825 Y2.434 I-0.4254 J-0.0655
G3 X2.7559 Y2.498 I-0.4094 J-0.1329
G3 X2.703 Y2.5839 I-0.5865 J-0.3016
G3 X2.6377 Y2.6608 I-0.5336 J-0.3876
G3 X2.5851 Y2.7058 I-0.3056 J-0.3031
G3 X2.526 Y2.7419 I-0.253 J-0.3482
G3 X2.4327 Y2.7804 I-0.2971 J-0.5888
G3 X2.3347 Y2.8041 I-0.2038 J-0.6272
G3 X2.2656 Y2.8097 I-0.069 J-0.4248
G3 X2.1966 Y2.8041 I0 J-0.4304
G3 X2.0985 Y2.7804 I0.1058 J-0.651
G3 X2.0052 Y2.7419 I0.2038 J-0.6272
G3 X1.9461 Y2.7058 I0.1939 J-0.3843
G3 X1.8936 Y2.6608 I0.253 J-0.3482
G3 X1.8282 Y2.5839 I0.4683 J-0.4644
G1 X1.7473 Y2.6427 F60
G3 X1.6864 Y2.5437 I0.6145 J-0.4463 F60
G3 X1.6536 Y2.4649 I0.4717 J-0.2426
G3 X1.6339 Y2.3819 I0.5045 J-0.1638
G3 X1.625 Y2.2662 I0.7507 J-0.1157
G1 X1.625 Y2.2659
G1 X1.625 Y2.2657
G1 X1.625 Y2.265
G1 X1.625 Y2.265
G3 X1.6339 Y2.1494 I0.7595 J0
G3 X1.6536 Y2.0663 I0.5242 J0.0808
G3 X1.6864 Y1.9875 I0.5045 J0.1638
G3 X1.7473 Y1.8886 I0.6754 J0.3474
G3 X1.8226 Y1.8001 I0.6145 J0.4463
G3 X1.8873 Y1.7445 I0.3766 J0.3735
G3 X1.9602 Y1.7001 I0.3118 J0.4291
G3 X2.0676 Y1.6558 I0.3422 J0.6781
G3 X2.1806 Y1.6284 I0.2347 J0.7223
G3 X2.2656 Y1.6216 I0.0851 J0.5235
G3 X2.3507 Y1.6284 I0 J0.5304
G3 X2.4636 Y1.6558 I-0.1218 J0.7497
G3 X2.5711 Y1.7001 I-0.2347 J0.7223
G3 X2.6439 Y1.7445 I-0.239 J0.4735
G3 X2.7087 Y1.8001 I-0.3118 J0.4291
G3 X2.784 Y1.8886 I-0.5393 J0.5349
G3 X2.8448 Y1.9875 I-0.6145 J0.4463
G3 X2.8777 Y2.0663 I-0.4717 J0.2426
G3 X2.8974 Y2.1494 I-0.5045 J0.1638
G3 X2.9063 Y2.265 I-0.7507 J0.1157
G1 X2.9063 Y2.2654
G1 X2.9063 Y2.2656
G1 X2.9062 Y2.2662
G1 X2.9062 Y2.2662
G3 X2.8974 Y2.3819 I-0.7595 J0
G3 X2.8777 Y2.4649 I-0.5242 J-0.0808
G3 X2.8448 Y2.5437 I-0.5045 J-0.1638
G3 X2.784 Y2.6427 I-0.6754 J-0.3474
G3 X2.7087 Y2.7312 I-0.6145 J-0.4463
G3 X2.6439 Y2.7867 I-0.3766 J-0.3735
G3 X2.5711 Y2.8312 I-0.3118 J-0.4291
G3 X2.4636 Y2.8755 I-0.3422 J-0.6781
G3 X2.3507 Y2.9028 I-0.2347 J-0.7223
G3 X2.2656 Y2.9097 I-0.0851 J-0.5235
G3 X2.1806 Y2.9028 I0 J-0.5304
G3 X2.0676 Y2.8755 I0.1218 J-0.7497
G3 X1.9602 Y2.8312 I0.2347 J-0.7223
G3 X1.8873 Y2.7867 I0.239 J-0.4735
G3 X1.8226 Y2.7312 I0.3118 J-0.4291
G3 X1.7473 Y2.6427 I0.5393 J-0.5349
G1 X1.6664 Y2.7014 F60
G3 X1.5975 Y2.5894 I0.6954 J-0.5051 F60
G3 X1.5585 Y2.4958 I0.5606 J-0.2883
G3 X1.535 Y2.3971 I0.5996 J-0.1947
G3 X1.525 Y2.2662 I0.8495 J-0.1309
G1 X1.525 Y2.2659
G1 X1.525 Y2.2657
G1 X1.525 Y2.265
G1 X1.525 Y2.265
G3 X1.535 Y2.1341 I0.8595 J0
G3 X1.5585 Y2.0354 I0.6231 J0.096
G3 X1.5975 Y1.9418 I0.5996 J0.1947
G3 X1.6664 Y1.8298 I0.7644 J0.3931
G3 X1.7516 Y1.7296 I0.6954 J0.5051
G3 X1.8286 Y1.6636 I0.4476 J0.4439
G3 X1.9151 Y1.6108 I0.3706 J0.51
G3 X2.0367 Y1.5607 I0.3872 J0.7674
G3 X2.1645 Y1.5297 I0.2656 J0.8174
G3 X2.2656 Y1.5216 I0.1011 J0.6222
G3 X2.3667 Y1.5297 I0 J0.6304
G3 X2.4945 Y1.5607 I-0.1379 J0.8484
G3 X2.6161 Y1.6108 I-0.2656 J0.8174
G3 X2.7027 Y1.6636 I-0.284 J0.5628
G3 X2.7797 Y1.7296 I-0.3706 J0.51
G3 X2.8649 Y1.8298 I-0.6103 J0.6053
G3 X2.9338 Y1.9418 I-0.6954 J0.5051
G3 X2.9728 Y2.0354 I-0.5606 J0.2883
G3 X2.9962 Y2.1341 I-0.5996 J0.1947
G3 X3.0063 Y2.265 I-0.8495 J0.1309
G1 X3.0063 Y2.2654
G1 X3.0063 Y2.2656
G1 X3.0062 Y2.2662
G1 X3.0062 Y2.2662
G3 X2.9962 Y2.3971 I-0.8595 J0
G3 X2.9728 Y2.4958 I-0.6231 J-0.096
G3 X2.9338 Y2.5894 I-0.5996 J-0.1947
G3 X2.8649 Y2.7014 I-0.7644 J-0.3931
G3 X2.7797 Y2.8016 I-0.6954 J-0.5051
G3 X2.7027 Y2.8676 I-0.4476 J-0.4439
G3 X2.6161 Y2.9205 I-0.3706 J-0.51
G3 X2.4945 Y2.9706 I-0.3872 J-0.7674
G3 X2.3667 Y3.0015 I-0.2656 J-0.8174
G3 X2.2656 Y3.0097 I-0.1011 J-0.6222
G3 X2.1645 Y3.0015 I0 J-0.6304
G3 X2.0367 Y2.9706 I0.1379 J-0.8484
G3 X1.9151 Y2.9205 I0.2656 J-0.8174
G3 X1.8286 Y2.8676 I0.284 J-0.5628
G3 X1.7516 Y2.8016 I0.3706 J-0.51
G3 X1.6664 Y2.7014 I0.6103 J-0.6053
G1 X1.5855 Y2.7602 F60
G3 X1.5085 Y2.6352 I0.7764 J-0.5639 F60
G3 X1.4634 Y2.5267 I0.6495 J-0.3341
G3 X1.4362 Y2.4123 I0.6947 J-0.2256
G3 X1.425 Y2.2662 I0.9483 J-0.1461
G1 X1.425 Y2.2659
G1 X1.425 Y2.2657
G1 X1.425 Y2.265
G1 X1.425 Y2.265
G3 X1.4362 Y2.1189 I0.9595 J0
G3 X1.4634 Y2.0046 I0.7219 J0.1112
G3 X1.5085 Y1.8961 I0.6947 J0.2256
G3 X1.5855 Y1.771 I0.8533 J0.4389
G3 X1.6806 Y1.6592 I0.7764 J0.5639
G3 X1.7698 Y1.5827 I0.5186 J0.5144
G3 X1.8701 Y1.5215 I0.4294 J0.5909
G3 X2.0058 Y1.4656 I0.4323 J0.8566
G3 X2.1485 Y1.431 I0.2966 J0.9125
G3 X2.2656 Y1.4216 I0.1171 J0.7209
G3 X2.3828 Y1.431 I0 J0.7304
G3 X2.5254 Y1.4656 I-0.1539 J0.9471
G3 X2.6612 Y1.5215 I-0.2966 J0.9125
G3 X2.7615 Y1.5827 I-0.3291 J0.6521
G3 X2.8507 Y1.6592 I-0.4294 J0.5909
G3 X2.9458 Y1.771 I-0.6813 J0.6757
G3 X3.0227 Y1.8961 I-0.7764 J0.5639
G3 X3.0679 Y2.0046 I-0.6495 J0.3341
G3 X3.0951 Y2.1189 I-0.6947 J0.2256
G3 X3.1063 Y2.265 I-0.9483 J0.1461
G1 X3.1063 Y2.2654
G1 X3.1063 Y2.2656
G1 X3.1062 Y2.2662
G1 X3.1062 Y2.2662
G3 X3.0951 Y2.4123 I-0.9595 J0
G3 X3.0679 Y2.5267 I-0.7219 J-0.1112
G3 X3.0227 Y2.6352 I-0.6947 J-0.2256
G3 X2.9458 Y2.7602 I-0.8533 J-0.4389
G3 X2.8507 Y2.872 I-0.7764 J-0.5639
G3 X2.7615 Y2.9485 I-0.5186 J-0.5144
G3 X2.6612 Y3.0098 I-0.4294 J-0.5909
G3 X2.5254 Y3.0657 I-0.4323 J-0.8566
G3 X2.3828 Y3.1002 I-0.2966 J-0.9125
G3 X2.2656 Y3.1097 I-0.1171 J-0.7209
G3 X2.1485 Y3.1002 I0 J-0.7304
G3 X2.0058 Y3.0657 I0.1539 J-0.9471
G3 X1.8701 Y3.0098 I0.2966 J-0.9125
G3 X1.7698 Y2.9485 I0.3291 J-0.6521
G3 X1.6806 Y2.872 I0.4294 J-0.5909
G3 X1.5855 Y2.7602 I0.6813 J-0.6757
G1 X1.5046 Y2.819 F60
G3 X1.4196 Y2.6809 I0.8573 J-0.6226 F60
G3 X1.3683 Y2.5576 I0.7385 J-0.3798
G3 X1.3374 Y2.4276 I0.7898 J-0.2564
G3 X1.325 Y2.2662 I1.0472 J-0.1613
G1 X1.325 Y2.2659
G1 X1.325 Y2.2657
G1 X1.325 Y2.265
G1 X1.325 Y2.265
G3 X1.3374 Y2.1037 I1.0595 J0
G3 X1.3683 Y1.9737 I0.8207 J0.1265
G3 X1.4196 Y1.8503 I0.7898 J0.2564
G3 X1.5046 Y1.7123 I0.9422 J0.4846
G3 X1.6096 Y1.5888 I0.8573 J0.6226
G3 X1.711 Y1.5018 I0.5896 J0.5848
G3 X1.825 Y1.4322 I0.4882 J0.6718
G3 X1.9749 Y1.3705 I0.4773 J0.9459
G3 X2.1324 Y1.3323 I0.3275 J1.0077
G3 X2.2656 Y1.3216 I0.1332 J0.8197
G3 X2.3988 Y1.3323 I0 J0.8304
G3 X2.5563 Y1.3705 I-0.1699 J1.0458
G3 X2.7062 Y1.4322 I-0.3275 J1.0077
G3 X2.8203 Y1.5018 I-0.3741 J0.7414
G3 X2.9217 Y1.5888 I-0.4882 J0.6718
G3 X3.0267 Y1.7123 I-0.7523 J0.7461
G3 X3.1116 Y1.8503 I-0.8573 J0.6226
G3 X3.163 Y1.9737 I-0.7385 J0.3798
G3 X3.1939 Y2.1037 I-0.7898 J0.2564
G3 X3.2063 Y2.265 I-1.0472 J0.1613
G1 X3.2063 Y2.2654
G1 X3.2063 Y2.2656
G1 X3.2062 Y2.2662
G1 X3.2062 Y2.2662
G3 X3.1939 Y2.4276 I-1.0595 J0
G3 X3.163 Y2.5576 I-0.8207 J-0.1265
G3 X3.1116 Y2.6809 I-0.7898 J-0.2564
G3 X3.0267 Y2.819 I-0.9422 J-0.4846
G3 X2.9217 Y2.9424 I-0.8573 J-0.6226
G3 X2.8203 Y3.0294 I-0.5896 J-0.5848
G3 X2.7062 Y3.099 I-0.4882 J-0.6718
G3 X2.5563 Y3.1608 I-0.4773 J-0.9459
G3 X2.3988 Y3.1989 I-0.3275 J-1.0077
G3 X2.2656 Y3.2097 I-0.1332 J-0.8197
G3 X2.1324 Y3.1989 I0 J-0.8304
G3 X1.9749 Y3.1608 I0.1699 J-1.0458
G3 X1.825 Y3.099 I0.3275 J-1.0077
G3 X1.711 Y3.0294 I0.3741 J-0.7414
G3 X1.6096 Y2.9424 I0.4882 J-0.6718
G3 X1.5046 Y2.819 I0.7523 J-0.7461
G1 X1.4236 Y2.8777 F60
G3 X1.3307 Y2.7267 I0.9382 J-0.6814 F60
G3 X1.2732 Y2.5884 I0.8274 J-0.4255
G3 X1.2385 Y2.4428 I0.8849 J-0.2873
G3 X1.225 Y2.2662 I1.146 J-0.1766
G1 X1.225 Y2.2659
G1 X1.225 Y2.2657
G1 X1.225 Y2.265
G1 X1.225 Y2.265
G3 X1.2385 Y2.0884 I1.1595 J0
G3 X1.2732 Y1.9428 I0.9196 J0.1417
G3 X1.3307 Y1.8046 I0.8849 J0.2873
G3 X1.4236 Y1.6535 I1.0311 J0.5303
G3 X1.5386 Y1.5184 I0.9382 J0.6814
G3 X1.6522 Y1.4209 I0.6606 J0.6552
G3 X1.78 Y1.3429 I0.547 J0.7527
G3 X1.944 Y1.2754 I0.5224 J1.0352
G3 X2.1164 Y1.2336 I0.3584 J1.1028
G3 X2.2656 Y1.2216 I0.1492 J0.9184
G3 X2.4148 Y1.2336 I0 J0.9304
G3 X2.5872 Y1.2754 I-0.186 J1.1445
G3 X2.7513 Y1.3429 I-0.3584 J1.1028
G3 X2.8791 Y1.4209 I-0.4192 J0.8306
G3 X2.9927 Y1.5184 I-0.547 J0.7527
G3 X3.1076 Y1.6535 I-0.8233 J0.8165
G3 X3.2006 Y1.8046 I-0.9382 J0.6814
G3 X3.2581 Y1.9428 I-0.8274 J0.4255
G3 X3.2927 Y2.0884 I-0.8849 J0.2873
G3 X3.3063 Y2.265 I-1.146 J0.1766
G1 X3.3063 Y2.2654
G1 X3.3063 Y2.2656
G1 X3.3062 Y2.2662
G1 X3.3062 Y2.2662
G3 X3.2927 Y2.4428 I-1.1595 J0
G3 X3.2581 Y2.5884 I-0.9196 J-0.1417
G3 X3.2006 Y2.7267 I-0.8849 J-0.2873
G3 X3.1076 Y2.8777 I-1.0311 J-0.5303
G3 X2.9927 Y3.0129 I-0.9382 J-0.6814
G3 X2.8791 Y3.1103 I-0.6606 J-0.6552
G3 X2.7513 Y3.1883 I-0.547 J-0.7527
G3 X2.5872 Y3.2559 I-0.5224 J-1.0352
G3 X2.4148 Y3.2976 I-0.3584 J-1.1028
G3 X2.2656 Y3.3097 I-0.1492 J-0.9184
G3 X2.1164 Y3.2976 I0 J-0.9304
G3 X1.944 Y3.2559 I0.186 J-1.1445
G3 X1.78 Y3.1883 I0.3584 J-1.1028
G3 X1.6522 Y3.1103 I0.4192 J-0.8306
G3 X1.5386 Y3.0129 I0.547 J-0.7527
G3 X1.4236 Y2.8777 I0.8233 J-0.8165
G1 X1.3427 Y2.9365 F60
G3 X1.2418 Y2.7724 I1.0191 J-0.7402 F60
G3 X1.178 Y2.6193 I0.9163 J-0.4713
G3 X1.1397 Y2.458 I0.98 J-0.3182
G3 X1.125 Y2.2662 I1.2448 J-0.1918
G1 X1.125 Y2.2658
G1 X1.125 Y2.2657
G1 X1.125 Y2.265
G1 X1.125 Y2.265
G3 X1.1397 Y2.0732 I1.2595 J0
G3 X1.178 Y1.9119 I1.0184 J0.1569
G3 X1.2418 Y1.7589 I0.98 J0.3182
G3 X1.3427 Y1.5948 I1.1201 J0.5761
G3 X1.4676 Y1.448 I1.0191 J0.7402
G3 X1.5934 Y1.34 I0.7316 J0.7256
G3 X1.7349 Y1.2537 I0.6057 J0.8336
G3 X1.9131 Y1.1803 I0.5674 J1.1245
G3 X2.1004 Y1.1349 I0.3893 J1.1979
G3 X2.2656 Y1.1216 I0.1653 J1.0171
G3 X2.4309 Y1.1349 I0 J1.0304
G3 X2.6182 Y1.1803 I-0.202 J1.2432
G3 X2.7963 Y1.2537 I-0.3893 J1.1979
G3 X2.9378 Y1.34 I-0.4642 J0.9199
G3 X3.0637 Y1.448 I-0.6057 J0.8336
G3 X3.1885 Y1.5948 I-0.8943 J0.887
G3 X3.2895 Y1.7589 I-1.0191 J0.7402
G3 X3.3532 Y1.9119 I-0.9163 J0.4713
G3 X3.3916 Y2.0732 I-0.98 J0.3182
G3 X3.4063 Y2.265 I-1.2448 J0.1918
G1 X3.4063 Y2.2654
G1 X3.4063 Y2.2656
G1 X3.4062 Y2.2662
G1 X3.4062 Y2.2662
G3 X3.3916 Y2.458 I-1.2595 J0
G3 X3.3532 Y2.6193 I-1.0184 J-0.1569
G3 X3.2895 Y2.7724 I-0.98 J-0.3182
G3 X3.1885 Y2.9365 I-1.1201 J-0.5761
G3 X3.0637 Y3.0833 I-1.0191 J-0.7402
G3 X2.9378 Y3.1912 I-0.7316 J-0.7256
G3 X2.7963 Y3.2776 I-0.6057 J-0.8336
G3 X2.6182 Y3.351 I-0.5674 J-1.1245
G3 X2.4309 Y3.3963 I-0.3893 J-1.1979
G3 X2.2656 Y3.4097 I-0.1653 J-1.0171
G3 X2.1004 Y3.3963 I0 J-1.0304
G3 X1.9131 Y3.351 I0.202 J-1.2432
G3 X1.7349 Y3.2776 I0.3893 J-1.1979
G3 X1.5934 Y3.1912 I0.4642 J-0.9199
G3 X1.4676 Y3.0833 I0.6057 J-0.8336
G3 X1.3427 Y2.9365 I0.8943 J-0.887
G1 X1.2618 Y2.9953 F60
G3 X1.1528 Y2.8181 I1.1 J-0.7989 F60
G3 X1.0829 Y2.6502 I1.0052 J-0.517
G3 X1.0409 Y2.4733 I1.0751 J-0.3491
G3 X1.025 Y2.2662 I1.3437 J-0.207
G1 X1.025 Y2.2658
G1 X1.025 Y2.2657
G1 X1.025 Y2.265
G1 X1.025 Y2.265
G3 X1.0409 Y2.058 I1.3595 J0
G3 X1.0829 Y1.881 I1.1172 J0.1721
G3 X1.1528 Y1.7131 I1.0751 J0.3491
G3 X1.2618 Y1.536 I1.209 J0.6218
G3 X1.3966 Y1.3775 I1.1 J0.7989
G3 X1.5346 Y1.2591 I0.8026 J0.796
G3 X1.6899 Y1.1644 I0.6645 J0.9144
G3 X1.8822 Y1.0852 I0.6125 J1.2137
G3 X2.0843 Y1.0362 I0.4202 J1.293
G3 X2.2656 Y1.0216 I0.1813 J1.1158
G3 X2.4469 Y1.0362 I0 J1.1304
G3 X2.6491 Y1.0852 I-0.218 J1.3419
G3 X2.8414 Y1.1644 I-0.4202 J1.293
G3 X2.9966 Y1.2591 I-0.5093 J1.0092
G3 X3.1347 Y1.3775 I-0.6645 J0.9144
G3 X3.2694 Y1.536 I-0.9653 J0.9574
G3 X3.3784 Y1.7131 I-1.1 J0.7989
G3 X3.4483 Y1.881 I-1.0052 J0.517
G3 X3.4904 Y2.058 I-1.0751 J0.3491
G3 X3.5063 Y2.265 I-1.3437 J0.207
G1 X3.5063 Y2.2654
G1 X3.5063 Y2.2656
G1 X3.5062 Y2.2662
G1 X3.5062 Y2.2662
G3 X3.4904 Y2.4733 I-1.3595 J0
G3 X3.4483 Y2.6502 I-1.1172 J-0.1721
G3 X3.3784 Y2.8181 I-1.0751 J-0.3491
G3 X3.2694 Y2.9953 I-1.209 J-0.6218
G3 X3.1347 Y3.1537 I-1.1 J-0.7989
G3 X2.9966 Y3.2721 I-0.8026 J-0.796
G3 X2.8414 Y3.3669 I-0.6645 J-0.9144
G3 X2.6491 Y3.4461 I-0.6125 J-1.2137
G3 X2.4469 Y3.495 I-0.4202 J-1.293
G3 X2.2656 Y3.5097 I-0.1813 J-1.1158
G3 X2.0843 Y3.495 I0 J-1.1304
G3 X1.8822 Y3.4461 I0.218 J-1.3419
G3 X1.6899 Y3.3669 I0.4202 J-1.293
G3 X1.5346 Y3.2721 I0.5093 J-1.0092
G3 X1.3966 Y3.1537 I0.6645 J-0.9144
G3 X1.2618 Y2.9953 I0.9653 J-0.9574
G1 X1.1809 Y3.054 F60
G3 X1.0639 Y2.8639 I1.1809 J-0.8577 F60
G3 X0.9878 Y2.6811 I1.0942 J-0.5628
G3 X0.942 Y2.4885 I1.1703 J-0.38
G3 X0.925 Y2.2662 I1.4425 J-0.2223
G1 X0.925 Y2.2658
G1 X0.925 Y2.2656
G1 X0.925 Y2.265
G1 X0.925 Y2.265
G3 X0.942 Y2.0428 I1.4595 J0
G3 X0.9878 Y1.8502 I1.2161 J0.1874
G3 X1.0639 Y1.6674 I1.1703 J0.38
G3 X1.1809 Y1.4772 I1.2979 J0.6675
G3 X1.3256 Y1.3071 I1.1809 J0.8577
G3 X1.4758 Y1.1782 I0.8736 J0.8665
G3 X1.6448 Y1.0751 I0.7233 J0.9953
G3 X1.8513 Y0.9901 I0.6575 J1.303
G3 X2.0683 Y0.9375 I0.4511 J1.3881
G3 X2.2656 Y0.9216 I0.1973 J1.2145
G3 X2.463 Y0.9375 I0 J1.2304
G3 X2.68 Y0.9901 I-0.2341 J1.4406
G3 X2.8864 Y1.0751 I-0.4511 J1.3881
G3 X3.0554 Y1.1782 I-0.5543 J1.0985
G3 X3.2057 Y1.3071 I-0.7233 J0.9953
G3 X3.3503 Y1.4772 I-1.0363 J1.0278
G3 X3.4673 Y1.6674 I-1.1809 J0.8577
G3 X3.5434 Y1.8502 I-1.0942 J0.5628
G3 X3.5892 Y2.0428 I-1.1703 J0.38
G3 X3.6063 Y2.265 I-1.4425 J0.2223
G1 X3.6063 Y2.2654
G1 X3.6063 Y2.2656
G1 X3.6062 Y2.2662
G1 X3.6062 Y2.2662
G3 X3.5892 Y2.4885 I-1.4595 J0
G3 X3.5434 Y2.6811 I-1.2161 J-0.1874
G3 X3.4673 Y2.8639 I-1.1703 J-0.38
G3 X3.3503 Y3.054 I-1.2979 J-0.6675
G3 X3.2057 Y3.2241 I-1.1809 J-0.8577
G3 X3.0554 Y3.353 I-0.8736 J-0.8665
G3 X2.8864 Y3.4561 I-0.7233 J-0.9953
G3 X2.68 Y3.5412 I-0.6575 J-1.303
G3 X2.463 Y3.5937 I-0.4511 J-1.3881
G3 X2.2656 Y3.6097 I-0.1973 J-1.2145
G3 X2.0683 Y3.5937 I0 J-1.2304
G3 X1.8513 Y3.5412 I0.2341 J-1.4406
G3 X1.6448 Y3.4561 I0.4511 J-1.3881
G3 X1.4758 Y3.353 I0.5543 J-1.0985
G3 X1.3256 Y3.2241 I0.7233 J-0.9953
G3 X1.1809 Y3.054 I1.0363 J-1.0278
G1 X1.1 Y3.1128 F60
G3 X0.975 Y2.9096 I1.2618 J-0.9165 F60
G3 X0.8927 Y2.712 I1.1831 J-0.6085
G3 X0.8432 Y2.5037 I1.2654 J-0.4109
G3 X0.825 Y2.2662 I1.5413 J-0.2375
G1 X0.825 Y2.2658
G1 X0.825 Y2.2656
G1 X0.825 Y2.265
G1 X0.825 Y2.265
G3 X0.8432 Y2.0275 I1.5595 J0
G3 X0.8927 Y1.8193 I1.3149 J0.2026
G3 X0.975 Y1.6216 I1.2654 J0.4109
G3 X1.1 Y1.4185 I1.3868 J0.7133
G3 X1.2546 Y1.2367 I1.2618 J0.9165
G3 X1.4171 Y1.0973 I0.9446 J0.9369
G3 X1.5998 Y0.9858 I0.7821 J1.0762
G3 X1.8204 Y0.895 I0.7026 J1.3923
G3 X2.0522 Y0.8388 I0.482 J1.4832
G3 X2.2656 Y0.8216 I0.2134 J1.3132
G3 X2.479 Y0.8388 I0 J1.3304
G3 X2.7109 Y0.895 I-0.2501 J1.5393
G3 X2.9315 Y0.9858 I-0.482 J1.4832
G3 X3.1142 Y1.0973 I-0.5994 J1.1877
G3 X3.2767 Y1.2367 I-0.7821 J1.0762
G3 X3.4312 Y1.4185 I-1.1073 J1.0982
G3 X3.5563 Y1.6216 I-1.2618 J0.9165
G3 X3.6385 Y1.8193 I-1.1831 J0.6085
G3 X3.6881 Y2.0275 I-1.2654 J0.4109
G3 X3.7063 Y2.265 I-1.5413 J0.2375
G1 X3.7063 Y2.2654
G1 X3.7063 Y2.2656
G1 X3.7062 Y2.2662
G1 X3.7062 Y2.2662
G3 X3.6881 Y2.5037 I-1.5595 J0
G3 X3.6385 Y2.712 I-1.3149 J-0.2026
G3 X3.5563 Y2.9096 I-1.2654 J-0.4109
G3 X3.4312 Y3.1128 I-1.3868 J-0.7133
G3 X3.2767 Y3.2945 I-1.2618 J-0.9165
G3 X3.1142 Y3.4339 I-0.9446 J-0.9369
G3 X2.9315 Y3.5454 I-0.7821 J-1.0762
G3 X2.7109 Y3.6363 I-0.7026 J-1.3923
G3 X2.479 Y3.6925 I-0.482 J-1.4832
G3 X2.2656 Y3.7097 I-0.2134 J-1.3132
G3 X2.0522 Y3.6925 I0 J-1.3304
G3 X1.8204 Y3.6363 I0.2501 J-1.5393
G3 X1.5998 Y3.5454 I0.482 J-1.4832
G3 X1.4171 Y3.4339 I0.5994 J-1.1877
G3 X1.2546 Y3.2945 I0.7821 J-1.0762
G3 X1.1 Y3.1128 I1.1073 J-1.0982
G1 X1.0191 Y3.1716 F60
G3 X0.8861 Y2.9553 I1.3427 J-0.9752 F60
G3 X0.7976 Y2.7429 I1.272 J-0.6542
G3 X0.7444 Y2.5189 I1.3605 J-0.4417
G3 X0.725 Y2.2662 I1.6402 J-0.2527
G1 X0.725 Y2.2658
G1 X0.725 Y2.2656
G1 X0.725 Y2.2651
G1 X0.725 Y2.265
G3 X0.7444 Y2.0123 I1.6595 J0
G3 X0.7976 Y1.7884 I1.4137 J0.2178
G3 X0.8861 Y1.5759 I1.3605 J0.4417
G3 X1.0191 Y1.3597 I1.4758 J0.759
G3 X1.1836 Y1.1663 I1.3427 J0.9752
G3 X1.3583 Y1.0164 I1.0156 J1.0073
G3 X1.5547 Y0.8966 I0.8409 J1.1571
G3 X1.7895 Y0.7999 I0.7476 J1.4816
G3 X2.0362 Y0.7401 I0.5129 J1.5783
G3 X2.2656 Y0.7216 I0.2294 J1.4119
G3 X2.495 Y0.7401 I0 J1.4304
G3 X2.7418 Y0.7999 I-0.2662 J1.638
G3 X2.9765 Y0.8966 I-0.5129 J1.5783
G3 X3.173 Y1.0164 I-0.6444 J1.277
G3 X3.3477 Y1.1663 I-0.8409 J1.1571
G3 X3.5122 Y1.3597 I-1.1783 J1.1686
G3 X3.6452 Y1.5759 I-1.3427 J0.9752
G3 X3.7337 Y1.7884 I-1.272 J0.6542
G3 X3.7869 Y2.0123 I-1.3605 J0.4417
G3 X3.8063 Y2.265 I-1.6402 J0.2527
G1 X3.8063 Y2.2654
G1 X3.8063 Y2.2656
G1 X3.8062 Y2.2662
G1 X3.8062 Y2.2662
G3 X3.7869 Y2.5189 I-1.6595 J0
G3 X3.7337 Y2.7429 I-1.4137 J-0.2178
G3 X3.6452 Y2.9553 I-1.3605 J-0.4417
G3 X3.5122 Y3.1716 I-1.4758 J-0.759
G3 X3.3477 Y3.365 I-1.3427 J-0.9752
G3 X3.173 Y3.5148 I-1.0156 J-1.0073
G3 X2.9765 Y3.6347 I-0.8409 J-1.1571
G3 X2.7418 Y3.7314 I-0.7476 J-1.4816
G3 X2.495 Y3.7912 I-0.5129 J-1.5783
G3 X2.2656 Y3.8097 I-0.2294 J-1.4119
G3 X2.0362 Y3.7912 I0 J-1.4304
G3 X1.7895 Y3.7314 I0.2662 J-1.638
G3 X1.5547 Y3.6347 I0.5129 J-1.5783
G3 X1.3583 Y3.5148 I0.6444 J-1.277
G3 X1.1836 Y3.365 I0.8409 J-1.1571
G3 X1.0191 Y3.1716 I1.1783 J-1.1686
G1 X0.9382 Y3.2303 F60
G3 X0.7971 Y3.0011 I1.4236 J-1.034 F60
G3 X0.7025 Y2.7737 I1.3609 J-0.7
G3 X0.6455 Y2.5342 I1.4556 J-0.4726
G3 X0.625 Y2.2662 I1.739 J-0.2679
G1 X0.625 Y2.2659
G1 X0.625 Y2.2656
G1 X0.625 Y2.2651
G1 X0.625 Y2.265
G3 X0.6455 Y1.9971 I1.7595 J0
G3 X0.7025 Y1.7575 I1.5126 J0.2331
G3 X0.7971 Y1.5302 I1.4556 J0.4726
G3 X0.9382 Y1.3009 I1.5647 J0.8048
G3 X1.1126 Y1.0959 I1.4236 J1.034
G3 X1.2995 Y0.9355 I1.0866 J1.0777
G3 X1.5097 Y0.8073 I0.8997 J1.238
G3 X1.7586 Y0.7048 I0.7927 J1.5709
G3 X2.0202 Y0.6414 I0.5438 J1.6734
G3 X2.2656 Y0.6216 I0.2455 J1.5106
G3 X2.5111 Y0.6414 I0 J1.5304
G3 X2.7727 Y0.7048 I-0.2822 J1.7367
G3 X3.0216 Y0.8073 I-0.5438 J1.6734
G3 X3.2318 Y0.9355 I-0.6895 J1.3663
G3 X3.4187 Y1.0959 I-0.8997 J1.238
G3 X3.5931 Y1.3009 I-1.2493 J1.2391
G3 X3.7341 Y1.5302 I-1.4236 J1.034
G3 X3.8288 Y1.7575 I-1.3609 J0.7
G3 X3.8857 Y1.9971 I-1.4556 J0.4726
G3 X3.9063 Y2.265 I-1.739 J0.2679
G1 X3.9062 Y2.2654
G1 X3.9063 Y2.2656
G1 X3.9062 Y2.2662
G1 X3.9062 Y2.2662
G3 X3.8857 Y2.5342 I-1.7595 J0
G3 X3.8288 Y2.7737 I-1.5126 J-0.2331
G3 X3.7341 Y3.0011 I-1.4556 J-0.4726
G3 X3.5931 Y3.2303 I-1.5647 J-0.8048
G3 X3.4187 Y3.4354 I-1.4236 J-1.034
G3 X3.2318 Y3.5957 I-1.0866 J-1.0777
G3 X3.0216 Y3.724 I-0.8997 J-1.238
G3 X2.7727 Y3.8265 I-0.7927 J-1.5709
G3 X2.5111 Y3.8899 I-0.5438 J-1.6734
G3 X2.2656 Y3.9097 I-0.2455 J-1.5106
G3 X2.0202 Y3.8899 I0 J-1.5304
G3 X1.7586 Y3.8265 I0.2822 J-1.7367
G3 X1.5097 Y3.724 I0.5438 J-1.6734
G3 X1.2995 Y3.5957 I0.6895 J-1.3663
G3 X1.1126 Y3.4354 I0.8997 J-1.238
G3 X0.9382 Y3.2303 I1.2493 J-1.2391
G1 X0.8573 Y3.2891 F60
G3 X0.7082 Y3.0468 I1.5046 J-1.0928 F60
G3 X0.6074 Y2.8046 I1.4499 J-0.7457
G3 X0.5467 Y2.5494 I1.5507 J-0.5035
G3 X0.525 Y2.2662 I1.8378 J-0.2832
G1 X0.525 Y2.266
G1 X0.525 Y2.2657
G1 X0.525 Y2.2651
G1 X0.525 Y2.265
G3 X0.5467 Y1.9818 I1.8595 J0
G3 X0.6074 Y1.7266 I1.6114 J0.2483
G3 X0.7082 Y1.4844 I1.5507 J0.5035
G3 X0.8573 Y1.2422 I1.6536 J0.8505
G3 X1.0416 Y1.0254 I1.5046 J1.0928
G3 X1.2407 Y0.8547 I1.1576 J1.1481
G3 X1.4646 Y0.718 I0.9585 J1.3189
G3 X1.7277 Y0.6096 I0.8377 J1.6601
G3 X2.0041 Y0.5427 I0.5747 J1.7685
G3 X2.2656 Y0.5216 I0.2615 J1.6093
G3 X2.5271 Y0.5427 I0 J1.6304
G3 X2.8036 Y0.6096 I-0.2982 J1.8355
G3 X3.0666 Y0.718 I-0.5747 J1.7685
G3 X3.2906 Y0.8547 I-0.7345 J1.4556
G3 X3.4897 Y1.0254 I-0.9585 J1.3189
G3 X3.674 Y1.2422 I-1.3203 J1.3095
G3 X3.8231 Y1.4844 I-1.5046 J1.0928
G3 X3.9239 Y1.7266 I-1.4499 J0.7457
G3 X3.9846 Y1.9818 I-1.5507 J0.5035
G3 X4.0062 Y2.265 I-1.8378 J0.2832
G1 X4.0062 Y2.2652
G1 X4.0063 Y2.2656
G1 X4.0062 Y2.2661
G1 X4.0062 Y2.2662
G3 X3.9846 Y2.5494 I-1.8595 J0
G3 X3.9239 Y2.8046 I-1.6114 J-0.2483
G3 X3.8231 Y3.0468 I-1.5507 J-0.5035
G3 X3.674 Y3.2891 I-1.6536 J-0.8505
G3 X3.4897 Y3.5058 I-1.5046 J-1.0928
G3 X3.2906 Y3.6766 I-1.1576 J-1.1481
G3 X3.0666 Y3.8132 I-0.9585 J-1.3189
G3 X2.8036 Y3.9216 I-0.8377 J-1.6601
G3 X2.5271 Y3.9886 I-0.5747 J-1.7685
G3 X2.2656 Y4.0097 I-0.2615 J-1.6093
G3 X2.0041 Y3.9886 I0 J-1.6304
G3 X1.7277 Y3.9216 I0.2982 J-1.8355
G3 X1.4646 Y3.8132 I0.5747 J-1.7685
G3 X1.2407 Y3.6766 I0.7345 J-1.4556
G3 X1.0416 Y3.5058 I0.9585 J-1.3189
G3 X0.8573 Y3.2891 I1.3203 J-1.3095
G1 X0.7764 Y3.3479 F60
G3 X0.6193 Y3.0926 I1.5855 J-1.1515 F60
G3 X0.5123 Y2.8355 I1.5388 J-0.7914
G3 X0.4479 Y2.5646 I1.6458 J-0.5344
G3 X0.425 Y2.2662 I1.9367 J-0.2984
G1 X0.425 Y2.2658
G1 X0.425 Y2.2653
G1 X0.425 Y2.265
G3 X0.4479 Y1.9666 I1.9595 J0
G3 X0.5123 Y1.6957 I1.7102 J0.2635
G3 X0.6193 Y1.4387 I1.6458 J0.5344
G3 X0.7764 Y1.1834 I1.7426 J0.8962
G3 X0.9706 Y0.955 I1.5855 J1.1515
G3 X1.1819 Y0.7738 I1.2286 J1.2186
G3 X1.4196 Y0.6287 I1.0172 J1.3998
G3 X1.6968 Y0.5145 I0.8828 J1.7494
G3 X1.9881 Y0.444 I0.6056 J1.8636
G3 X2.2656 Y0.4216 I0.2775 J1.708
G3 X2.5432 Y0.444 I0 J1.7304
G3 X2.8345 Y0.5145 I-0.3143 J1.9342
G3 X3.1117 Y0.6287 I-0.6056 J1.8636
G3 X3.3493 Y0.7738 I-0.7796 J1.5449
G3 X3.5607 Y0.955 I-1.0172 J1.3998
G3 X3.7549 Y1.1834 I-1.3913 J1.3799
G3 X3.912 Y1.4387 I-1.5855 J1.1515
G3 X4.019 Y1.6957 I-1.5388 J0.7914
G3 X4.0834 Y1.9666 I-1.6458 J0.5344
G3 X4.1062 Y2.265 I-1.9367 J0.2984
G1 X4.1063 Y2.2654
G1 X4.1062 Y2.266
G1 X4.1062 Y2.2662
G3 X4.0834 Y2.5646 I-1.9595 J0
G3 X4.019 Y2.8355 I-1.7102 J-0.2635
G3 X3.912 Y3.0926 I-1.6458 J-0.5344
G3 X3.7549 Y3.3479 I-1.7426 J-0.8962
G3 X3.5607 Y3.5762 I-1.5855 J-1.1515
G3 X3.3493 Y3.7575 I-1.2286 J-1.2186
G3 X3.1117 Y3.9025 I-1.0172 J-1.3998
G3 X2.8345 Y4.0167 I-0.8828 J-1.7494
G3 X2.5432 Y4.0873 I-0.6056 J-1.8636
G3 X2.2656 Y4.1097 I-0.2775 J-1.708
G3 X1.9881 Y4.0873 I0 J-1.7304
G3 X1.6968 Y4.0167 I0.3143 J-1.9342
G3 X1.4196 Y3.9025 I0.6056 J-1.8636
G3 X1.1819 Y3.7575 I0.7796 J-1.5449
G3 X0.9706 Y3.5762 I1.0172 J-1.3998
G3 X0.7764 Y3.3479 I1.3913 J-1.3799
G1 X0.6955 Y3.4066 F60
G3 X0.5303 Y3.1383 I1.6664 J-1.2103 F60
G3 X0.4171 Y2.8664 I1.6277 J-0.8372
G3 X0.349 Y2.5799 I1.7409 J-0.5653
G3 X0.325 Y2.2662 I2.0355 J-0.3136
G1 X0.325 Y2.2655
G1 X0.325 Y2.265
G3 X0.349 Y1.9514 I2.0595 J0
G3 X0.4171 Y1.6649 I1.8091 J0.2787
G3 X0.5303 Y1.393 I1.7409 J0.5653
G3 X0.6955 Y1.1246 I1.8315 J0.942
G3 X0.8996 Y0.8846 I1.6664 J1.2103
G3 X1.1231 Y0.6929 I1.2996 J1.289
G3 X1.3745 Y0.5395 I1.076 J1.4807
G3 X1.6658 Y0.4194 I0.9278 J1.8387
G3 X1.9721 Y0.3453 I0.6365 J1.9587
G3 X2.2656 Y0.3216 I0.2936 J1.8067
G3 X2.5592 Y0.3453 I0 J1.8304
G3 X2.8654 Y0.4194 I-0.3303 J2.0329
G3 X3.1567 Y0.5395 I-0.6365 J1.9587
G3 X3.4081 Y0.6929 I-0.8246 J1.6341
G3 X3.6317 Y0.8846 I-1.076 J1.4807
G3 X3.8358 Y1.1246 I-1.4623 J1.4503
G3 X4.0009 Y1.393 I-1.6664 J1.2103
G3 X4.1141 Y1.6649 I-1.6277 J0.8372
G3 X4.1822 Y1.9514 I-1.7409 J0.5653
G3 X4.2062 Y2.265 I-2.0355 J0.3136
G1 X4.2062 Y2.2657
G1 X4.2062 Y2.2662
G3 X4.1822 Y2.5799 I-2.0595 J0
G3 X4.1141 Y2.8664 I-1.8091 J-0.2787
G3 X4.0009 Y3.1383 I-1.7409 J-0.5653
G3 X3.8358 Y3.4066 I-1.8315 J-0.942
G3 X3.6317 Y3.6466 I-1.6664 J-1.2103
G3 X3.4081 Y3.8384 I-1.2996 J-1.289
G3 X3.1567 Y3.9918 I-1.076 J-1.4807
G3 X2.8654 Y4.1118 I-0.9278 J-1.8387
G3 X2.5592 Y4.186 I-0.6365 J-1.9587
G3 X2.2656 Y4.2097 I-0.2936 J-1.8067
G3 X1.9721 Y4.186 I0 J-1.8304
G3 X1.6658 Y4.1118 I0.3303 J-2.0329
G3 X1.3745 Y3.9918 I0.6365 J-1.9587
G3 X1.1231 Y3.8384 I0.8246 J-1.6341
G3 X0.8996 Y3.6466 I1.076 J-1.4807
G3 X0.6955 Y3.4066 I1.4623 J-1.4503
G1 X0.6145 Y3.4654 F60
G3 X0.4414 Y3.184 I1.7473 J-1.2691 F60
G3 X0.322 Y2.8973 I1.7167 J-0.8829
G3 X0.2502 Y2.5951 I1.836 J-0.5962
G3 X0.225 Y2.2662 I2.1343 J-0.3289
G1 X0.225 Y2.2656
G1 X0.225 Y2.265
G3 X0.2502 Y1.9362 I2.1595 J0
G3 X0.322 Y1.634 I1.9079 J0.294
G3 X0.4414 Y1.3472 I1.836 J0.5962
G3 X0.6145 Y1.0659 I1.9204 J0.9877
G3 X0.8286 Y0.8142 I1.7473 J1.2691
G3 X1.0643 Y0.612 I1.3706 J1.3594
G3 X1.3295 Y0.4502 I1.1348 J1.5616
G3 X1.6349 Y0.3243 I0.9729 J1.928
G3 X1.956 Y0.2466 I0.6674 J2.0538
G3 X2.2656 Y0.2216 I0.3096 J1.9054
G3 X2.5752 Y0.2466 I0 J1.9304
G3 X2.8963 Y0.3243 I-0.3464 J2.1316
G3 X3.2018 Y0.4502 I-0.6674 J2.0538
G3 X3.4669 Y0.612 I-0.8697 J1.7234
G3 X3.7027 Y0.8142 I-1.1348 J1.5616
G3 X3.9167 Y1.0659 I-1.5333 J1.5207
G3 X4.0898 Y1.3472 I-1.7473 J1.2691
G3 X4.2092 Y1.634 I-1.7167 J0.8829
G3 X4.2811 Y1.9362 I-1.836 J0.5962
G3 X4.3062 Y2.265 I-2.1343 J0.3289
G1 X4.3062 Y2.2657
G1 X4.3062 Y2.2662
G3 X4.2811 Y2.5951 I-2.1595 J0
G3 X4.2092 Y2.8973 I-1.9079 J-0.294
G3 X4.0898 Y3.184 I-1.836 J-0.5962
G3 X3.9167 Y3.4654 I-1.9204 J-0.9877
G3 X3.7027 Y3.7171 I-1.7473 J-1.2691
G3 X3.4669 Y3.9193 I-1.3706 J-1.3594
G3 X3.2018 Y4.0811 I-1.1348 J-1.5616
G3 X2.8963 Y4.2069 I-0.9729 J-1.928
G3 X2.5752 Y4.2847 I-0.6674 J-2.0538
G3 X2.2656 Y4.3097 I-0.3096 J-1.9054
G3 X1.956 Y4.2847 I0 J-1.9304
G3 X1.6349 Y4.2069 I0.3464 J-2.1316
G3 X1.3295 Y4.0811 I0.6674 J-2.0538
G3 X1.0643 Y3.9193 I0.8697 J-1.7234
G3 X0.8286 Y3.7171 I1.1348 J-1.5616
G3 X0.6145 Y3.4654 I1.5333 J-1.5207
G1 X0.5336 Y3.5242 F60
G3 X0.3525 Y3.2298 I1.8282 J-1.3278 F60
G3 X0.2269 Y2.9282 I1.8056 J-0.9286
G3 X0.1514 Y2.6103 I1.9312 J-0.627
G3 X0.125 Y2.2662 I2.2332 J-0.3441
G1 X0.125 Y2.2656
G1 X0.125 Y2.265
G3 X0.1514 Y1.9209 I2.2595 J0
G3 X0.2269 Y1.6031 I2.0067 J0.3092
G3 X0.3525 Y1.3015 I1.9312 J0.627
G3 X0.5336 Y1.0071 I2.0093 J1.0334
G3 X0.7576 Y0.7438 I1.8282 J1.3278
G3 X1.0055 Y0.5311 I1.4416 J1.4298
G3 X1.2844 Y0.3609 I1.1936 J1.6425
G3 X1.604 Y0.2292 I1.0179 J2.0172
G3 X1.94 Y0.1479 I0.6983 J2.1489
G3 X2.2656 Y0.1216 I0.3256 J2.0041
G3 X2.5913 Y0.1479 I0 J2.0304
G3 X2.9272 Y0.2292 I-0.3624 J2.2303
G3 X3.2468 Y0.3609 I-0.6983 J2.1489
G3 X3.5257 Y0.5311 I-0.9147 J1.8127
G3 X3.7737 Y0.7438 I-1.1936 J1.6425
G3 X3.9976 Y1.0071 I-1.6043 J1.5912
G3 X4.1788 Y1.3015 I-1.8282 J1.3278
G3 X4.3043 Y1.6031 I-1.8056 J0.9286
G3 X4.3799 Y1.9209 I-1.9312 J0.627
G3 X4.4062 Y2.265 I-2.2332 J0.3441
G1 X4.4062 Y2.2657
G1 X4.4062 Y2.2662
G3 X4.3799 Y2.6103 I-2.2595 J0
G3 X4.3043 Y2.9282 I-2.0067 J-0.3092
G3 X4.1788 Y3.2298 I-1.9312 J-0.627
G3 X3.9976 Y3.5242 I-2.0093 J-1.0334
G3 X3.7737 Y3.7875 I-1.8282 J-1.3278
G3 X3.5257 Y4.0002 I-1.4416 J-1.4298
G3 X3.2468 Y4.1704 I-1.1936 J-1.6425
G3 X2.9272 Y4.302 I-1.0179 J-2.0172
G3 X2.5913 Y4.3834 I-0.6983 J-2.1489
G3 X2.2656 Y4.4097 I-0.3256 J-2.0041
G3 X1.94 Y4.3834 I0 J-2.0304
G3 X1.604 Y4.302 I0.3624 J-2.2303
G3 X1.2844 Y4.1704 I0.6983 J-2.1489
G3 X1.0055 Y4.0002 I0.9147 J-1.8127
G3 X0.7576 Y3.7875 I1.1936 J-1.6425
G3 X0.5336 Y3.5242 I1.6043 J-1.5912
G0 Z0.5
G0 X2.2328 Y2.2901
G1 Z-0.375 F30
G3 X2.2255 Y2.2792 I0.1291 J-0.0937 F60
G3 X2.225 Y2.2662 I0.159 J-0.013
G1 X2.225 Y2.2658
G1 X2.225 Y2.2655
G1 X2.225 Y2.265
G3 X2.2255 Y2.252 I0.1595 J0
G3 X2.2328 Y2.2412 I0.1363 J0.0829
G3 X2.2408 Y2.231 I0.1291 J0.0937
G3 X2.2531 Y2.2264 I0.0615 J0.1472
G3 X2.2656 Y2.2229 I0.0493 J0.1517
G3 X2.2782 Y2.2264 I-0.0367 J0.1552
G3 X2.2904 Y2.231 I-0.0493 J0.1517
G3 X2.2985 Y2.2412 I-0.121 J0.104
G3 X2.3057 Y2.252 I-0.1291 J0.0937
G3 X2.3063 Y2.265 I-0.159 J0.013
G1 X2.3063 Y2.2655
G1 X2.3063 Y2.2657
G1 X2.3062 Y2.2662
G3 X2.3057 Y2.2792 I-0.1595 J0
G3 X2.2985 Y2.2901 I-0.1363 J-0.0829
G3 X2.2904 Y2.3003 I-0.1291 J-0.0937
G3 X2.2782 Y2.3048 I-0.0615 J-0.1472
G3 X2.2656 Y2.3084 I-0.0493 J-0.1517
G3 X2.2531 Y2.3048 I0.0367 J-0.1552
G3 X2.2408 Y2.3003 I0.0493 J-0.1517
G3 X2.2328 Y2.2901 I0.121 J-0.104
G1 X2.1518 Y2.3488 F60
G3 X2.131 Y2.315 I0.21 J-0.1525 F60
G3 X2.1292 Y2.3105 I0.027 J-0.0139
G3 X2.128 Y2.3057 I0.0289 J-0.0094
G3 X2.125 Y2.2662 I0.2565 J-0.0395
G1 X2.125 Y2.2658
G1 X2.125 Y2.2656
G1 X2.125 Y2.265
G1 X2.125 Y2.265
G3 X2.128 Y2.2255 I0.2595 J0
G3 X2.1292 Y2.2207 I0.03 J0.0046
G3 X2.131 Y2.2162 I0.0289 J0.0094
G3 X2.1518 Y2.1824 I0.2308 J0.1187
G3 X2.1776 Y2.1522 I0.21 J0.1525
G3 X2.1813 Y2.149 I0.0216 J0.0214
G3 X2.1855 Y2.1464 I0.0179 J0.0246
G3 X2.2222 Y2.1313 I0.1169 J0.2317
G3 X2.2607 Y2.122 I0.0802 J0.2468
G3 X2.2656 Y2.1216 I0.0049 J0.03
G3 X2.2705 Y2.122 I0 J0.0304
G3 X2.3091 Y2.1313 I-0.0416 J0.2562
G3 X2.3458 Y2.1464 I-0.0802 J0.2468
G3 X2.35 Y2.149 I-0.0137 J0.0271
G3 X2.3537 Y2.1522 I-0.0179 J0.0246
G3 X2.3794 Y2.1824 I-0.1843 J0.1828
G3 X2.4002 Y2.2162 I-0.21 J0.1525
G3 X2.4021 Y2.2207 I-0.027 J0.0139
G3 X2.4032 Y2.2255 I-0.0289 J0.0094
G3 X2.4063 Y2.265 I-0.2565 J0.0395
G1 X2.4063 Y2.2654
G1 X2.4063 Y2.2657
G1 X2.4062 Y2.2662
G1 X2.4062 Y2.2662
G3 X2.4032 Y2.3057 I-0.2595 J0
G3 X2.4021 Y2.3105 I-0.03 J-0.0046
G3 X2.4002 Y2.315 I-0.0289 J-0.0094
G3 X2.3794 Y2.3488 I-0.2308 J-0.1187
G3 X2.3537 Y2.3791 I-0.21 J-0.1525
G3 X2.35 Y2.3823 I-0.0216 J-0.0214
G3 X2.3458 Y2.3848 I-0.0179 J-0.0246
G3 X2.3091 Y2.3999 I-0.1169 J-0.2317
G3 X2.2705 Y2.4093 I-0.0802 J-0.2468
G3 X2.2656 Y2.4097 I-0.0049 J-0.03
G3 X2.2607 Y2.4093 I0 J-0.0304
G3 X2.2222 Y2.3999 I0.0416 J-0.2562
G3 X2.1855 Y2.3848 I0.0802 J-0.2468
G3 X2.1813 Y2.3823 I0.0137 J-0.0271
G3 X2.1776 Y2.3791 I0.0179 J-0.0246
G3 X2.1518 Y2.3488 I0.1843 J-0.1828
G1 X2.0709 Y2.4076 F60
G3 X2.0421 Y2.3608 I0.2909 J-0.2113 F60
G3 X2.034 Y2.3414 I0.116 J-0.0596
G3 X2.0292 Y2.321 I0.124 J-0.0403
G3 X2.025 Y2.2662 I0.3553 J-0.0548
G1 X2.025 Y2.2658
G1 X2.025 Y2.2656
G1 X2.025 Y2.265
G1 X2.025 Y2.265
G3 X2.0292 Y2.2103 I0.3595 J0
G3 X2.034 Y2.1899 I0.1289 J0.0199
G3 X2.0421 Y2.1705 I0.124 J0.0403
G3 X2.0709 Y2.1236 I0.3197 J0.1644
G3 X2.1066 Y2.0817 I0.2909 J0.2113
G3 X2.1225 Y2.0681 I0.0926 J0.0918
G3 X2.1404 Y2.0572 I0.0767 J0.1055
G3 X2.1913 Y2.0362 I0.162 J0.321
G3 X2.2447 Y2.0233 I0.1111 J0.3419
G3 X2.2656 Y2.0216 I0.0209 J0.1287
G3 X2.2865 Y2.0233 I0 J0.1304
G3 X2.34 Y2.0362 I-0.0577 J0.3549
G3 X2.3908 Y2.0572 I-0.1111 J0.3419
G3 X2.4088 Y2.0681 I-0.0587 J0.1164
G3 X2.4247 Y2.0817 I-0.0767 J0.1055
G3 X2.4603 Y2.1236 I-0.2553 J0.2532
G3 X2.4891 Y2.1705 I-0.2909 J0.2113
G3 X2.4972 Y2.1899 I-0.116 J0.0596
G3 X2.5021 Y2.2103 I-0.124 J0.0403
G3 X2.5063 Y2.265 I-0.3553 J0.0548
G1 X2.5063 Y2.2654
G1 X2.5063 Y2.2656
G1 X2.5062 Y2.2662
G1 X2.5062 Y2.2662
G3 X2.5021 Y2.321 I-0.3595 J0
G3 X2.4972 Y2.3414 I-0.1289 J-0.0199
G3 X2.4891 Y2.3608 I-0.124 J-0.0403
G3 X2.4603 Y2.4076 I-0.3197 J-0.1644
G3 X2.4247 Y2.4495 I-0.2909 J-0.2113
G3 X2.4088 Y2.4632 I-0.0926 J-0.0918
G3 X2.3908 Y2.4741 I-0.0767 J-0.1055
G3 X2.34 Y2.495 I-0.162 J-0.321
G3 X2.2865 Y2.508 I-0.1111 J-0.3419
G3 X2.2656 Y2.5097 I-0.0209 J-0.1287
G3 X2.2447 Y2.508 I0 J-0.1304
G3 X2.1913 Y2.495 I0.0577 J-0.3549
G3 X2.1404 Y2.4741 I0.1111 J-0.3419
G3 X2.1225 Y2.4632 I0.0587 J-0.1164
G3 X2.1066 Y2.4495 I0.0767 J-0.1055
G3 X2.0709 Y2.4076 I0.2553 J-0.2532
G1 X1.99 Y2.4664 F60
G3 X1.9532 Y2.4065 I0.3718 J-0.27 F60
G3 X1.9389 Y2.3723 I0.2049 J-0.1054
G3 X1.9304 Y2.3362 I0.2191 J-0.0712
G3 X1.925 Y2.2662 I0.4542 J-0.07
G1 X1.925 Y2.2658
G1 X1.925 Y2.2657
G1 X1.925 Y2.265
G1 X1.925 Y2.265
G3 X1.9304 Y2.195 I0.4595 J0
G3 X1.9389 Y2.159 I0.2277 J0.0351
G3 X1.9532 Y2.1248 I0.2191 J0.0712
G3 X1.99 Y2.0649 I0.4086 J0.2102
G3 X2.0356 Y2.0113 I0.3718 J0.27
G3 X2.0637 Y1.9872 I0.1636 J0.1622
G3 X2.0954 Y1.9679 I0.1354 J0.1864
G3 X2.1603 Y1.9411 I0.207 J0.4102
G3 X2.2287 Y1.9246 I0.142 J0.437
G3 X2.2656 Y1.9216 I0.037 J0.2274
G3 X2.3026 Y1.9246 I0 J0.2304
G3 X2.3709 Y1.9411 I-0.0737 J0.4536
G3 X2.4359 Y1.9679 I-0.142 J0.437
G3 X2.4675 Y1.9872 I-0.1038 J0.2057
G3 X2.4957 Y2.0113 I-0.1354 J0.1864
G3 X2.5412 Y2.0649 I-0.3263 J0.3236
G3 X2.5781 Y2.1248 I-0.3718 J0.27
G3 X2.5923 Y2.159 I-0.2049 J0.1054
G3 X2.6009 Y2.195 I-0.2191 J0.0712
G3 X2.6063 Y2.265 I-0.4542 J0.07
G1 X2.6063 Y2.2654
G1 X2.6063 Y2.2656
G1 X2.6062 Y2.2662
G1 X2.6062 Y2.2662
G3 X2.6009 Y2.3362 I-0.4595 J0
G3 X2.5923 Y2.3723 I-0.2277 J-0.0351
G3 X2.5781 Y2.4065 I-0.2191 J-0.0712
G3 X2.5412 Y2.4664 I-0.4086 J-0.2102
G3 X2.4957 Y2.5199 I-0.3718 J-0.27
G3 X2.4675 Y2.5441 I-0.1636 J-0.1622
G3 X2.4359 Y2.5634 I-0.1354 J-0.1864
G3 X2.3709 Y2.5901 I-0.207 J-0.4102
G3 X2.3026 Y2.6067 I-0.142 J-0.437
G3 X2.2656 Y2.6097 I-0.037 J-0.2274
G3 X2.2287 Y2.6067 I0 J-0.2304
G3 X2.1603 Y2.5901 I0.0737 J-0.4536
G3 X2.0954 Y2.5634 I0.142 J-0.437
G3 X2.0637 Y2.5441 I0.1038 J-0.2057
G3 X2.0356 Y2.5199 I0.1354 J-0.1864
G3 X1.99 Y2.4664 I0.3263 J-0.3236
G1 X1.9091 Y2.5251 F60
G3 X1.8643 Y2.4522 I0.4527 J-0.3288 F60
G3 X1.8438 Y2.4032 I0.2938 J-0.1511
G3 X1.8315 Y2.3514 I0.3143 J-0.102
G3 X1.825 Y2.2662 I0.553 J-0.0852
G1 X1.825 Y2.2659
G1 X1.825 Y2.2657
G1 X1.825 Y2.265
G1 X1.825 Y2.265
G3 X1.8315 Y2.1798 I0.5595 J0
G3 X1.8438 Y2.1281 I0.3265 J0.0503
G3 X1.8643 Y2.079 I0.3143 J0.102
G3 X1.9091 Y2.0061 I0.4976 J0.2559
G3 X1.9646 Y1.9409 I0.4527 J0.3288
G3 X2.0049 Y1.9063 I0.2346 J0.2327
G3 X2.0503 Y1.8786 I0.1942 J0.2673
G3 X2.1294 Y1.846 I0.2521 J0.4995
G3 X2.2126 Y1.8259 I0.1729 J0.5321
G3 X2.2656 Y1.8216 I0.053 J0.3261
G3 X2.3186 Y1.8259 I0 J0.3304
G3 X2.4018 Y1.846 I-0.0897 J0.5523
G3 X2.4809 Y1.8786 I-0.1729 J0.5321
G3 X2.5263 Y1.9063 I-0.1489 J0.295
G3 X2.5667 Y1.9409 I-0.1942 J0.2673
G3 X2.6221 Y2.0061 I-0.3973 J0.394
G3 X2.667 Y2.079 I-0.4527 J0.3288
G3 X2.6874 Y2.1281 I-0.2938 J0.1511
G3 X2.6997 Y2.1798 I-0.3143 J0.102
G3 X2.7063 Y2.265 I-0.553 J0.0852
G1 X2.7063 Y2.2654
G1 X2.7063 Y2.2656
G1 X2.7062 Y2.2662
G1 X2.7062 Y2.2662
G3 X2.6997 Y2.3514 I-0.5595 J0
G3 X2.6874 Y2.4032 I-0.3265 J-0.0503
G3 X2.667 Y2.4522 I-0.3143 J-0.102
G3 X2.6221 Y2.5251 I-0.4976 J-0.2559
G3 X2.5667 Y2.5903 I-0.4527 J-0.3288
G3 X2.5263 Y2.625 I-0.2346 J-0.2327
G3 X2.4809 Y2.6526 I-0.1942 J-0.2673
G3 X2.4018 Y2.6852 I-0.2521 J-0.4995
G3 X2.3186 Y2.7054 I-0.1729 J-0.5321
G3 X2.2656 Y2.7097 I-0.053 J-0.3261
G3 X2.2126 Y2.7054 I0 J-0.3304
G3 X2.1294 Y2.6852 I0.0897 J-0.5523
G3 X2.0503 Y2.6526 I0.1729 J-0.5321
G3 X2.0049 Y2.625 I0.1489 J-0.295
G3 X1.9646 Y2.5903 I0.1942 J-0.2673
G3 X1.9091 Y2.5251 I0.3973 J-0.394
G1 X1.8282 Y2.5839 F60
G3 X1.7753 Y2.498 I0.5336 J-0.3876 F60
G3 X1.7487 Y2.434 I0.3827 J-0.1969
G3 X1.7327 Y2.3667 I0.4094 J-0.1329
G3 X1.725 Y2.2662 I0.6518 J-0.1004
G1 X1.725 Y2.2659
G1 X1.725 Y2.2657
G1 X1.725 Y2.265
G1 X1.725 Y2.265
G3 X1.7327 Y2.1646 I0.6595 J0
G3 X1.7487 Y2.0972 I0.4254 J0.0655
G3 X1.7753 Y2.0333 I0.4094 J0.1329
G3 X1.8282 Y1.9473 I0.5865 J0.3016
G3 X1.8936 Y1.8705 I0.5336 J0.3876
G3 X1.9461 Y1.8254 I0.3056 J0.3031
G3 X2.0052 Y1.7893 I0.253 J0.3482
G3 X2.0985 Y1.7509 I0.2971 J0.5888
G3 X2.1966 Y1.7271 I0.2038 J0.6272
G3 X2.2656 Y1.7216 I0.069 J0.4248
G3 X2.3347 Y1.7271 I0 J0.4304
G3 X2.4327 Y1.7509 I-0.1058 J0.651
G3 X2.526 Y1.7893 I-0.2038 J0.6272
G3 X2.5851 Y1.8254 I-0.1939 J0.3843
G3 X2.6377 Y1.8705 I-0.253 J0.3482
G3 X2.703 Y1.9473 I-0.4683 J0.4644
G3 X2.7559 Y2.0333 I-0.5336 J0.3876
G3 X2.7825 Y2.0972 I-0.3827 J0.1969
G3 X2.7986 Y2.1646 I-0.4094 J0.1329
G3 X2.8063 Y2.265 I-0.6518 J0.1004
G1 X2.8063 Y2.2654
G1 X2.8063 Y2.2656
G1 X2.8062 Y2.2662
G1 X2.8062 Y2.2662
G3 X2.7986 Y2.3667 I-0.6595 J0
G3 X2.7825 Y2.434 I-0.4254 J-0.0655
G3 X2.7559 Y2.498 I-0.4094 J-0.1329
G3 X2.703 Y2.5839 I-0.5865 J-0.3016
G3 X2.6377 Y2.6608 I-0.5336 J-0.3876
G3 X2.5851 Y2.7058 I-0.3056 J-0.3031
G3 X2.526 Y2.7419 I-0.253 J-0.3482
G3 X2.4327 Y2.7804 I-0.2971 J-0.5888
G3 X2.3347 Y2.8041 I-0.2038 J-0.6272
G3 X2.2656 Y2.8097 I-0.069 J-0.4248
G3 X2.1966 Y2.8041 I0 J-0.4304
G3 X2.0985 Y2.7804 I0.1058 J-0.651
G3 X2.0052 Y2.7419 I0.2038 J-0.6272
G3 X1.9461 Y2.7058 I0.1939 J-0.3843
G3 X1.8936 Y2.6608 I0.253 J-0.3482
G3 X1.8282 Y2.5839 I0.4683 J-0.4644
G1 X1.7473 Y2.6427 F60
G3 X1.6864 Y2.5437 I0.6145 J-0.4463 F60
G3 X1.6536 Y2.4649 I0.4717 J-0.2426
G3 X1.6339 Y2.3819 I0.5045 J-0.1638
G3 X1.625 Y2.2662 I0.7507 J-0.1157
G1 X1.625 Y2.2659
G1 X1.625 Y2.2657
G1 X1.625 Y2.265
G1 X1.625 Y2.265
G3 X1.6339 Y2.1494 I0.7595 J0
G3 X1.6536 Y2.0663 I0.5242 J0.0808
G3 X1.6864 Y1.9875 I0.5045 J0.1638
G3 X1.7473 Y1.8886 I0.6754 J0.3474
G3 X1.8226 Y1.8001 I0.6145 J0.4463
G3 X1.8873 Y1.7445 I0.3766 J0.3735
G3 X1.9602 Y1.7001 I0.3118 J0.4291
G3 X2.0676 Y1.6558 I0.3422 J0.6781
G3 X2.1806 Y1.6284 I0.2347 J0.7223
G3 X2.2656 Y1.6216 I0.0851 J0.5235
G3 X2.3507 Y1.6284 I0 J0.5304
G3 X2.4636 Y1.6558 I-0.1218 J0.7497
G3 X2.5711 Y1.7001 I-0.2347 J0.7223
G3 X2.6439 Y1.7445 I-0.239 J0.4735
G3 X2.7087 Y1.8001 I-0.3118 J0.4291
G3 X2.784 Y1.8886 I-0.5393 J0.5349
G3 X2.8448 Y1.9875 I-0.6145 J0.4463
G3 X2.8777 Y2.0663 I-0.4717 J0.2426
G3 X2.8974 Y2.1494 I-0.5045 J0.1638
G3 X2.9063 Y2.265 I-0.7507 J0.1157
G1 X2.9063 Y2.2654
G1 X2.9063 Y2.2656
G1 X2.9062 Y2.2662
G1 X2.9062 Y2.2662
G3 X2.8974 Y2.3819 I-0.7595 J0
G3 X2.8777 Y2.4649 I-0.5242 J-0.0808
G3 X2.8448 Y2.5437 I-0.5045 J-0.1638
G3 X2.784 Y2.6427 I-0.6754 J-0.3474
G3 X2.7087 Y2.7312 I-0.6145 J-0.4463
G3 X2.6439 Y2.7867 I-0.3766 J-0.3735
G3 X2.5711 Y2.8312 I-0.3118 J-0.4291
G3 X2.4636 Y2.8755 I-0.3422 J-0.6781
G3 X2.3507 Y2.9028 I-0.2347 J-0.7223
G3 X2.2656 Y2.9097 I-0.0851 J-0.5235
G3 X2.1806 Y2.9028 I0 J-0.5304
G3 X2.0676 Y2.8755 I0.1218 J-0.7497
G3 X1.9602 Y2.8312 I0.2347 J-0.7223
G3 X1.8873 Y2.7867 I0.239 J-0.4735
G3 X1.8226 Y2.7312 I0.3118 J-0.4291
G3 X1.7473 Y2.6427 I0.5393 J-0.5349
G1 X1.6664 Y2.7014 F60
G3 X1.5975 Y2.5894 I0.6954 J-0.5051 F60
G3 X1.5585 Y2.4958 I0.5606 J-0.2883
G3 X1.535 Y2.3971 I0.5996 J-0.1947
G3 X1.525 Y2.2662 I0.8495 J-0.1309
G1 X1.525 Y2.2659
G1 X1.525 Y2.2657
G1 X1.525 Y2.265
G1 X1.525 Y2.265
G3 X1.535 Y2.1341 I0.8595 J0
G3 X1.5585 Y2.0354 I0.6231 J0.096
G3 X1.5975 Y1.9418 I0.5996 J0.1947
G3 X1.6664 Y1.8298 I0.7644 J0.3931
G3 X1.7516 Y1.7296 I0.6954 J0.5051
G3 X1.8286 Y1.6636 I0.4476 J0.4439
G3 X1.9151 Y1.6108 I0.3706 J0.51
G3 X2.0367 Y1.5607 I0.3872 J0.7674
G3 X2.1645 Y1.5297 I0.2656 J0.8174
G3 X2.2656 Y1.5216 I0.1011 J0.6222
G3 X2.3667 Y1.5297 I0 J0.6304
G3 X2.4945 Y1.5607 I-0.1379 J0.8484
G3 X2.6161 Y1.6108 I-0.2656 J0.8174
G3 X2.7027 Y1.6636 I-0.284 J0.5628
G3 X2.7797 Y1.7296 I-0.3706 J0.51
G3 X2.8649 Y1.8298 I-0.6103 J0.6053
G3 X2.9338 Y1.9418 I-0.6954 J0.5051
G3 X2.9728 Y2.0354 I-0.5606 J0.2883
G3 X2.9962 Y2.1341 I-0.5996 J0.1947
G3 X3.0063 Y2.265 I-0.8495 J0.1309
G1 X3.0063 Y2.2654
G1 X3.0063 Y2.2656
G1 X3.0062 Y2.2662
G1 X3.0062 Y2.2662
G3 X2.9962 Y2.3971 I-0.8595 J0
G3 X2.9728 Y2.4958 I-0.6231 J-0.096
G3 X2.9338 Y2.5894 I-0.5996 J-0.1947
G3 X2.8649 Y2.7014 I-0.7644 J-0.3931
G3 X2.7797 Y2.8016 I-0.6954 J-0.5051
G3 X2.7027 Y2.8676 I-0.4476 J-0.4439
G3 X2.6161 Y2.9205 I-0.3706 J-0.51
G3 X2.4945 Y2.9706 I-0.3872 J-0.7674
G3 X2.3667 Y3.0015 I-0.2656 J-0.8174
G3 X2.2656 Y3.0097 I-0.1011 J-0.6222
G3 X2.1645 Y3.0015 I0 J-0.6304
G3 X2.0367 Y2.9706 I0.1379 J-0.8484
G3 X1.9151 Y2.9205 I0.2656 J-0.8174
G3 X1.8286 Y2.8676 I0.284 J-0.5628
G3 X1.7516 Y2.8016 I0.3706 J-0.51
G3 X1.6664 Y2.7014 I0.6103 J-0.6053
G1 X1.5855 Y2.7602 F60
G3 X1.5085 Y2.6352 I0.7764 J-0.5639 F60
G3 X1.4634 Y2.5267 I0.6495 J-0.3341
G3 X1.4362 Y2.4123 I0.6947 J-0.2256
G3 X1.425 Y2.2662 I0.9483 J-0.1461
G1 X1.425 Y2.2659
G1 X1.425 Y2.2657
G1 X1.425 Y2.265
G1 X1.425 Y2.265
G3 X1.4362 Y2.1189 I0.9595 J0
G3 X1.4634 Y2.0046 I0.7219 J0.1112
G3 X1.5085 Y1.8961 I0.6947 J0.2256
G3 X1.5855 Y1.771 I0.8533 J0.4389
G3 X1.6806 Y1.6592 I0.7764 J0.5639
G3 X1.7698 Y1.5827 I0.5186 J0.5144
G3 X1.8701 Y1.5215 I0.4294 J0.5909
G3 X2.0058 Y1.4656 I0.4323 J0.8566
G3 X2.1485 Y1.431 I0.2966 J0.9125
G3 X2.2656 Y1.4216 I0.1171 J0.7209
G3 X2.3828 Y1.431 I0 J0.7304
G3 X2.5254 Y1.4656 I-0.1539 J0.9471
G3 X2.6612 Y1.5215 I-0.2966 J0.9125
G3 X2.7615 Y1.5827 I-0.3291 J0.6521
G3 X2.8507 Y1.6592 I-0.4294 J0.5909
G3 X2.9458 Y1.771 I-0.6813 J0.6757
G3 X3.0227 Y1.8961 I-0.7764 J0.5639
G3 X3.0679 Y2.0046 I-0.6495 J0.3341
G3 X3.0951 Y2.1189 I-0.6947 J0.2256
G3 X3.1063 Y2.265 I-0.9483 J0.1461
G1 X3.1063 Y2.2654
G1 X3.1063 Y2.2656
G1 X3.1062 Y2.2662
G1 X3.1062 Y2.2662
G3 X3.0951 Y2.4123 I-0.9595 J0
G3 X3.0679 Y2.5267 I-0.7219 J-0.1112
G3 X3.0227 Y2.6352 I-0.6947 J-0.2256
G3 X2.9458 Y2.7602 I-0.8533 J-0.4389
G3 X2.8507 Y2.872 I-0.7764 J-0.5639
G3 X2.7615 Y2.9485 I-0.5186 J-0.5144
G3 X2.6612 Y3.0098 I-0.4294 J-0.5909
G3 X2.5254 Y3.0657 I-0.4323 J-0.8566
G3 X2.3828 Y3.1002 I-0.2966 J-0.9125
G3 X2.2656 Y3.1097 I-0.1171 J-0.7209
G3 X2.1485 Y3.1002 I0 J-0.7304
G3 X2.0058 Y3.0657 I0.1539 J-0.9471
G3 X1.8701 Y3.0098 I0.2966 J-0.9125
G3 X1.7698 Y2.9485 I0.3291 J-0.6521
G3 X1.6806 Y2.872 I0.4294 J-0.5909
G3 X1.5855 Y2.7602 I0.6813 J-0.6757
G1 X1.5046 Y2.819 F60
G3 X1.4196 Y2.6809 I0.8573 J-0.6226 F60
G3 X1.3683 Y2.5576 I0.7385 J-0.3798
G3 X1.3374 Y2.4276 I0.7898 J-0.2564
G3 X1.325 Y2.2662 I1.0472 J-0.1613
G1 X1.325 Y2.2659
G1 X1.325 Y2.2657
G1 X1.325 Y2.265
G1 X1.325 Y2.265
G3 X1.3374 Y2.1037 I1.0595 J0
G3 X1.3683 Y1.9737 I0.8207 J0.1265
G3 X1.4196 Y1.8503 I0.7898 J0.2564
G3 X1.5046 Y1.7123 I0.9422 J0.4846
G3 X1.6096 Y1.5888 I0.8573 J0.6226
G3 X1.711 Y1.5018 I0.5896 J0.5848
G3 X1.825 Y1.4322 I0.4882 J0.6718
G3 X1.9749 Y1.3705 I0.4773 J0.9459
G3 X2.1324 Y1.3323 I0.3275 J1.0077
G3 X2.2656 Y1.3216 I0.1332 J0.8197
G3 X2.3988 Y1.3323 I0 J0.8304
G3 X2.5563 Y1.3705 I-0.1699 J1.0458
G3 X2.7062 Y1.4322 I-0.3275 J1.0077
G3 X2.8203 Y1.5018 I-0.3741 J0.7414
G3 X2.9217 Y1.5888 I-0.4882 J0.6718
G3 X3.0267 Y1.7123 I-0.7523 J0.7461
G3 X3.1116 Y1.8503 I-0.8573 J0.6226
G3 X3.163 Y1.9737 I-0.7385 J0.3798
G3 X3.1939 Y2.1037 I-0.7898 J0.2564
G3 X3.2063 Y2.265 I-1.0472 J0.1613
G1 X3.2063 Y2.2654
G1 X3.2063 Y2.2656
G1 X3.2062 Y2.2662
G1 X3.2062 Y2.2662
G3 X3.1939 Y2.4276 I-1.0595 J0
G3 X3.163 Y2.5576 I-0.8207 J-0.1265
G3 X3.1116 Y2.6809 I-0.7898 J-0.2564
G3 X3.0267 Y2.819 I-0.9422 J-0.4846
G3 X2.9217 Y2.9424 I-0.8573 J-0.6226
G3 X2.8203 Y3.0294 I-0.5896 J-0.5848
G3 X2.7062 Y3.099 I-0.4882 J-0.6718
G3 X2.5563 Y3.1608 I-0.4773 J-0.9459
G3 X2.3988 Y3.1989 I-0.3275 J-1.0077
G3 X2.2656 Y3.2097 I-0.1332 J-0.8197
G3 X2.1324 Y3.1989 I0 J-0.8304
G3 X1.9749 Y3.1608 I0.1699 J-1.0458
G3 X1.825 Y3.099 I0.3275 J-1.0077
G3 X1.711 Y3.0294 I0.3741 J-0.7414
G3 X1.6096 Y2.9424 I0.4882 J-0.6718
G3 X1.5046 Y2.819 I0.7523 J-0.7461
G1 X1.4236 Y2.8777 F60
G3 X1.3307 Y2.7267 I0.9382 J-0.6814 F60
G3 X1.2732 Y2.5884 I0.8274 J-0.4255
G3 X1.2385 Y2.4428 I0.8849 J-0.2873
G3 X1.225 Y2.2662 I1.146 J-0.1766
G1 X1.225 Y2.2659
G1 X1.225 Y2.2657
G1 X1.225 Y2.265
G1 X1.225 Y2.265
G3 X1.2385 Y2.0884 I1.1595 J0
G3 X1.2732 Y1.9428 I0.9196 J0.1417
G3 X1.3307 Y1.8046 I0.8849 J0.2873
G3 X1.4236 Y1.6535 I1.0311 J0.5303
G3 X1.5386 Y1.5184 I0.9382 J0.6814
G3 X1.6522 Y1.4209 I0.6606 J0.6552
G3 X1.78 Y1.3429 I0.547 J0.7527
G3 X1.944 Y1.2754 I0.5224 J1.0352
G3 X2.1164 Y1.2336 I0.3584 J1.1028
G3 X2.2656 Y1.2216 I0.1492 J0.9184
G3 X2.4148 Y1.2336 I0 J0.9304
G3 X2.5872 Y1.2754 I-0.186 J1.1445
G3 X2.7513 Y1.3429 I-0.3584 J1.1028
G3 X2.8791 Y1.4209 I-0.4192 J0.8306
G3 X2.9927 Y1.5184 I-0.547 J0.7527
G3 X3.1076 Y1.6535 I-0.8233 J0.8165
G3 X3.2006 Y1.8046 I-0.9382 J0.6814
G3 X3.2581 Y1.9428 I-0.8274 J0.4255
G3 X3.2927 Y2.0884 I-0.8849 J0.2873
G3 X3.3063 Y2.265 I-1.146 J0.1766
G1 X3.3063 Y2.2654
G1 X3.3063 Y2.2656
G1 X3.3062 Y2.2662
G1 X3.3062 Y2.2662
G3 X3.2927 Y2.4428 I-1.1595 J0
G3 X3.2581 Y2.5884 I-0.9196 J-0.1417
G3 X3.2006 Y2.7267 I-0.8849 J-0.2873
G3 X3.1076 Y2.8777 I-1.0311 J-0.5303
G3 X2.9927 Y3.0129 I-0.9382 J-0.6814
G3 X2.8791 Y3.1103 I-0.6606 J-0.6552
G3 X2.7513 Y3.1883 I-0.547 J-0.7527
G3 X2.5872 Y3.2559 I-0.5224 J-1.0352
G3 X2.4148 Y3.2976 I-0.3584 J-1.1028
G3 X2.2656 Y3.3097 I-0.1492 J-0.9184
G3 X2.1164 Y3.2976 I0 J-0.9304
G3 X1.944 Y3.2559 I0.186 J-1.1445
G3 X1.78 Y3.1883 I0.3584 J-1.1028
G3 X1.6522 Y3.1103 I0.4192 J-0.8306
G3 X1.5386 Y3.0129 I0.547 J-0.7527
G3 X1.4236 Y2.8777 I0.8233 J-0.8165
G1 X1.3427 Y2.9365 F60
G3 X1.2418 Y2.7724 I1.0191 J-0.7402 F60
G3 X1.178 Y2.6193 I0.9163 J-0.4713
G3 X1.1397 Y2.458 I0.98 J-0.3182
G3 X1.125 Y2.2662 I1.2448 J-0.1918
G1 X1.125 Y2.2658
G1 X1.125 Y2.2657
G1 X1.125 Y2.265
G1 X1.125 Y2.265
G3 X1.1397 Y2.0732 I1.2595 J0
G3 X1.178 Y1.9119 I1.0184 J0.1569
G3 X1.2418 Y1.7589 I0.98 J0.3182
G3 X1.3427 Y1.5948 I1.1201 J0.5761
G3 X1.4676 Y1.448 I1.0191 J0.7402
G3 X1.5934 Y1.34 I0.7316 J0.7256
G3 X1.7349 Y1.2537 I0.6057 J0.8336
G3 X1.9131 Y1.1803 I0.5674 J1.1245
G3 X2.1004 Y1.1349 I0.3893 J1.1979
G3 X2.2656 Y1.1216 I0.1653 J1.0171
G3 X2.4309 Y1.1349 I0 J1.0304
G3 X2.6182 Y1.1803 I-0.202 J1.2432
G3 X2.7963 Y1.2537 I-0.3893 J1.1979
G3 X2.9378 Y1.34 I-0.4642 J0.9199
G3 X3.0637 Y1.448 I-0.6057 J0.8336
G3 X3.1885 Y1.5948 I-0.8943 J0.887
G3 X3.2895 Y1.7589 I-1.0191 J0.7402
G3 X3.3532 Y1.9119 I-0.9163 J0.4713
G3 X3.3916 Y2.0732 I-0.98 J0.3182
G3 X3.4063 Y2.265 I-1.2448 J0.1918
G1 X3.4063 Y2.2654
G1 X3.4063 Y2.2656
G1 X3.4062 Y2.2662
G1 X3.4062 Y2.2662
G3 X3.3916 Y2.458 I-1.2595 J0
G3 X3.3532 Y2.6193 I-1.0184 J-0.1569
G3 X3.2895 Y2.7724 I-0.98 J-0.3182
G3 X3.1885 Y2.9365 I-1.1201 J-0.5761
G3 X3.0637 Y3.0833 I-1.0191 J-0.7402
G3 X2.9378 Y3.1912 I-0.7316 J-0.7256
G3 X2.7963 Y3.2776 I-0.6057 J-0.8336
G3 X2.6182 Y3.351 I-0.5674 J-1.1245
G3 X2.4309 Y3.3963 I-0.3893 J-1.1979
G3 X2.2656 Y3.4097 I-0.1653 J-1.0171
G3 X2.1004 Y3.3963 I0 J-1.0304
G3 X1.9131 Y3.351 I0.202 J-1.2432
G3 X1.7349 Y3.2776 I0.3893 J-1.1979
G3 X1.5934 Y3.1912 I0.4642 J-0.9199
G3 X1.4676 Y3.0833 I0.6057 J-0.8336
G3 X1.3427 Y2.9365 I0.8943 J-0.887
G1 X1.2618 Y2.9953 F60
G3 X1.1528 Y2.8181 I1.1 J-0.7989 F60
G3 X1.0829 Y2.6502 I1.0052 J-0.517
G3 X1.0409 Y2.4733 I1.0751 J-0.3491
G3 X1.025 Y2.2662 I1.3437 J-0.207
G1 X1.025 Y2.2658
G1 X1.025 Y2.2657
G1 X1.025 Y2.265
G1 X1.025 Y2.265
G3 X1.0409 Y2.058 I1.3595 J0
G3 X1.0829 Y1.881 I1.1172 J0.1721
G3 X1.1528 Y1.7131 I1.0751 J0.3491
G3 X1.2618 Y1.536 I1.209 J0.6218
G3 X1.3966 Y1.3775 I1.1 J0.7989
G3 X1.5346 Y1.2591 I0.8026 J0.796
G3 X1.6899 Y1.1644 I0.6645 J0.9144
G3 X1.8822 Y1.0852 I0.6125 J1.2137
G3 X2.0843 Y1.0362 I0.4202 J1.293
G3 X2.2656 Y1.0216 I0.1813 J1.1158
G3 X2.4469 Y1.0362 I0 J1.1304
G3 X2.6491 Y1.0852 I-0.218 J1.3419
G3 X2.8414 Y1.1644 I-0.4202 J1.293
G3 X2.9966 Y1.2591 I-0.5093 J1.0092
G3 X3.1347 Y1.3775 I-0.6645 J0.9144
G3 X3.2694 Y1.536 I-0.9653 J0.9574
G3 X3.3784 Y1.7131 I-1.1 J0.7989
G3 X3.4483 Y1.881 I-1.0052 J0.517
G3 X3.4904 Y2.058 I-1.0751 J0.3491
G3 X3.5063 Y2.265 I-1.3437 J0.207
G1 X3.5063 Y2.2654
G1 X3.5063 Y2.2656
G1 X3.5062 Y2.2662
G1 X3.5062 Y2.2662
G3 X3.4904 Y2.4733 I-1.3595 J0
G3 X3.4483 Y2.6502 I-1.1172 J-0.1721
G3 X3.3784 Y2.8181 I-1.0751 J-0.3491
G3 X3.2694 Y2.9953 I-1.209 J-0.6218
G3 X3.1347 Y3.1537 I-1.1 J-0.7989
G3 X2.9966 Y3.2721 I-0.8026 J-0.796
G3 X2.8414 Y3.3669 I-0.6645 J-0.9144
G3 X2.6491 Y3.4461 I-0.6125 J-1.2137
G3 X2.4469 Y3.495 I-0.4202 J-1.293
G3 X2.2656 Y3.5097 I-0.1813 J-1.1158
G3 X2.0843 Y3.495 I0 J-1.1304
G3 X1.8822 Y3.4461 I0.218 J-1.3419
G3 X1.6899 Y3.3669 I0.4202 J-1.293
G3 X1.5346 Y3.2721 I0.5093 J-1.0092
G3 X1.3966 Y3.1537 I0.6645 J-0.9144
G3 X1.2618 Y2.9953 I0.9653 J-0.9574
G1 X1.1809 Y3.054 F60
G3 X1.0639 Y2.8639 I1.1809 J-0.8577 F60
G3 X0.9878 Y2.6811 I1.0942 J-0.5628
G3 X0.942 Y2.4885 I1.1703 J-0.38
G3 X0.925 Y2.2662 I1.4425 J-0.2223
G1 X0.925 Y2.2658
G1 X0.925 Y2.2656
G1 X0.925 Y2.265
G1 X0.925 Y2.265
G3 X0.942 Y2.0428 I1.4595 J0
G3 X0.9878 Y1.8502 I1.2161 J0.1874
G3 X1.0639 Y1.6674 I1.1703 J0.38
G3 X1.1809 Y1.4772 I1.2979 J0.6675
G3 X1.3256 Y1.3071 I1.1809 J0.8577
G3 X1.4758 Y1.1782 I0.8736 J0.8665
G3 X1.6448 Y1.0751 I0.7233 J0.9953
G3 X1.8513 Y0.9901 I0.6575 J1.303
G3 X2.0683 Y0.9375 I0.4511 J1.3881
G3 X2.2656 Y0.9216 I0.1973 J1.2145
G3 X2.463 Y0.9375 I0 J1.2304
G3 X2.68 Y0.9901 I-0.2341 J1.4406
G3 X2.8864 Y1.0751 I-0.4511 J1.3881
G3 X3.0554 Y1.1782 I-0.5543 J1.0985
G3 X3.2057 Y1.3071 I-0.7233 J0.9953
G3 X3.3503 Y1.4772 I-1.0363 J1.0278
G3 X3.4673 Y1.6674 I-1.1809 J0.8577
G3 X3.5434 Y1.8502 I-1.0942 J0.5628
G3 X3.5892 Y2.0428 I-1.1703 J0.38
G3 X3.6063 Y2.265 I-1.4425 J0.2223
G1 X3.6063 Y2.2654
G1 X3.6063 Y2.2656
G1 X3.6062 Y2.2662
G1 X3.6062 Y2.2662
G3 X3.5892 Y2.4885 I-1.4595 J0
G3 X3.5434 Y2.6811 I-1.2161 J-0.1874
G3 X3.4673 Y2.8639 I-1.1703 J-0.38
G3 X3.3503 Y3.054 I-1.2979 J-0.6675
G3 X3.2057 Y3.2241 I-1.1809 J-0.8577
G3 X3.0554 Y3.353 I-0.8736 J-0.8665
G3 X2.8864 Y3.4561 I-0.7233 J-0.9953
G3 X2.68 Y3.5412 I-0.6575 J-1.303
G3 X2.463 Y3.5937 I-0.4511 J-1.3881
G3 X2.2656 Y3.6097 I-0.1973 J-1.2145
G3 X2.0683 Y3.5937 I0 J-1.2304
G3 X1.8513 Y3.5412 I0.2341 J-1.4406
G3 X1.6448 Y3.4561 I0.4511 J-1.3881
G3 X1.4758 Y3.353 I0.5543 J-1.0985
G3 X1.3256 Y3.2241 I0.7233 J-0.9953
G3 X1.1809 Y3.054 I1.0363 J-1.0278
G1 X1.1 Y3.1128 F60
G3 X0.975 Y2.9096 I1.2618 J-0.9165 F60
G3 X0.8927 Y2.712 I1.1831 J-0.6085
G3 X0.8432 Y2.5037 I1.2654 J-0.4109
G3 X0.825 Y2.2662 I1.5413 J-0.2375
G1 X0.825 Y2.2658
G1 X0.825 Y2.2656
G1 X0.825 Y2.265
G1 X0.825 Y2.265
G3 X0.8432 Y2.0275 I1.5595 J0
G3 X0.8927 Y1.8193 I1.3149 J0.2026
G3 X0.975 Y1.6216 I1.2654 J0.4109
G3 X1.1 Y1.4185 I1.3868 J0.7133
G3 X1.2546 Y1.2367 I1.2618 J0.9165
G3 X1.4171 Y1.0973 I0.9446 J0.9369
G3 X1.5998 Y0.9858 I0.7821 J1.0762
G3 X1.8204 Y0.895 I0.7026 J1.3923
G3 X2.0522 Y0.8388 I0.482 J1.4832
G3 X2.2656 Y0.8216 I0.2134 J1.3132
G3 X2.479 Y0.8388 I0 J1.3304
G3 X2.7109 Y0.895 I-0.2501 J1.5393
G3 X2.9315 Y0.9858 I-0.482 J1.4832
G3 X3.1142 Y1.0973 I-0.5994 J1.1877
G3 X3.2767 Y1.2367 I-0.7821 J1.0762
G3 X3.4312 Y1.4185 I-1.1073 J1.0982
G3 X3.5563 Y1.6216 I-1.2618 J0.9165
G3 X3.6385 Y1.8193 I-1.1831 J0.6085
G3 X3.6881 Y2.0275 I-1.2654 J0.4109
G3 X3.7063 Y2.265 I-1.5413 J0.2375
G1 X3.7063 Y2.2654
G1 X3.7063 Y2.2656
G1 X3.7062 Y2.2662
G1 X3.7062 Y2.2662
G3 X3.6881 Y2.5037 I-1.5595 J0
G3 X3.6385 Y2.712 I-1.3149 J-0.2026
G3 X3.5563 Y2.9096 I-1.2654 J-0.4109
G3 X3.4312 Y3.1128 I-1.3868 J-0.7133
G3 X3.2767 Y3.2945 I-1.2618 J-0.9165
G3 X3.1142 Y3.4339 I-0.9446 J-0.9369
G3 X2.9315 Y3.5454 I-0.7821 J-1.0762
G3 X2.7109 Y3.6363 I-0.7026 J-1.3923
G3 X2.479 Y3.6925 I-0.482 J-1.4832
G3 X2.2656 Y3.7097 I-0.2134 J-1.3132
G3 X2.0522 Y3.6925 I0 J-1.3304
G3 X1.8204 Y3.6363 I0.2501 J-1.5393
G3 X1.5998 Y3.5454 I0.482 J-1.4832
G3 X1.4171 Y3.4339 I0.5994 J-1.1877
G3 X1.2546 Y3.2945 I0.7821 J-1.0762
G3 X1.1 Y3.1128 I1.1073 J-1.0982
G1 X1.0191 Y3.1716 F60
G3 X0.8861 Y2.9553 I1.3427 J-0.9752 F60
G3 X0.7976 Y2.7429 I1.272 J-0.6542
G3 X0.7444 Y2.5189 I1.3605 J-0.4417
G3 X0.725 Y2.2662 I1.6402 J-0.2527
G1 X0.725 Y2.2658
G1 X0.725 Y2.2656
G1 X0.725 Y2.2651
G1 X0.725 Y2.265
G3 X0.7444 Y2.0123 I1.6595 J0
G3 X0.7976 Y1.7884 I1.4137 J0.2178
G3 X0.8861 Y1.5759 I1.3605 J0.4417
G3 X1.0191 Y1.3597 I1.4758 J0.759
G3 X1.1836 Y1.1663 I1.3427 J0.9752
G3 X1.3583 Y1.0164 I1.0156 J1.0073
G3 X1.5547 Y0.8966 I0.8409 J1.1571
G3 X1.7895 Y0.7999 I0.7476 J1.4816
G3 X2.0362 Y0.7401 I0.5129 J1.5783
G3 X2.2656 Y0.7216 I0.2294 J1.4119
G3 X2.495 Y0.7401 I0 J1.4304
G3 X2.7418 Y0.7999 I-0.2662 J1.638
G3 X2.9765 Y0.8966 I-0.5129 J1.5783
G3 X3.173 Y1.0164 I-0.6444 J1.277
G3 X3.3477 Y1.1663 I-0.8409 J1.1571
G3 X3.5122 Y1.3597 I-1.1783 J1.1686
G3 X3.6452 Y1.5759 I-1.3427 J0.9752
G3 X3.7337 Y1.7884 I-1.272 J0.6542
G3 X3.7869 Y2.0123 I-1.3605 J0.4417
G3 X3.8063 Y2.265 I-1.6402 J0.2527
G1 X3.8063 Y2.2654
G1 X3.8063 Y2.2656
G1 X3.8062 Y2.2662
G1 X3.8062 Y2.2662
G3 X3.7869 Y2.5189 I-1.6595 J0
G3 X3.7337 Y2.7429 I-1.4137 J-0.2178
G3 X3.6452 Y2.9553 I-1.3605 J-0.4417
G3 X3.5122 Y3.1716 I-1.4758 J-0.759
G3 X3.3477 Y3.365 I-1.3427 J-0.9752
G3 X3.173 Y3.5148 I-1.0156 J-1.0073
G3 X2.9765 Y3.6347 I-0.8409 J-1.1571
G3 X2.7418 Y3.7314 I-0.7476 J-1.4816
G3 X2.495 Y3.7912 I-0.5129 J-1.5783
G3 X2.2656 Y3.8097 I-0.2294 J-1.4119
G3 X2.0362 Y3.7912 I0 J-1.4304
G3 X1.7895 Y3.7314 I0.2662 J-1.638
G3 X1.5547 Y3.6347 I0.5129 J-1.5783
G3 X1.3583 Y3.5148 I0.6444 J-1.277
G3 X1.1836 Y3.365 I0.8409 J-1.1571
G3 X1.0191 Y3.1716 I1.1783 J-1.1686
G1 X0.9382 Y3.2303 F60
G3 X0.7971 Y3.0011 I1.4236 J-1.034 F60
G3 X0.7025 Y2.7737 I1.3609 J-0.7
G3 X0.6455 Y2.5342 I1.4556 J-0.4726
G3 X0.625 Y2.2662 I1.739 J-0.2679
G1 X0.625 Y2.2659
G1 X0.625 Y2.2656
G1 X0.625 Y2.2651
G1 X0.625 Y2.265
G3 X0.6455 Y1.9971 I1.7595 J0
G3 X0.7025 Y1.7575 I1.5126 J0.2331
G3 X0.7971 Y1.5302 I1.4556 J0.4726
G3 X0.9382 Y1.3009 I1.5647 J0.8048
G3 X1.1126 Y1.0959 I1.4236 J1.034
G3 X1.2995 Y0.9355 I1.0866 J1.0777
G3 X1.5097 Y0.8073 I0.8997 J1.238
G3 X1.7586 Y0.7048 I0.7927 J1.5709
G3 X2.0202 Y0.6414 I0.5438 J1.6734
G3 X2.2656 Y0.6216 I0.2455 J1.5106
G3 X2.5111 Y0.6414 I0 J1.5304
G3 X2.7727 Y0.7048 I-0.2822 J1.7367
G3 X3.0216 Y0.8073 I-0.5438 J1.6734
G3 X3.2318 Y0.9355 I-0.6895 J1.3663
G3 X3.4187 Y1.0959 I-0.8997 J1.238
G3 X3.5931 Y1.3009 I-1.2493 J1.2391
G3 X3.7341 Y1.5302 I-1.4236 J1.034
G3 X3.8288 Y1.7575 I-1.3609 J0.7
G3 X3.8857 Y1.9971 I-1.4556 J0.4726
G3 X3.9063 Y2.265 I-1.739 J0.2679
G1 X3.9062 Y2.2654
G1 X3.9063 Y2.2656
G1 X3.9062 Y2.2662
G1 X3.9062 Y2.2662
G3 X3.8857 Y2.5342 I-1.7595 J0
G3 X3.8288 Y2.7737 I-1.5126 J-0.2331
G3 X3.7341 Y3.0011 I-1.4556 J-0.4726
G3 X3.5931 Y3.2303 I-1.5647 J-0.8048
G3 X3.4187 Y3.4354 I-1.4236 J-1.034
G3 X3.2318 Y3.5957 I-1.0866 J-1.0777
G3 X3.0216 Y3.724 I-0.8997 J-1.238
G3 X2.7727 Y3.8265 I-0.7927 J-1.5709
G3 X2.5111 Y3.8899 I-0.5438 J-1.6734
G3 X2.2656 Y3.9097 I-0.2455 J-1.5106
G3 X2.0202 Y3.8899 I0 J-1.5304
G3 X1.7586 Y3.8265 I0.2822 J-1.7367
G3 X1.5097 Y3.724 I0.5438 J-1.6734
G3 X1.2995 Y3.5957 I0.6895 J-1.3663
G3 X1.1126 Y3.4354 I0.8997 J-1.238
G3 X0.9382 Y3.2303 I1.2493 J-1.2391
G1 X0.8573 Y3.2891 F60
G3 X0.7082 Y3.0468 I1.5046 J-1.0928 F60
G3 X0.6074 Y2.8046 I1.4499 J-0.7457
G3 X0.5467 Y2.5494 I1.5507 J-0.5035
G3 X0.525 Y2.2662 I1.8378 J-0.2832
G1 X0.525 Y2.266
G1 X0.525 Y2.2657
G1 X0.525 Y2.2651
G1 X0.525 Y2.265
G3 X0.5467 Y1.9818 I1.8595 J0
G3 X0.6074 Y1.7266 I1.6114 J0.2483
G3 X0.7082 Y1.4844 I1.5507 J0.5035
G3 X0.8573 Y1.2422 I1.6536 J0.8505
G3 X1.0416 Y1.0254 I1.5046 J1.0928
G3 X1.2407 Y0.8547 I1.1576 J1.1481
G3 X1.4646 Y0.718 I0.9585 J1.3189
G3 X1.7277 Y0.6096 I0.8377 J1.6601
G3 X2.0041 Y0.5427 I0.5747 J1.7685
G3 X2.2656 Y0.5216 I0.2615 J1.6093
G3 X2.5271 Y0.5427 I0 J1.6304
G3 X2.8036 Y0.6096 I-0.2982 J1.8355
G3 X3.0666 Y0.718 I-0.5747 J1.7685
G3 X3.2906 Y0.8547 I-0.7345 J1.4556
G3 X3.4897 Y1.0254 I-0.9585 J1.3189
G3 X3.674 Y1.2422 I-1.3203 J1.3095
G3 X3.8231 Y1.4844 I-1.5046 J1.0928
G3 X3.9239 Y1.7266 I-1.4499 J0.7457
G3 X3.9846 Y1.9818 I-1.5507 J0.5035
G3 X4.0062 Y2.265 I-1.8378 J0.2832
G1 X4.0062 Y2.2652
G1 X4.0063 Y2.2656
G1 X4.0062 Y2.2661
G1 X4.0062 Y2.2662
G3 X3.9846 Y2.5494 I-1.8595 J0
G3 X3.9239 Y2.8046 I-1.6114 J-0.2483
G3 X3.8231 Y3.0468 I-1.5507 J-0.5035
G3 X3.674 Y3.2891 I-1.6536 J-0.8505
G3 X3.4897 Y3.5058 I-1.5046 J-1.0928
G3 X3.2906 Y3.6766 I-1.1576 J-1.1481
G3 X3.0666 Y3.8132 I-0.9585 J-1.3189
G3 X2.8036 Y3.9216 I-0.8377 J-1.6601
G3 X2.5271 Y3.9886 I-0.5747 J-1.7685
G3 X2.2656 Y4.0097 I-0.2615 J-1.6093
G3 X2.0041 Y3.9886 I0 J-1.6304
G3 X1.7277 Y3.9216 I0.2982 J-1.8355
G3 X1.4646 Y3.8132 I0.5747 J-1.7685
G3 X1.2407 Y3.6766 I0.7345 J-1.4556
G3 X1.0416 Y3.5058 I0.9585 J-1.3189
G3 X0.8573 Y3.2891 I1.3203 J-1.3095
G1 X0.7764 Y3.3479 F60
G3 X0.6193 Y3.0926 I1.5855 J-1.1515 F60
G3 X0.5123 Y2.8355 I1.5388 J-0.7914
G3 X0.4479 Y2.5646 I1.6458 J-0.5344
G3 X0.425 Y2.2662 I1.9367 J-0.2984
G1 X0.425 Y2.2658
G1 X0.425 Y2.2653
G1 X0.425 Y2.265
G3 X0.4479 Y1.9666 I1.9595 J0
G3 X0.5123 Y1.6957 I1.7102 J0.2635
G3 X0.6193 Y1.4387 I1.6458 J0.5344
G3 X0.7764 Y1.1834 I1.7426 J0.8962
G3 X0.9706 Y0.955 I1.5855 J1.1515
G3 X1.1819 Y0.7738 I1.2286 J1.2186
G3 X1.4196 Y0.6287 I1.0172 J1.3998
G3 X1.6968 Y0.5145 I0.8828 J1.7494
G3 X1.9881 Y0.444 I0.6056 J1.8636
G3 X2.2656 Y0.4216 I0.2775 J1.708
G3 X2.5432 Y0.444 I0 J1.7304
G3 X2.8345 Y0.5145 I-0.3143 J1.9342
G3 X3.1117 Y0.6287 I-0.6056 J1.8636
G3 X3.3493 Y0.7738 I-0.7796 J1.5449
G3 X3.5607 Y0.955 I-1.0172 J1.3998
G3 X3.7549 Y1.1834 I-1.3913 J1.3799
G3 X3.912 Y1.4387 I-1.5855 J1.1515
G3 X4.019 Y1.6957 I-1.5388 J0.7914
G3 X4.0834 Y1.9666 I-1.6458 J0.5344
G3 X4.1062 Y2.265 I-1.9367 J0.2984
G1 X4.1063 Y2.2654
G1 X4.1062 Y2.266
G1 X4.1062 Y2.2662
G3 X4.0834 Y2.5646 I-1.9595 J0
G3 X4.019 Y2.8355 I-1.7102 J-0.2635
G3 X3.912 Y3.0926 I-1.6458 J-0.5344
G3 X3.7549 Y3.3479 I-1.7426 J-0.8962
G3 X3.5607 Y3.5762 I-1.5855 J-1.1515
G3 X3.3493 Y3.7575 I-1.2286 J-1.2186
G3 X3.1117 Y3.9025 I-1.0172 J-1.3998
G3 X2.8345 Y4.0167 I-0.8828 J-1.7494
G3 X2.5432 Y4.0873 I-0.6056 J-1.8636
G3 X2.2656 Y4.1097 I-0.2775 J-1.708
G3 X1.9881 Y4.0873 I0 J-1.7304
G3 X1.6968 Y4.0167 I0.3143 J-1.9342
G3 X1.4196 Y3.9025 I0.6056 J-1.8636
G3 X1.1819 Y3.7575 I0.7796 J-1.5449
G3 X0.9706 Y3.5762 I1.0172 J-1.3998
G3 X0.7764 Y3.3479 I1.3913 J-1.3799
G1 X0.6955 Y3.4066 F60
G3 X0.5303 Y3.1383 I1.6664 J-1.2103 F60
G3 X0.4171 Y2.8664 I1.6277 J-0.8372
G3 X0.349 Y2.5799 I1.7409 J-0.5653
G3 X0.325 Y2.2662 I2.0355 J-0.3136
G1 X0.325 Y2.2655
G1 X0.325 Y2.265
G3 X0.349 Y1.9514 I2.0595 J0
G3 X0.4171 Y1.6649 I1.8091 J0.2787
G3 X0.5303 Y1.393 I1.7409 J0.5653
G3 X0.6955 Y1.1246 I1.8315 J0.942
G3 X0.8996 Y0.8846 I1.6664 J1.2103
G3 X1.1231 Y0.6929 I1.2996 J1.289
G3 X1.3745 Y0.5395 I1.076 J1.4807
G3 X1.6658 Y0.4194 I0.9278 J1.8387
G3 X1.9721 Y0.3453 I0.6365 J1.9587
G3 X2.2656 Y0.3216 I0.2936 J1.8067
G3 X2.5592 Y0.3453 I0 J1.8304
G3 X2.8654 Y0.4194 I-0.3303 J2.0329
G3 X3.1567 Y0.5395 I-0.6365 J1.9587
G3 X3.4081 Y0.6929 I-0.8246 J1.6341
G3 X3.6317 Y0.8846 I-1.076 J1.4807
G3 X3.8358 Y1.1246 I-1.4623 J1.4503
G3 X4.0009 Y1.393 I-1.6664 J1.2103
G3 X4.1141 Y1.6649 I-1.6277 J0.8372
G3 X4.1822 Y1.9514 I-1.7409 J0.5653
G3 X4.2062 Y2.265 I-2.0355 J0.3136
G1 X4.2062 Y2.2657
G1 X4.2062 Y2.2662
G3 X4.1822 Y2.5799 I-2.0595 J0
G3 X4.1141 Y2.8664 I-1.8091 J-0.2787
G3 X4.0009 Y3.1383 I-1.7409 J-0.5653
G3 X3.8358 Y3.4066 I-1.8315 J-0.942
G3 X3.6317 Y3.6466 I-1.6664 J-1.2103
G3 X3.4081 Y3.8384 I-1.2996 J-1.289
G3 X3.1567 Y3.9918 I-1.076 J-1.4807
G3 X2.8654 Y4.1118 I-0.9278 J-1.8387
G3 X2.5592 Y4.186 I-0.6365 J-1.9587
G3 X2.2656 Y4.2097 I-0.2936 J-1.8067
G3 X1.9721 Y4.186 I0 J-1.8304
G3 X1.6658 Y4.1118 I0.3303 J-2.0329
G3 X1.3745 Y3.9918 I0.6365 J-1.9587
G3 X1.1231 Y3.8384 I0.8246 J-1.6341
G3 X0.8996 Y3.6466 I1.076 J-1.4807
G3 X0.6955 Y3.4066 I1.4623 J-1.4503
G1 X0.6145 Y3.4654 F60
G3 X0.4414 Y3.184 I1.7473 J-1.2691 F60
G3 X0.322 Y2.8973 I1.7167 J-0.8829
G3 X0.2502 Y2.5951 I1.836 J-0.5962
G3 X0.225 Y2.2662 I2.1343 J-0.3289
G1 X0.225 Y2.2656
G1 X0.225 Y2.265
G3 X0.2502 Y1.9362 I2.1595 J0
G3 X0.322 Y1.634 I1.9079 J0.294
G3 X0.4414 Y1.3472 I1.836 J0.5962
G3 X0.6145 Y1.0659 I1.9204 J0.9877
G3 X0.8286 Y0.8142 I1.7473 J1.2691
G3 X1.0643 Y0.612 I1.3706 J1.3594
G3 X1.3295 Y0.4502 I1.1348 J1.5616
G3 X1.6349 Y0.3243 I0.9729 J1.928
G3 X1.956 Y0.2466 I0.6674 J2.0538
G3 X2.2656 Y0.2216 I0.3096 J1.9054
G3 X2.5752 Y0.2466 I0 J1.9304
G3 X2.8963 Y0.3243 I-0.3464 J2.1316
G3 X3.2018 Y0.4502 I-0.6674 J2.0538
G3 X3.4669 Y0.612 I-0.8697 J1.7234
G3 X3.7027 Y0.8142 I-1.1348 J1.5616
G3 X3.9167 Y1.0659 I-1.5333 J1.5207
G3 X4.0898 Y1.3472 I-1.7473 J1.2691
G3 X4.2092 Y1.634 I-1.7167 J0.8829
G3 X4.2811 Y1.9362 I-1.836 J0.5962
G3 X4.3062 Y2.265 I-2.1343 J0.3289
G1 X4.3062 Y2.2657
G1 X4.3062 Y2.2662
G3 X4.2811 Y2.5951 I-2.1595 J0
G3 X4.2092 Y2.8973 I-1.9079 J-0.294
G3 X4.0898 Y3.184 I-1.836 J-0.5962
G3 X3.9167 Y3.4654 I-1.9204 J-0.9877
G3 X3.7027 Y3.7171 I-1.7473 J-1.2691
G3 X3.4669 Y3.9193 I-1.3706 J-1.3594
G3 X3.2018 Y4.0811 I-1.1348 J-1.5616
G3 X2.8963 Y4.2069 I-0.9729 J-1.928
G3 X2.5752 Y4.2847 I-0.6674 J-2.0538
G3 X2.2656 Y4.3097 I-0.3096 J-1.9054
G3 X1.956 Y4.2847 I0 J-1.9304
G3 X1.6349 Y4.2069 I0.3464 J-2.1316
G3 X1.3295 Y4.0811 I0.6674 J-2.0538
G3 X1.0643 Y3.9193 I0.8697 J-1.7234
G3 X0.8286 Y3.7171 I1.1348 J-1.5616
G3 X0.6145 Y3.4654 I1.5333 J-1.5207
G1 X0.5336 Y3.5242 F60
G3 X0.3525 Y3.2298 I1.8282 J-1.3278 F60
G3 X0.2269 Y2.9282 I1.8056 J-0.9286
G3 X0.1514 Y2.6103 I1.9312 J-0.627
G3 X0.125 Y2.2662 I2.2332 J-0.3441
G1 X0.125 Y2.2656
G1 X0.125 Y2.265
G3 X0.1514 Y1.9209 I2.2595 J0
G3 X0.2269 Y1.6031 I2.0067 J0.3092
G3 X0.3525 Y1.3015 I1.9312 J0.627
G3 X0.5336 Y1.0071 I2.0093 J1.0334
G3 X0.7576 Y0.7438 I1.8282 J1.3278
G3 X1.0055 Y0.5311 I1.4416 J1.4298
G3 X1.2844 Y0.3609 I1.1936 J1.6425
G3 X1.604 Y0.2292 I1.0179 J2.0172
G3 X1.94 Y0.1479 I0.6983 J2.1489
G3 X2.2656 Y0.1216 I0.3256 J2.0041
G3 X2.5913 Y0.1479 I0 J2.0304
G3 X2.9272 Y0.2292 I-0.3624 J2.2303
