(Generated by PartKam Version 0.05)

G20 G90 G40

(follow path 5)
G0 Z0.5
T0 M6
G17
M3
G0 X4.0625 Y2.2656
G1 Z-0.407 F30
G2 X4.0404 Y1.9772 I-1.8912 J-0.0005 F60
G2 X3.9768 Y1.7096 I-1.6895 J0.2603
G2 X3.8711 Y1.4556 I-1.6259 J0.5279
G2 X3.7195 Y1.2092 I-1.6818 J0.865
G2 X3.5321 Y0.9888 I-1.5302 J1.1114
G2 X3.3233 Y0.8098 I-1.2137 J1.2038
G2 X3.0885 Y0.6665 I-1.0049 J1.3829
G2 X2.821 Y0.5563 I-0.852 J1.6884
G2 X2.5398 Y0.4882 I-0.5845 J1.7986
G2 X2.2656 Y0.466 I-0.2742 J1.6873
G2 X1.9915 Y0.4882 I0 J1.7095
G2 X1.7103 Y0.5563 I0.3033 J1.8667
G2 X1.4428 Y0.6665 I0.5845 J1.7986
G2 X1.208 Y0.8098 I0.7701 J1.5262
G2 X0.9992 Y0.9888 I1.0049 J1.3829
G2 X0.8118 Y1.2092 I1.3427 J1.3318
G2 X0.6601 Y1.4556 I1.5302 J1.1114
G2 X0.5544 Y1.7096 I1.5202 J0.7819
G2 X0.4908 Y1.9772 I1.6259 J0.5279
G2 X0.4687 Y2.2656 I1.8691 J0.288
G2 X0.4908 Y2.5541 I1.8912 J0.0005
G2 X0.5544 Y2.8217 I1.6895 J-0.2603
G2 X0.6601 Y3.0756 I1.6259 J-0.5279
G2 X0.8118 Y3.322 I1.6818 J-0.865
G2 X0.9992 Y3.5424 I1.5302 J-1.1114
G2 X1.208 Y3.7215 I1.2137 J-1.2038
G2 X1.4428 Y3.8648 I1.0049 J-1.3829
G2 X1.7103 Y3.975 I0.852 J-1.6884
G2 X1.9915 Y4.0431 I0.5845 J-1.7986
G2 X2.2656 Y4.0652 I0.2742 J-1.6873
G2 X2.5398 Y4.0431 I0 J-1.7095
G2 X2.821 Y3.975 I-0.3033 J-1.8667
G2 X3.0885 Y3.8648 I-0.5845 J-1.7986
G2 X3.3233 Y3.7215 I-0.7701 J-1.5262
G2 X3.5321 Y3.5424 I-1.0049 J-1.3829
G2 X3.7195 Y3.322 I-1.3427 J-1.3318
G2 X3.8711 Y3.0756 I-1.5302 J-1.1114
G2 X3.9768 Y2.8217 I-1.5202 J-0.7819
G2 X4.0404 Y2.5541 I-1.6259 J-0.5279
G2 X4.0625 Y2.2656 I-1.8691 J-0.288
G0 Z0.5
G0 X4.0625 Y2.2656
G1 Z-0.43 F30
G2 X4.0404 Y1.9772 I-1.8912 J-0.0005 F60
G2 X3.9768 Y1.7096 I-1.6895 J0.2603
G2 X3.8711 Y1.4556 I-1.6259 J0.5279
G2 X3.7195 Y1.2092 I-1.6818 J0.865
G2 X3.5321 Y0.9888 I-1.5302 J1.1114
G2 X3.3233 Y0.8098 I-1.2137 J1.2038
G2 X3.0885 Y0.6665 I-1.0049 J1.3829
G2 X2.821 Y0.5563 I-0.852 J1.6884
G2 X2.5398 Y0.4882 I-0.5845 J1.7986
G2 X2.2656 Y0.466 I-0.2742 J1.6873
G2 X1.9915 Y0.4882 I0 J1.7095
G2 X1.7103 Y0.5563 I0.3033 J1.8667
G2 X1.4428 Y0.6665 I0.5845 J1.7986
G2 X1.208 Y0.8098 I0.7701 J1.5262
G2 X0.9992 Y0.9888 I1.0049 J1.3829
G2 X0.8118 Y1.2092 I1.3427 J1.3318
G2 X0.6601 Y1.4556 I1.5302 J1.1114
G2 X0.5544 Y1.7096 I1.5202 J0.7819
G2 X0.4908 Y1.9772 I1.6259 J0.5279
G2 X0.4687 Y2.2656 I1.8691 J0.288
G2 X0.4908 Y2.5541 I1.8912 J0.0005
G2 X0.5544 Y2.8217 I1.6895 J-0.2603
G2 X0.6601 Y3.0756 I1.6259 J-0.5279
G2 X0.8118 Y3.322 I1.6818 J-0.865
G2 X0.9992 Y3.5424 I1.5302 J-1.1114
G2 X1.208 Y3.7215 I1.2137 J-1.2038
G2 X1.4428 Y3.8648 I1.0049 J-1.3829
G2 X1.7103 Y3.975 I0.852 J-1.6884
G2 X1.9915 Y4.0431 I0.5845 J-1.7986
G2 X2.2656 Y4.0652 I0.2742 J-1.6873
G2 X2.5398 Y4.0431 I0 J-1.7095
G2 X2.821 Y3.975 I-0.3033 J-1.8667
G2 X3.0885 Y3.8648 I-0.5845 J-1.7986
G2 X3.3233 Y3.7215 I-0.7701 J-1.5262
G2 X3.5321 Y3.5424 I-1.0049 J-1.3829
G2 X3.7195 Y3.322 I-1.3427 J-1.3318
G2 X3.8711 Y3.0756 I-1.5302 J-1.1114
G2 X3.9768 Y2.8217 I-1.5202 J-0.7819
G2 X4.0404 Y2.5541 I-1.6259 J-0.5279
G2 X4.0625 Y2.2656 I-1.8691 J-0.288
G0 Z0.5
G0 X3.9844 Y2.2656
G1 Z-0.407 F30
G2 X3.9633 Y1.9897 I-1.8089 J-0.0005 F60
G2 X3.9024 Y1.7337 I-1.6161 J0.249
G2 X3.8013 Y1.4908 I-1.5552 J0.505
G2 X3.6563 Y1.2552 I-1.6087 J0.8274
G2 X3.477 Y1.0443 I-1.4636 J1.0631
G2 X3.2773 Y0.8731 I-1.1609 J1.1515
G2 X3.0527 Y0.736 I-0.9612 J1.3228
G2 X2.7968 Y0.6306 I-0.815 J1.615
G2 X2.5279 Y0.5655 I-0.5591 J1.7204
G2 X2.2656 Y0.5443 I-0.2622 J1.614
G2 X2.0034 Y0.5655 I0 J1.6351
G2 X1.7344 Y0.6306 I0.2901 J1.7855
G2 X1.4785 Y0.736 I0.5591 J1.7204
G2 X1.254 Y0.8731 I0.7366 J1.4598
G2 X1.0543 Y1.0443 I0.9612 J1.3228
G2 X0.875 Y1.2552 I1.2844 J1.2739
G2 X0.73 Y1.4908 I1.4636 J1.0631
G2 X0.6288 Y1.7337 I1.4541 J0.7479
G2 X0.568 Y1.9897 I1.5552 J0.505
G2 X0.5469 Y2.2656 I1.7879 J0.2755
G2 X0.568 Y2.5416 I1.8089 J0.0005
G2 X0.6288 Y2.7975 I1.6161 J-0.249
G2 X0.73 Y3.0404 I1.5552 J-0.505
G2 X0.875 Y3.2761 I1.6087 J-0.8274
G2 X1.0543 Y3.4869 I1.4636 J-1.0631
G2 X1.254 Y3.6582 I1.1609 J-1.1515
G2 X1.4785 Y3.7953 I0.9612 J-1.3228
G2 X1.7344 Y3.9007 I0.815 J-1.615
G2 X2.0034 Y3.9658 I0.5591 J-1.7204
G2 X2.2656 Y3.987 I0.2622 J-1.614
G2 X2.5279 Y3.9658 I0 J-1.6351
G2 X2.7968 Y3.9007 I-0.2901 J-1.7855
G2 X3.0527 Y3.7953 I-0.5591 J-1.7204
G2 X3.2773 Y3.6582 I-0.7366 J-1.4598
G2 X3.477 Y3.4869 I-0.9612 J-1.3228
G2 X3.6563 Y3.2761 I-1.2844 J-1.2739
G2 X3.8013 Y3.0404 I-1.4636 J-1.0631
G2 X3.9024 Y2.7975 I-1.4541 J-0.7479
G2 X3.9633 Y2.5416 I-1.5552 J-0.505
G2 X3.9844 Y2.2656 I-1.7879 J-0.2755
G0 Z0.5
G0 X3.9844 Y2.2656
G1 Z-0.43 F30
G2 X3.9633 Y1.9897 I-1.8089 J-0.0005 F60
G2 X3.9024 Y1.7337 I-1.6161 J0.249
G2 X3.8013 Y1.4908 I-1.5552 J0.505
G2 X3.6563 Y1.2552 I-1.6087 J0.8274
G2 X3.477 Y1.0443 I-1.4636 J1.0631
G2 X3.2773 Y0.8731 I-1.1609 J1.1515
G2 X3.0527 Y0.736 I-0.9612 J1.3228
G2 X2.7968 Y0.6306 I-0.815 J1.615
G2 X2.5279 Y0.5655 I-0.5591 J1.7204
G2 X2.2656 Y0.5443 I-0.2622 J1.614
G2 X2.0034 Y0.5655 I0 J1.6351
G2 X1.7344 Y0.6306 I0.2901 J1.7855
G2 X1.4785 Y0.736 I0.5591 J1.7204
G2 X1.254 Y0.8731 I0.7366 J1.4598
G2 X1.0543 Y1.0443 I0.9612 J1.3228
G2 X0.875 Y1.2552 I1.2844 J1.2739
G2 X0.73 Y1.4908 I1.4636 J1.0631
G2 X0.6288 Y1.7337 I1.4541 J0.7479
G2 X0.568 Y1.9897 I1.5552 J0.505
G2 X0.5469 Y2.2656 I1.7879 J0.2755
G2 X0.568 Y2.5416 I1.8089 J0.0005
G2 X0.6288 Y2.7975 I1.6161 J-0.249
G2 X0.73 Y3.0404 I1.5552 J-0.505
G2 X0.875 Y3.2761 I1.6087 J-0.8274
G2 X1.0543 Y3.4869 I1.4636 J-1.0631
G2 X1.254 Y3.6582 I1.1609 J-1.1515
G2 X1.4785 Y3.7953 I0.9612 J-1.3228
G2 X1.7344 Y3.9007 I0.815 J-1.615
G2 X2.0034 Y3.9658 I0.5591 J-1.7204
G2 X2.2656 Y3.987 I0.2622 J-1.614
G2 X2.5279 Y3.9658 I0 J-1.6351
G2 X2.7968 Y3.9007 I-0.2901 J-1.7855
G2 X3.0527 Y3.7953 I-0.5591 J-1.7204
G2 X3.2773 Y3.6582 I-0.7366 J-1.4598
G2 X3.477 Y3.4869 I-0.9612 J-1.3228
G2 X3.6563 Y3.2761 I-1.2844 J-1.2739
G2 X3.8013 Y3.0404 I-1.4636 J-1.0631
G2 X3.9024 Y2.7975 I-1.4541 J-0.7479
G2 X3.9633 Y2.5416 I-1.5552 J-0.505
G2 X3.9844 Y2.2656 I-1.7879 J-0.2755
G0 Z0.5
G0 X3.1874 Y0.8148
G1 Z-0.407 F30
G1 X3.2878 Y0.9244 F60
G1 X3.365 Y1.0276
G1 X3.4321 Y1.1381
G1 X3.4885 Y1.2553
G1 X3.5335 Y1.3785
G1 X3.5665 Y1.507
G1 X3.5868 Y1.6402
G1 X3.5938 Y1.7773
G1 X3.5917 Y1.8761
G1 X3.5855 Y1.9702
G1 X3.5753 Y2.0597
G1 X3.5609 Y2.1445
G1 X3.5425 Y2.2246
G1 X3.52 Y2.3001
G1 X3.4934 Y2.371
G1 X3.4628 Y2.4373
G1 X3.4282 Y2.4989
G1 X3.3895 Y2.556
G1 X3.3468 Y2.6084
G1 X3.3001 Y2.6563
G1 X3.2494 Y2.6995
G1 X3.1947 Y2.7382
G1 X3.136 Y2.7724
G1 X3.0734 Y2.802
G1 X3.0783 Y2.7947
G1 X3.0827 Y2.7874
G1 X3.0867 Y2.7803
G1 X3.0903 Y2.7731
G1 X3.0935 Y2.7658
G1 X3.0963 Y2.7585
G1 X3.0988 Y2.7511
G1 X3.1009 Y2.7436
G1 X3.1027 Y2.7359
G1 X3.1042 Y2.728
G1 X3.1054 Y2.7199
G1 X3.1064 Y2.7116
G1 X3.107 Y2.7029
G1 X3.1075 Y2.6939
G1 X3.1078 Y2.6845
G1 X3.1079 Y2.6748
G1 X3.1071 Y2.6584
G1 X3.1046 Y2.6425
G1 X3.1006 Y2.6271
G1 X3.0952 Y2.6124
G1 X3.0884 Y2.5983
G1 X3.0803 Y2.5851
G1 X3.0709 Y2.5728
G1 X3.0605 Y2.5614
G1 X3.049 Y2.5511
G1 X3.0365 Y2.5418
G1 X3.0232 Y2.5338
G1 X3.009 Y2.5271
G1 X2.9941 Y2.5217
G1 X2.9786 Y2.5177
G1 X2.9625 Y2.5153
G1 X2.9459 Y2.5145
G1 X2.8951 Y2.5168
G1 X2.8459 Y2.5237
G1 X2.7983 Y2.535
G1 X2.7527 Y2.5504
G1 X2.7093 Y2.5696
G1 X2.6684 Y2.5925
G1 X2.6302 Y2.6188
G1 X2.595 Y2.6483
G1 X2.563 Y2.6807
G1 X2.5345 Y2.7159
G1 X2.5096 Y2.7536
G1 X2.4888 Y2.7936
G1 X2.4721 Y2.8356
G1 X2.4599 Y2.8794
G1 X2.4524 Y2.9248
G1 X2.4498 Y2.9716
G1 X2.4516 Y2.9996
G1 X2.4571 Y3.0267
G1 X2.4659 Y3.0529
G1 X2.4779 Y3.078
G1 X2.493 Y3.1019
G1 X2.511 Y3.1244
G1 X2.5316 Y3.1454
G1 X2.5548 Y3.1648
G1 X2.5802 Y3.1824
G1 X2.6078 Y3.1981
G1 X2.6374 Y3.2118
G1 X2.6687 Y3.2233
G1 X2.7017 Y3.2325
G1 X2.736 Y3.2392
G1 X2.7717 Y3.2433
G1 X2.8083 Y3.2447
G1 X2.8181 Y3.2447
G1 X2.8279 Y3.2445
G1 X2.8377 Y3.2443
G1 X2.8473 Y3.244
G1 X2.8567 Y3.2436
G1 X2.8658 Y3.2431
G1 X2.8745 Y3.2427
G1 X2.8826 Y3.2422
G1 X2.8902 Y3.2417
G1 X2.8971 Y3.2413
G1 X2.9032 Y3.2409
G1 X2.9083 Y3.2405
G1 X2.9125 Y3.2402
G1 X2.9157 Y3.2399
G1 X2.9176 Y3.2397
G1 X2.8974 Y3.2621
G1 X2.8751 Y3.2834
G1 X2.8513 Y3.3034
G1 X2.8261 Y3.3223
G1 X2.7995 Y3.3399
G1 X2.7716 Y3.3561
G1 X2.7425 Y3.371
G1 X2.7121 Y3.3845
G1 X2.6805 Y3.3966
G1 X2.6477 Y3.4072
G1 X2.6138 Y3.4163
G1 X2.5789 Y3.4238
G1 X2.5429 Y3.4297
G1 X2.5059 Y3.434
G1 X2.468 Y3.4366
G1 X2.4292 Y3.4375
G1 X2.3499 Y3.4349
G1 X2.2741 Y3.4273
G1 X2.202 Y3.4149
G1 X2.1339 Y3.3978
G1 X2.0701 Y3.3761
G1 X2.0106 Y3.3501
G1 X1.9557 Y3.3199
G1 X1.9057 Y3.2857
G1 X1.8607 Y3.2476
G1 X1.8211 Y3.2059
G1 X1.7869 Y3.1606
G1 X1.7584 Y3.112
G1 X1.7359 Y3.0602
G1 X1.7196 Y3.0053
G1 X1.7096 Y2.9477
G1 X1.7062 Y2.8873
G1 X1.7069 Y2.8563
G1 X1.709 Y2.8257
G1 X1.7125 Y2.7956
G1 X1.7172 Y2.766
G1 X1.7232 Y2.7368
G1 X1.7305 Y2.7083
G1 X1.739 Y2.6803
G1 X1.7487 Y2.653
G1 X1.7595 Y2.6263
G1 X1.7714 Y2.6004
G1 X1.7845 Y2.5752
G1 X1.7985 Y2.5508
G1 X1.8136 Y2.5272
G1 X1.8296 Y2.5045
G1 X1.8466 Y2.4826
G1 X1.8645 Y2.4617
G1 X1.8695 Y2.4561
G1 X1.8745 Y2.4505
G1 X1.8795 Y2.4448
G1 X1.8845 Y2.4392
G1 X1.8894 Y2.4335
G1 X1.8944 Y2.4279
G1 X1.8994 Y2.4222
G1 X1.9044 Y2.4166
G1 X1.9094 Y2.4109
G1 X1.9144 Y2.4053
G1 X1.9193 Y2.3996
G1 X1.9243 Y2.394
G1 X1.9293 Y2.3883
G1 X1.9343 Y2.3827
G1 X1.9393 Y2.377
G1 X1.9443 Y2.3714
G1 X1.952 Y2.3627
G1 X1.9597 Y2.3541
G1 X1.9674 Y2.3454
G1 X1.9751 Y2.3368
G1 X1.9828 Y2.3282
G1 X1.9905 Y2.3195
G1 X1.9983 Y2.3109
G1 X2.006 Y2.3022
G1 X2.0137 Y2.2936
G1 X2.0214 Y2.2849
G1 X2.0291 Y2.2763
G1 X2.0368 Y2.2676
G1 X2.0446 Y2.259
G1 X2.0523 Y2.2503
G1 X2.06 Y2.2417
G1 X2.0677 Y2.233
G1 X2.0844 Y2.2139
G1 X2.1005 Y2.1952
G1 X2.1158 Y2.1766
G1 X2.1302 Y2.1582
G1 X2.1439 Y2.1398
G1 X2.1566 Y2.1213
G1 X2.1683 Y2.1027
G1 X2.1791 Y2.0839
G1 X2.1888 Y2.0648
G1 X2.1973 Y2.0452
G1 X2.2047 Y2.0252
G1 X2.2109 Y2.0046
G1 X2.2157 Y1.9832
G1 X2.2193 Y1.9612
G1 X2.2215 Y1.9383
G1 X2.2222 Y1.9144
G1 X2.2217 Y1.8954
G1 X2.22 Y1.8772
G1 X2.2174 Y1.8598
G1 X2.2137 Y1.8431
G1 X2.209 Y1.8271
G1 X2.2033 Y1.8118
G1 X2.1966 Y1.7972
G1 X2.189 Y1.7831
G1 X2.1805 Y1.7696
G1 X2.171 Y1.7566
G1 X2.1606 Y1.7441
G1 X2.1494 Y1.7321
G1 X2.1373 Y1.7206
G1 X2.1244 Y1.7094
G1 X2.1107 Y1.6986
G1 X2.0961 Y1.6881
G1 X2.0839 Y1.68
G1 X2.0711 Y1.6724
G1 X2.0578 Y1.6652
G1 X2.0441 Y1.6585
G1 X2.0299 Y1.6523
G1 X2.0152 Y1.6466
G1 X2.0001 Y1.6414
G1 X1.9846 Y1.6367
G1 X1.9687 Y1.6325
G1 X1.9523 Y1.6289
G1 X1.9355 Y1.6258
G1 X1.9184 Y1.6232
G1 X1.9008 Y1.6212
G1 X1.8829 Y1.6198
G1 X1.8646 Y1.6189
G1 X1.8459 Y1.6186
G1 X1.8055 Y1.62
G1 X1.7669 Y1.6241
G1 X1.7302 Y1.6307
G1 X1.6955 Y1.64
G1 X1.663 Y1.6516
G1 X1.6327 Y1.6656
G1 X1.6048 Y1.6818
G1 X1.5793 Y1.7002
G1 X1.5564 Y1.7207
G1 X1.5362 Y1.7431
G1 X1.5188 Y1.7674
G1 X1.5043 Y1.7936
G1 X1.4928 Y1.8214
G1 X1.4845 Y1.8509
G1 X1.4794 Y1.8819
G1 X1.4777 Y1.9144
G1 X1.4789 Y1.9365
G1 X1.4823 Y1.9579
G1 X1.4879 Y1.9786
G1 X1.4956 Y1.9984
G1 X1.5052 Y2.0172
G1 X1.5167 Y2.035
G1 X1.5298 Y2.0516
G1 X1.5446 Y2.0669
G1 X1.5608 Y2.0808
G1 X1.5784 Y2.0932
G1 X1.5972 Y2.104
G1 X1.6172 Y2.1131
G1 X1.6382 Y2.1203
G1 X1.6601 Y2.1256
G1 X1.6828 Y2.1289
G1 X1.7062 Y2.13
G1 X1.7074 Y2.13
G1 X1.7085 Y2.13
G1 X1.6967 Y2.134
G1 X1.6849 Y2.1378
G1 X1.6729 Y2.1414
G1 X1.6608 Y2.1447
G1 X1.6486 Y2.1477
G1 X1.6363 Y2.1505
G1 X1.624 Y2.1531
G1 X1.6115 Y2.1554
G1 X1.599 Y2.1574
G1 X1.5863 Y2.1592
G1 X1.5736 Y2.1607
G1 X1.5608 Y2.1619
G1 X1.5479 Y2.1629
G1 X1.535 Y2.1636
G1 X1.522 Y2.164
G1 X1.5089 Y2.1642
G1 X1.4475 Y2.1611
G1 X1.3879 Y2.152
G1 X1.3304 Y2.1372
G1 X1.2753 Y2.117
G1 X1.2228 Y2.0917
G1 X1.1733 Y2.0617
G1 X1.1271 Y2.0271
G1 X1.0845 Y1.9884
G1 X1.0457 Y1.9458
G1 X1.0112 Y1.8996
G1 X0.9811 Y1.8501
G1 X0.9559 Y1.7976
G1 X0.9357 Y1.7425
G1 X0.9209 Y1.685
G1 X0.9118 Y1.6254
G1 X0.9087 Y1.564
G1 X0.909 Y1.428
G1 X0.9092 Y1.2919
G1 X0.909 Y1.2134
G0 Z0.5
G0 X3.1874 Y0.8148
G1 Z-0.43 F30
G1 X3.2878 Y0.9244 F60
G1 X3.365 Y1.0276
G1 X3.4321 Y1.1381
G1 X3.4885 Y1.2553
G1 X3.5335 Y1.3785
G1 X3.5665 Y1.507
G1 X3.5868 Y1.6402
G1 X3.5938 Y1.7773
G1 X3.5917 Y1.8761
G1 X3.5855 Y1.9702
G1 X3.5753 Y2.0597
G1 X3.5609 Y2.1445
G1 X3.5425 Y2.2246
G1 X3.52 Y2.3001
G1 X3.4934 Y2.371
G1 X3.4628 Y2.4373
G1 X3.4282 Y2.4989
G1 X3.3895 Y2.556
G1 X3.3468 Y2.6084
G1 X3.3001 Y2.6563
G1 X3.2494 Y2.6995
G1 X3.1947 Y2.7382
G1 X3.136 Y2.7724
G1 X3.0734 Y2.802
G1 X3.0783 Y2.7947
G1 X3.0827 Y2.7874
G1 X3.0867 Y2.7803
G1 X3.0903 Y2.7731
G1 X3.0935 Y2.7658
G1 X3.0963 Y2.7585
G1 X3.0988 Y2.7511
G1 X3.1009 Y2.7436
G1 X3.1027 Y2.7359
G1 X3.1042 Y2.728
G1 X3.1054 Y2.7199
G1 X3.1064 Y2.7116
G1 X3.107 Y2.7029
G1 X3.1075 Y2.6939
G1 X3.1078 Y2.6845
G1 X3.1079 Y2.6748
G1 X3.1071 Y2.6584
G1 X3.1046 Y2.6425
G1 X3.1006 Y2.6271
G1 X3.0952 Y2.6124
G1 X3.0884 Y2.5983
G1 X3.0803 Y2.5851
G1 X3.0709 Y2.5728
G1 X3.0605 Y2.5614
G1 X3.049 Y2.5511
G1 X3.0365 Y2.5418
G1 X3.0232 Y2.5338
G1 X3.009 Y2.5271
G1 X2.9941 Y2.5217
G1 X2.9786 Y2.5177
G1 X2.9625 Y2.5153
G1 X2.9459 Y2.5145
G1 X2.8951 Y2.5168
G1 X2.8459 Y2.5237
G1 X2.7983 Y2.535
G1 X2.7527 Y2.5504
G1 X2.7093 Y2.5696
G1 X2.6684 Y2.5925
G1 X2.6302 Y2.6188
G1 X2.595 Y2.6483
G1 X2.563 Y2.6807
G1 X2.5345 Y2.7159
G1 X2.5096 Y2.7536
G1 X2.4888 Y2.7936
G1 X2.4721 Y2.8356
G1 X2.4599 Y2.8794
G1 X2.4524 Y2.9248
G1 X2.4498 Y2.9716
G1 X2.4516 Y2.9996
G1 X2.4571 Y3.0267
G1 X2.4659 Y3.0529
G1 X2.4779 Y3.078
G1 X2.493 Y3.1019
G1 X2.511 Y3.1244
G1 X2.5316 Y3.1454
G1 X2.5548 Y3.1648
G1 X2.5802 Y3.1824
G1 X2.6078 Y3.1981
G1 X2.6374 Y3.2118
G1 X2.6687 Y3.2233
G1 X2.7017 Y3.2325
G1 X2.736 Y3.2392
G1 X2.7717 Y3.2433
G1 X2.8083 Y3.2447
G1 X2.8181 Y3.2447
G1 X2.8279 Y3.2445
G1 X2.8377 Y3.2443
G1 X2.8473 Y3.244
G1 X2.8567 Y3.2436
G1 X2.8658 Y3.2431
G1 X2.8745 Y3.2427
G1 X2.8826 Y3.2422
G1 X2.8902 Y3.2417
G1 X2.8971 Y3.2413
G1 X2.9032 Y3.2409
G1 X2.9083 Y3.2405
G1 X2.9125 Y3.2402
G1 X2.9157 Y3.2399
G1 X2.9176 Y3.2397
G1 X2.8974 Y3.2621
G1 X2.8751 Y3.2834
G1 X2.8513 Y3.3034
G1 X2.8261 Y3.3223
G1 X2.7995 Y3.3399
G1 X2.7716 Y3.3561
G1 X2.7425 Y3.371
G1 X2.7121 Y3.3845
G1 X2.6805 Y3.3966
G1 X2.6477 Y3.4072
G1 X2.6138 Y3.4163
G1 X2.5789 Y3.4238
G1 X2.5429 Y3.4297
G1 X2.5059 Y3.434
G1 X2.468 Y3.4366
G1 X2.4292 Y3.4375
G1 X2.3499 Y3.4349
G1 X2.2741 Y3.4273
G1 X2.202 Y3.4149
G1 X2.1339 Y3.3978
G1 X2.0701 Y3.3761
G1 X2.0106 Y3.3501
G1 X1.9557 Y3.3199
G1 X1.9057 Y3.2857
G1 X1.8607 Y3.2476
G1 X1.8211 Y3.2059
G1 X1.7869 Y3.1606
G1 X1.7584 Y3.112
G1 X1.7359 Y3.0602
G1 X1.7196 Y3.0053
G1 X1.7096 Y2.9477
G1 X1.7062 Y2.8873
G1 X1.7069 Y2.8563
G1 X1.709 Y2.8257
G1 X1.7125 Y2.7956
G1 X1.7172 Y2.766
G1 X1.7232 Y2.7368
G1 X1.7305 Y2.7083
G1 X1.739 Y2.6803
G1 X1.7487 Y2.653
G1 X1.7595 Y2.6263
G1 X1.7714 Y2.6004
G1 X1.7845 Y2.5752
G1 X1.7985 Y2.5508
G1 X1.8136 Y2.5272
G1 X1.8296 Y2.5045
G1 X1.8466 Y2.4826
G1 X1.8645 Y2.4617
G1 X1.8695 Y2.4561
G1 X1.8745 Y2.4505
G1 X1.8795 Y2.4448
G1 X1.8845 Y2.4392
G1 X1.8894 Y2.4335
G1 X1.8944 Y2.4279
G1 X1.8994 Y2.4222
G1 X1.9044 Y2.4166
G1 X1.9094 Y2.4109
G1 X1.9144 Y2.4053
G1 X1.9193 Y2.3996
G1 X1.9243 Y2.394
G1 X1.9293 Y2.3883
G1 X1.9343 Y2.3827
G1 X1.9393 Y2.377
G1 X1.9443 Y2.3714
G1 X1.952 Y2.3627
G1 X1.9597 Y2.3541
G1 X1.9674 Y2.3454
G1 X1.9751 Y2.3368
G1 X1.9828 Y2.3282
G1 X1.9905 Y2.3195
G1 X1.9983 Y2.3109
G1 X2.006 Y2.3022
G1 X2.0137 Y2.2936
G1 X2.0214 Y2.2849
G1 X2.0291 Y2.2763
G1 X2.0368 Y2.2676
G1 X2.0446 Y2.259
G1 X2.0523 Y2.2503
G1 X2.06 Y2.2417
G1 X2.0677 Y2.233
G1 X2.0844 Y2.2139
G1 X2.1005 Y2.1952
G1 X2.1158 Y2.1766
G1 X2.1302 Y2.1582
G1 X2.1439 Y2.1398
G1 X2.1566 Y2.1213
G1 X2.1683 Y2.1027
G1 X2.1791 Y2.0839
G1 X2.1888 Y2.0648
G1 X2.1973 Y2.0452
G1 X2.2047 Y2.0252
G1 X2.2109 Y2.0046
G1 X2.2157 Y1.9832
G1 X2.2193 Y1.9612
G1 X2.2215 Y1.9383
G1 X2.2222 Y1.9144
G1 X2.2217 Y1.8954
G1 X2.22 Y1.8772
G1 X2.2174 Y1.8598
G1 X2.2137 Y1.8431
G1 X2.209 Y1.8271
G1 X2.2033 Y1.8118
G1 X2.1966 Y1.7972
G1 X2.189 Y1.7831
G1 X2.1805 Y1.7696
G1 X2.171 Y1.7566
G1 X2.1606 Y1.7441
G1 X2.1494 Y1.7321
G1 X2.1373 Y1.7206
G1 X2.1244 Y1.7094
G1 X2.1107 Y1.6986
G1 X2.0961 Y1.6881
G1 X2.0839 Y1.68
G1 X2.0711 Y1.6724
G1 X2.0578 Y1.6652
G1 X2.0441 Y1.6585
G1 X2.0299 Y1.6523
G1 X2.0152 Y1.6466
G1 X2.0001 Y1.6414
G1 X1.9846 Y1.6367
G1 X1.9687 Y1.6325
G1 X1.9523 Y1.6289
G1 X1.9355 Y1.6258
G1 X1.9184 Y1.6232
G1 X1.9008 Y1.6212
G1 X1.8829 Y1.6198
G1 X1.8646 Y1.6189
G1 X1.8459 Y1.6186
G1 X1.8055 Y1.62
G1 X1.7669 Y1.6241
G1 X1.7302 Y1.6307
G1 X1.6955 Y1.64
G1 X1.663 Y1.6516
G1 X1.6327 Y1.6656
G1 X1.6048 Y1.6818
G1 X1.5793 Y1.7002
G1 X1.5564 Y1.7207
G1 X1.5362 Y1.7431
G1 X1.5188 Y1.7674
G1 X1.5043 Y1.7936
G1 X1.4928 Y1.8214
G1 X1.4845 Y1.8509
G1 X1.4794 Y1.8819
G1 X1.4777 Y1.9144
G1 X1.4789 Y1.9365
G1 X1.4823 Y1.9579
G1 X1.4879 Y1.9786
G1 X1.4956 Y1.9984
G1 X1.5052 Y2.0172
G1 X1.5167 Y2.035
G1 X1.5298 Y2.0516
G1 X1.5446 Y2.0669
G1 X1.5608 Y2.0808
G1 X1.5784 Y2.0932
G1 X1.5972 Y2.104
G1 X1.6172 Y2.1131
G1 X1.6382 Y2.1203
G1 X1.6601 Y2.1256
G1 X1.6828 Y2.1289
G1 X1.7062 Y2.13
G1 X1.7074 Y2.13
G1 X1.7085 Y2.13
G1 X1.6967 Y2.134
G1 X1.6849 Y2.1378
G1 X1.6729 Y2.1414
G1 X1.6608 Y2.1447
G1 X1.6486 Y2.1477
G1 X1.6363 Y2.1505
G1 X1.624 Y2.1531
G1 X1.6115 Y2.1554
G1 X1.599 Y2.1574
G1 X1.5863 Y2.1592
G1 X1.5736 Y2.1607
G1 X1.5608 Y2.1619
G1 X1.5479 Y2.1629
G1 X1.535 Y2.1636
G1 X1.522 Y2.164
G1 X1.5089 Y2.1642
G1 X1.4475 Y2.1611
G1 X1.3879 Y2.152
G1 X1.3304 Y2.1372
G1 X1.2753 Y2.117
G1 X1.2228 Y2.0917
G1 X1.1733 Y2.0617
G1 X1.1271 Y2.0271
G1 X1.0845 Y1.9884
G1 X1.0457 Y1.9458
G1 X1.0112 Y1.8996
G1 X0.9811 Y1.8501
G1 X0.9559 Y1.7976
G1 X0.9357 Y1.7425
G1 X0.9209 Y1.685
G1 X0.9118 Y1.6254
G1 X0.9087 Y1.564
G1 X0.909 Y1.428
G1 X0.9092 Y1.2919
G1 X0.909 Y1.2134
G0 Z0.5
M5
M30
