(Generated by PartKam Version 0.05)

G20 G90 G40

(profile 6)
G0 Z0.5
T0 M6
G17
M3
G0 X0.3314 Y0.8602
G1 Z-0.5 F30
G3 X0.5801 Y0.5677 I2.0305 J1.4748 F60
G3 X0.8586 Y0.3288 I1.6191 J1.6059
G3 X1.1718 Y0.1377 I1.3406 J1.8447
G3 X1.5268 Y-0.0085 I1.1306 J2.2404
G3 X1.8999 Y-0.0989 I0.7756 J2.3867
G3 X2.2656 Y-0.1284 I0.3657 J2.2509
G3 X2.6314 Y-0.0989 I0 J2.2804
G3 X3.0045 Y-0.0085 I-0.4025 J2.477
G3 X3.3594 Y0.1377 I-0.7756 J2.3867
G3 X3.6727 Y0.3288 I-1.0273 J2.0359
G3 X3.9512 Y0.5677 I-1.3406 J1.8447
G3 X4.1999 Y0.8602 I-1.7818 J1.7672
G3 X4.4011 Y1.1871 I-2.0305 J1.4748
G3 X4.5421 Y1.5259 I-2.0279 J1.043
G3 X4.627 Y1.8829 I-2.1689 J0.7042
G3 X4.6562 Y2.265 I-2.4803 J0.3822
G1 X4.6562 Y2.2656
G1 X4.6562 Y2.2662
G3 X4.627 Y2.6484 I-2.5095 J0
G3 X4.5421 Y3.0054 I-2.2538 J-0.3473
G3 X4.4011 Y3.3441 I-2.1689 J-0.7042
G3 X4.1999 Y3.6711 I-2.2317 J-1.1478
G3 X3.9512 Y3.9635 I-2.0305 J-1.4748
G3 X3.6727 Y4.2024 I-1.6191 J-1.6059
G3 X3.3594 Y4.3935 I-1.3406 J-1.8447
G3 X3.0045 Y4.5398 I-1.1306 J-2.2404
G3 X2.6314 Y4.6302 I-0.7756 J-2.3867
G3 X2.2656 Y4.6597 I-0.3657 J-2.2509
G3 X1.8999 Y4.6302 I0 J-2.2804
G3 X1.5268 Y4.5398 I0.4025 J-2.477
G3 X1.1718 Y4.3935 I0.7756 J-2.3867
G3 X0.8586 Y4.2024 I1.0273 J-2.0359
G3 X0.5801 Y3.9635 I1.3406 J-1.8447
G3 X0.3314 Y3.6711 I1.7818 J-1.7672
G3 X0.1302 Y3.3441 I2.0305 J-1.4748
G3 X-0.0109 Y3.0054 I2.0279 J-1.043
G3 X-0.0957 Y2.6484 I2.1689 J-0.7042
G3 X-0.125 Y2.2662 I2.4803 J-0.3822
G1 X-0.125 Y2.2657
G1 X-0.125 Y2.265
G3 X-0.0957 Y1.8829 I2.5095 J0
G3 X-0.0109 Y1.5259 I2.2538 J0.3473
G3 X0.1302 Y1.1871 I2.1689 J0.7042
G3 X0.3314 Y0.8602 I2.2317 J1.1478
G1 Z-0.625 F30
G3 X0.5801 Y0.5677 I2.0305 J1.4748 F60
G3 X0.8586 Y0.3288 I1.6191 J1.6059
G3 X1.1718 Y0.1377 I1.3406 J1.8447
G3 X1.5268 Y-0.0085 I1.1306 J2.2404
G3 X1.8999 Y-0.0989 I0.7756 J2.3867
G3 X2.2656 Y-0.1284 I0.3657 J2.2509
G3 X2.6314 Y-0.0989 I0 J2.2804
G3 X3.0045 Y-0.0085 I-0.4025 J2.477
G3 X3.3594 Y0.1377 I-0.7756 J2.3867
G3 X3.6727 Y0.3288 I-1.0273 J2.0359
G3 X3.9512 Y0.5677 I-1.3406 J1.8447
G3 X4.1999 Y0.8602 I-1.7818 J1.7672
G3 X4.4011 Y1.1871 I-2.0305 J1.4748
G3 X4.5421 Y1.5259 I-2.0279 J1.043
G3 X4.627 Y1.8829 I-2.1689 J0.7042
G3 X4.6562 Y2.265 I-2.4803 J0.3822
G1 X4.6562 Y2.2656
G1 X4.6562 Y2.2662
G3 X4.627 Y2.6484 I-2.5095 J0
G3 X4.5421 Y3.0054 I-2.2538 J-0.3473
G3 X4.4011 Y3.3441 I-2.1689 J-0.7042
G3 X4.1999 Y3.6711 I-2.2317 J-1.1478
G3 X3.9512 Y3.9635 I-2.0305 J-1.4748
G3 X3.6727 Y4.2024 I-1.6191 J-1.6059
G3 X3.3594 Y4.3935 I-1.3406 J-1.8447
G3 X3.0045 Y4.5398 I-1.1306 J-2.2404
G3 X2.6314 Y4.6302 I-0.7756 J-2.3867
G3 X2.2656 Y4.6597 I-0.3657 J-2.2509
G3 X1.8999 Y4.6302 I0 J-2.2804
G3 X1.5268 Y4.5398 I0.4025 J-2.477
G3 X1.1718 Y4.3935 I0.7756 J-2.3867
G3 X0.8586 Y4.2024 I1.0273 J-2.0359
G3 X0.5801 Y3.9635 I1.3406 J-1.8447
G3 X0.3314 Y3.6711 I1.7818 J-1.7672
G3 X0.1302 Y3.3441 I2.0305 J-1.4748
G3 X-0.0109 Y3.0054 I2.0279 J-1.043
G3 X-0.0957 Y2.6484 I2.1689 J-0.7042
G3 X-0.125 Y2.2662 I2.4803 J-0.3822
G1 X-0.125 Y2.2657
G1 X-0.125 Y2.265
G3 X-0.0957 Y1.8829 I2.5095 J0
G3 X-0.0109 Y1.5259 I2.2538 J0.3473
G3 X0.1302 Y1.1871 I2.1689 J0.7042
G3 X0.3314 Y0.8602 I2.2317 J1.1478
G1 Z-0.75 F30
G3 X0.5801 Y0.5677 I2.0305 J1.4748 F60
G3 X0.8586 Y0.3288 I1.6191 J1.6059
G3 X1.1718 Y0.1377 I1.3406 J1.8447
G3 X1.5268 Y-0.0085 I1.1306 J2.2404
G3 X1.8999 Y-0.0989 I0.7756 J2.3867
G3 X2.2656 Y-0.1284 I0.3657 J2.2509
G3 X2.6314 Y-0.0989 I0 J2.2804
G3 X3.0045 Y-0.0085 I-0.4025 J2.477
G3 X3.3594 Y0.1377 I-0.7756 J2.3867
G3 X3.6727 Y0.3288 I-1.0273 J2.0359
G3 X3.9512 Y0.5677 I-1.3406 J1.8447
G3 X4.1999 Y0.8602 I-1.7818 J1.7672
G3 X4.4011 Y1.1871 I-2.0305 J1.4748
G3 X4.5421 Y1.5259 I-2.0279 J1.043
G3 X4.627 Y1.8829 I-2.1689 J0.7042
G3 X4.6562 Y2.265 I-2.4803 J0.3822
G1 X4.6562 Y2.2656
G1 X4.6562 Y2.2662
G3 X4.627 Y2.6484 I-2.5095 J0
G3 X4.5421 Y3.0054 I-2.2538 J-0.3473
G3 X4.4011 Y3.3441 I-2.1689 J-0.7042
G3 X4.1999 Y3.6711 I-2.2317 J-1.1478
G3 X3.9512 Y3.9635 I-2.0305 J-1.4748
G3 X3.6727 Y4.2024 I-1.6191 J-1.6059
G3 X3.3594 Y4.3935 I-1.3406 J-1.8447
G3 X3.0045 Y4.5398 I-1.1306 J-2.2404
G3 X2.6314 Y4.6302 I-0.7756 J-2.3867
G3 X2.2656 Y4.6597 I-0.3657 J-2.2509
G3 X1.8999 Y4.6302 I0 J-2.2804
G3 X1.5268 Y4.5398 I0.4025 J-2.477
G3 X1.1718 Y4.3935 I0.7756 J-2.3867
G3 X0.8586 Y4.2024 I1.0273 J-2.0359
G3 X0.5801 Y3.9635 I1.3406 J-1.8447
G3 X0.3314 Y3.6711 I1.7818 J-1.7672
G3 X0.1302 Y3.3441 I2.0305 J-1.4748
G3 X-0.0109 Y3.0054 I2.0279 J-1.043
G3 X-0.0957 Y2.6484 I2.1689 J-0.7042
G3 X-0.125 Y2.2662 I2.4803 J-0.3822
G1 X-0.125 Y2.2657
G1 X-0.125 Y2.265
G3 X-0.0957 Y1.8829 I2.5095 J0
G3 X-0.0109 Y1.5259 I2.2538 J0.3473
G3 X0.1302 Y1.1871 I2.1689 J0.7042
G3 X0.3314 Y0.8602 I2.2317 J1.1478
G1 Z-0.8 F30
G3 X0.5801 Y0.5677 I2.0305 J1.4748 F60
G3 X0.8586 Y0.3288 I1.6191 J1.6059
G3 X1.1718 Y0.1377 I1.3406 J1.8447
G3 X1.5268 Y-0.0085 I1.1306 J2.2404
G3 X1.8999 Y-0.0989 I0.7756 J2.3867
G3 X2.2656 Y-0.1284 I0.3657 J2.2509
G3 X2.6314 Y-0.0989 I0 J2.2804
G3 X3.0045 Y-0.0085 I-0.4025 J2.477
G3 X3.3594 Y0.1377 I-0.7756 J2.3867
G3 X3.6727 Y0.3288 I-1.0273 J2.0359
G3 X3.9512 Y0.5677 I-1.3406 J1.8447
G3 X4.1999 Y0.8602 I-1.7818 J1.7672
G3 X4.4011 Y1.1871 I-2.0305 J1.4748
G3 X4.5421 Y1.5259 I-2.0279 J1.043
G3 X4.627 Y1.8829 I-2.1689 J0.7042
G3 X4.6562 Y2.265 I-2.4803 J0.3822
G1 X4.6562 Y2.2656
G1 X4.6562 Y2.2662
G3 X4.627 Y2.6484 I-2.5095 J0
G3 X4.5421 Y3.0054 I-2.2538 J-0.3473
G3 X4.4011 Y3.3441 I-2.1689 J-0.7042
G3 X4.1999 Y3.6711 I-2.2317 J-1.1478
G3 X3.9512 Y3.9635 I-2.0305 J-1.4748
G3 X3.6727 Y4.2024 I-1.6191 J-1.6059
G3 X3.3594 Y4.3935 I-1.3406 J-1.8447
G3 X3.0045 Y4.5398 I-1.1306 J-2.2404
G3 X2.6314 Y4.6302 I-0.7756 J-2.3867
G3 X2.2656 Y4.6597 I-0.3657 J-2.2509
G3 X1.8999 Y4.6302 I0 J-2.2804
G3 X1.5268 Y4.5398 I0.4025 J-2.477
G3 X1.1718 Y4.3935 I0.7756 J-2.3867
G3 X0.8586 Y4.2024 I1.0273 J-2.0359
G3 X0.5801 Y3.9635 I1.3406 J-1.8447
G3 X0.3314 Y3.6711 I1.7818 J-1.7672
G3 X0.1302 Y3.3441 I2.0305 J-1.4748
G3 X-0.0109 Y3.0054 I2.0279 J-1.043
G3 X-0.0957 Y2.6484 I2.1689 J-0.7042
G3 X-0.125 Y2.2662 I2.4803 J-0.3822
G1 X-0.125 Y2.2657
G1 X-0.125 Y2.265
G3 X-0.0957 Y1.8829 I2.5095 J0
G3 X-0.0109 Y1.5259 I2.2538 J0.3473
G3 X0.1302 Y1.1871 I2.1689 J0.7042
G3 X0.3314 Y0.8602 I2.2317 J1.1478
G0 Z0.5
M5
M30
