( Made using CamBam - http://www.cambam.co.uk )
( 5 9/26/2015 12:51:58 AM )
( T0 : 8.0 )
G21 G90
G0 Z3.0
( T0 : 8.0 )
( Profile1 )
(G0 X25.4 Y-2.35)
G0 Z-10.0
G1 F300.0 Z-4.0
G1 F800.0 X126.6503
G3 X148.0503 Y19.05 I0.0 J21.4
G1 Y59.3407
G3 X128.5154 Y80.6593 I-21.4 J0.0
G1 X27.2651 Y89.5176
G3 X4.0 Y68.199 I-1.8651 J-21.3186
G1 Y19.05
G3 X25.4 Y-2.35 I21.4 J0.0
G1 F300.0 Y0.85
G1 F800.0 X126.6503
G3 X144.8503 Y19.05 I0.0 J18.2
G1 Y59.3407
G3 X128.2365 Y77.4715 I-18.2 J0.0
G1 X26.9862 Y86.3297
G3 X7.2 Y68.199 I-1.5862 J-18.1307
G1 Y19.05
G3 X25.4 Y0.85 I18.2 J0.0
G1 F300.0 Y4.05
G1 F800.0 X126.6503
G3 X141.6503 Y19.05 I0.0 J15.0
G1 Y59.3407
G3 X127.9576 Y74.2837 I-15.0 J0.0
G1 X26.7073 Y83.1419
G3 X10.4 Y68.199 I-1.3073 J-14.9429
G1 Y19.05
G3 X25.4 Y4.05 I15.0 J0.0
G1 F300.0 Y7.25
G1 F800.0 X126.6503
G3 X138.4503 Y19.05 I0.0 J11.8
G1 Y59.3407
G3 X127.6787 Y71.0958 I-11.8 J0.0
G1 X26.4284 Y79.9541
G3 X13.6 Y68.199 I-1.0284 J-11.7551
G1 Y19.05
G3 X25.4 Y7.25 I11.8 J0.0
G1 F300.0 Y10.45
G1 F800.0 X126.6503
G3 X135.2503 Y19.05 I0.0 J8.6
G1 Y59.3407
G3 X127.3998 Y67.908 I-8.6 J0.0
G1 X26.1495 Y76.7663
G3 X16.8 Y68.199 I-0.7495 J-8.5673
G1 Y19.05
G3 X25.4 Y10.45 I8.6 J0.0
G1 F300.0 Y13.65
G1 F800.0 X126.6503
G3 X132.0503 Y19.05 I0.0 J5.4
G1 Y59.3407
G3 X127.1209 Y64.7202 I-5.4 J0.0
G1 X25.8706 Y73.5785
G3 X20.0 Y68.199 I-0.4706 J-5.3795
G1 Y19.05
G3 X25.4 Y13.65 I5.4 J0.0
G1 F300.0 Y15.05
G1 F800.0 X126.6503
G3 X130.6503 Y19.05 I0.0 J4.0
G1 Y59.3407
G3 X126.9989 Y63.3255 I-4.0 J0.0
G1 X25.7486 Y72.1838
G3 X21.4 Y68.199 I-0.3486 J-3.9848
G1 Y19.05
G3 X25.4 Y15.05 I4.0 J0.0
G0 Z3.0
G0 Y-2.35
G0 Z-3.0
G1 F300.0 Z-8.0
G1 F800.0 X126.6503
G3 X148.0503 Y19.05 I0.0 J21.4
G1 Y59.3407
G3 X128.5154 Y80.6593 I-21.4 J0.0
G1 X27.2651 Y89.5176
G3 X4.0 Y68.199 I-1.8651 J-21.3186
G1 Y19.05
G3 X25.4 Y-2.35 I21.4 J0.0
G1 F300.0 Y0.85
G1 F800.0 X126.6503
G3 X144.8503 Y19.05 I0.0 J18.2
G1 Y59.3407
G3 X128.2365 Y77.4715 I-18.2 J0.0
G1 X26.9862 Y86.3297
G3 X7.2 Y68.199 I-1.5862 J-18.1307
G1 Y19.05
G3 X25.4 Y0.85 I18.2 J0.0
G1 F300.0 Y4.05
G1 F800.0 X126.6503
G3 X141.6503 Y19.05 I0.0 J15.0
G1 Y59.3407
G3 X127.9576 Y74.2837 I-15.0 J0.0
G1 X26.7073 Y83.1419
G3 X10.4 Y68.199 I-1.3073 J-14.9429
G1 Y19.05
G3 X25.4 Y4.05 I15.0 J0.0
G1 F300.0 Y7.25
G1 F800.0 X126.6503
G3 X138.4503 Y19.05 I0.0 J11.8
G1 Y59.3407
G3 X127.6787 Y71.0958 I-11.8 J0.0
G1 X26.4284 Y79.9541
G3 X13.6 Y68.199 I-1.0284 J-11.7551
G1 Y19.05
G3 X25.4 Y7.25 I11.8 J0.0
G1 F300.0 Y10.45
G1 F800.0 X126.6503
G3 X135.2503 Y19.05 I0.0 J8.6
G1 Y59.3407
G3 X127.3998 Y67.908 I-8.6 J0.0
G1 X26.1495 Y76.7663
G3 X16.8 Y68.199 I-0.7495 J-8.5673
G1 Y19.05
G3 X25.4 Y10.45 I8.6 J0.0
G1 F300.0 Y13.65
G1 F800.0 X126.6503
G3 X132.0503 Y19.05 I0.0 J5.4
G1 Y59.3407
G3 X127.1209 Y64.7202 I-5.4 J0.0
G1 X25.8706 Y73.5785
G3 X20.0 Y68.199 I-0.4706 J-5.3795
G1 Y19.05
G3 X25.4 Y13.65 I5.4 J0.0
G1 F300.0 Y15.05
G1 F800.0 X126.6503
G3 X130.6503 Y19.05 I0.0 J4.0
G1 Y59.3407
G3 X126.9989 Y63.3255 I-4.0 J0.0
G1 X25.7486 Y72.1838
G3 X21.4 Y68.199 I-0.3486 J-3.9848
G1 Y19.05
G3 X25.4 Y15.05 I4.0 J0.0
G0 Z3.0
G0 Y-2.35
G0 Z-7.0
G1 F300.0 Z-10.0
G1 F800.0 X126.6503
G3 X148.0503 Y19.05 I0.0 J21.4
G1 Y59.3407
G3 X128.5154 Y80.6593 I-21.4 J0.0
G1 X27.2651 Y89.5176
G3 X4.0 Y68.199 I-1.8651 J-21.3186
G1 Y19.05
G3 X25.4 Y-2.35 I21.4 J0.0
G1 F300.0 Y0.85
G1 F800.0 X126.6503
G3 X144.8503 Y19.05 I0.0 J18.2
G1 Y59.3407
G3 X128.2365 Y77.4715 I-18.2 J0.0
G1 X26.9862 Y86.3297
G3 X7.2 Y68.199 I-1.5862 J-18.1307
G1 Y19.05
G3 X25.4 Y0.85 I18.2 J0.0
G1 F300.0 Y4.05
G1 F800.0 X126.6503
G3 X141.6503 Y19.05 I0.0 J15.0
G1 Y59.3407
G3 X127.9576 Y74.2837 I-15.0 J0.0
G1 X26.7073 Y83.1419
G3 X10.4 Y68.199 I-1.3073 J-14.9429
G1 Y19.05
G3 X25.4 Y4.05 I15.0 J0.0
G1 F300.0 Y7.25
G1 F800.0 X126.6503
G3 X138.4503 Y19.05 I0.0 J11.8
G1 Y59.3407
G3 X127.6787 Y71.0958 I-11.8 J0.0
G1 X26.4284 Y79.9541
G3 X13.6 Y68.199 I-1.0284 J-11.7551
G1 Y19.05
G3 X25.4 Y7.25 I11.8 J0.0
G1 F300.0 Y10.45
G1 F800.0 X126.6503
G3 X135.2503 Y19.05 I0.0 J8.6
G1 Y59.3407
G3 X127.3998 Y67.908 I-8.6 J0.0
G1 X26.1495 Y76.7663
G3 X16.8 Y68.199 I-0.7495 J-8.5673
G1 Y19.05
G3 X25.4 Y10.45 I8.6 J0.0
G1 F300.0 Y13.65
G1 F800.0 X126.6503
G3 X132.0503 Y19.05 I0.0 J5.4
G1 Y59.3407
G3 X127.1209 Y64.7202 I-5.4 J0.0
G1 X25.8706 Y73.5785
G3 X20.0 Y68.199 I-0.4706 J-5.3795
G1 Y19.05
G3 X25.4 Y13.65 I5.4 J0.0
G1 F300.0 Y15.05
G1 F800.0 X126.6503
G3 X130.6503 Y19.05 I0.0 J4.0
G1 Y59.3407
G3 X126.9989 Y63.3255 I-4.0 J0.0
G1 X25.7486 Y72.1838
G3 X21.4 Y68.199 I-0.3486 J-3.9848
G1 Y19.05
G3 X25.4 Y15.05 I4.0 J0.0
G0 Z3.0

