( Made using CamBam - http://www.cambam.co.uk )
( 5 9/26/2015 12:56:24 AM )
( T0 : 8.0 )
G21 G90 G64 G40
G0 Z3.0
( T0 : 8.0 )
T0 M6
( Profile2 )
G17
M3 S1000
G0 X14.8527 Y93.9005
G0 Z1.0
G1 F300.0 Z-5.0
G3 F800.0 X-12.0 Y69.2944 I-2.1527 J-24.606
G1 Y0.0
G3 X0.0 Y-12.0 I12.0 J0.0
G1 X151.9167
G3 X163.9167 Y0.0 I0.0 J12.0
G1 Y58.2257
G3 X141.3695 Y82.8317 I-24.7 J0.0
G1 X14.8527 Y93.9005
G1 F300.0 X14.5738 Y90.7126
G3 F800.0 X-8.8 Y69.2944 I-1.8738 J-21.4182
G1 Y0.0
G3 X0.0 Y-8.8 I8.8 J0.0
G1 X151.9167
G3 X160.7167 Y0.0 I0.0 J8.8
G1 Y58.2257
G3 X141.0906 Y79.6439 I-21.5 J0.0
G1 X14.5738 Y90.7126
G1 F300.0 X14.295 Y87.5248
G3 F800.0 X-5.6 Y69.2944 I-1.595 J-18.2304
G1 Y0.0
G3 X0.0 Y-5.6 I5.6 J0.0
G1 X151.9167
G3 X157.5167 Y0.0 I0.0 J5.6
G1 Y58.2257
G3 X140.8117 Y76.456 I-18.3 J0.0
G1 X14.295 Y87.5248
G1 F300.0 X14.1555 Y85.9309
G3 F800.0 X-4.0 Y69.2944 I-1.4555 J-16.6365
G1 Y0.0
G3 X0.0 Y-4.0 I4.0 J0.0
G1 X151.9167
G3 X155.9167 Y0.0 I0.0 J4.0
G1 Y58.2257
G3 X140.6722 Y74.8621 I-16.7 J0.0
G1 X14.1555 Y85.9309
G0 Z3.0
G0 X14.8527 Y93.9005
G0 Z-4.0
G1 F300.0 Z-10.0
G3 F800.0 X-12.0 Y69.2944 I-2.1527 J-24.606
G1 Y0.0
G3 X0.0 Y-12.0 I12.0 J0.0
G1 X151.9167
G3 X163.9167 Y0.0 I0.0 J12.0
G1 Y58.2257
G3 X141.3695 Y82.8317 I-24.7 J0.0
G1 X14.8527 Y93.9005
G1 F300.0 X14.5738 Y90.7126
G3 F800.0 X-8.8 Y69.2944 I-1.8738 J-21.4182
G1 Y0.0
G3 X0.0 Y-8.8 I8.8 J0.0
G1 X151.9167
G3 X160.7167 Y0.0 I0.0 J8.8
G1 Y58.2257
G3 X141.0906 Y79.6439 I-21.5 J0.0
G1 X14.5738 Y90.7126
G1 F300.0 X14.295 Y87.5248
G3 F800.0 X-5.6 Y69.2944 I-1.595 J-18.2304
G1 Y0.0
G3 X0.0 Y-5.6 I5.6 J0.0
G1 X151.9167
G3 X157.5167 Y0.0 I0.0 J5.6
G1 Y58.2257
G3 X140.8117 Y76.456 I-18.3 J0.0
G1 X14.295 Y87.5248
G1 F300.0 X14.1555 Y85.9309
G3 F800.0 X-4.0 Y69.2944 I-1.4555 J-16.6365
G1 Y0.0
G3 X0.0 Y-4.0 I4.0 J0.0
G1 X151.9167
G3 X155.9167 Y0.0 I0.0 J4.0
G1 Y58.2257
G3 X140.6722 Y74.8621 I-16.7 J0.0
G1 X14.1555 Y85.9309
G0 Z3.0
G0 X14.8527 Y93.9005
G0 Z-9.0
G1 F300.0 Z-15.0
G3 F800.0 X-12.0 Y69.2944 I-2.1527 J-24.606
G1 Y0.0
G3 X0.0 Y-12.0 I12.0 J0.0
G1 X151.9167
G3 X163.9167 Y0.0 I0.0 J12.0
G1 Y58.2257
G3 X141.3695 Y82.8317 I-24.7 J0.0
G1 X14.8527 Y93.9005
G1 F300.0 X14.5738 Y90.7126
G3 F800.0 X-8.8 Y69.2944 I-1.8738 J-21.4182
G1 Y0.0
G3 X0.0 Y-8.8 I8.8 J0.0
G1 X151.9167
G3 X160.7167 Y0.0 I0.0 J8.8
G1 Y58.2257
G3 X141.0906 Y79.6439 I-21.5 J0.0
G1 X14.5738 Y90.7126
G1 F300.0 X14.295 Y87.5248
G3 F800.0 X-5.6 Y69.2944 I-1.595 J-18.2304
G1 Y0.0
G3 X0.0 Y-5.6 I5.6 J0.0
G1 X151.9167
G3 X157.5167 Y0.0 I0.0 J5.6
G1 Y58.2257
G3 X140.8117 Y76.456 I-18.3 J0.0
G1 X14.295 Y87.5248
G1 F300.0 X14.1555 Y85.9309
G3 F800.0 X-4.0 Y69.2944 I-1.4555 J-16.6365
G1 Y0.0
G3 X0.0 Y-4.0 I4.0 J0.0
G1 X151.9167
G3 X155.9167 Y0.0 I0.0 J4.0
G1 Y58.2257
G3 X140.6722 Y74.8621 I-16.7 J0.0
G1 X14.1555 Y85.9309
G0 Z3.0
G0 X14.8527 Y93.9005
G0 Z-14.0
G1 F300.0 Z-20.0
G3 F800.0 X-12.0 Y69.2944 I-2.1527 J-24.606
G1 Y0.0
G3 X0.0 Y-12.0 I12.0 J0.0
G1 X151.9167
G3 X163.9167 Y0.0 I0.0 J12.0
G1 Y58.2257
G3 X141.3695 Y82.8317 I-24.7 J0.0
G1 X14.8527 Y93.9005
G1 F300.0 X14.5738 Y90.7126
G3 F800.0 X-8.8 Y69.2944 I-1.8738 J-21.4182
G1 Y0.0
G3 X0.0 Y-8.8 I8.8 J0.0
G1 X151.9167
G3 X160.7167 Y0.0 I0.0 J8.8
G1 Y58.2257
G3 X141.0906 Y79.6439 I-21.5 J0.0
G1 X14.5738 Y90.7126
G1 F300.0 X14.295 Y87.5248
G3 F800.0 X-5.6 Y69.2944 I-1.595 J-18.2304
G1 Y0.0
G3 X0.0 Y-5.6 I5.6 J0.0
G1 X151.9167
G3 X157.5167 Y0.0 I0.0 J5.6
G1 Y58.2257
G3 X140.8117 Y76.456 I-18.3 J0.0
G1 X14.295 Y87.5248
G1 F300.0 X14.1555 Y85.9309
G3 F800.0 X-4.0 Y69.2944 I-1.4555 J-16.6365
G1 Y0.0
G3 X0.0 Y-4.0 I4.0 J0.0
G1 X151.9167
G3 X155.9167 Y0.0 I0.0 J4.0
G1 Y58.2257
G3 X140.6722 Y74.8621 I-16.7 J0.0
G1 X14.1555 Y85.9309
G0 Z3.0
M5
M30
