( Made using CamBam - http://www.cambam.co.uk )
( BackPart 9/27/2015 5:42:17 PM )
( T0 : 3.0 )
G21 G90 G64 G40
G0 Z10.0
( T0 : 3.0 )
T0 M6
( Pocket1 )
G17
M3 S1000
G0 X88.57 Y27.0
G0 Z1.0
G1 F300.0 Z-1.5
G1 F800.0 X89.23
G1 Y19.05
G2 X88.57 I-0.33 J0.0
G1 Y27.0
G1 F300.0 X87.37
G1 F800.0 Y28.2
G1 X90.43
G1 Y19.05
G2 X87.37 I-1.53 J0.0
G1 Y27.0
G1 F300.0 X86.17
G1 F800.0 Y29.4
G1 X91.63
G1 Y19.05
G2 X86.17 I-2.73 J0.0
G1 Y27.0
G1 F300.0 X84.97
G1 F800.0 Y30.6
G1 X92.83
G1 Y19.05
G2 X84.97 I-3.93 J0.0
G1 Y27.0
G1 F300.0 X83.77
G1 F800.0 Y31.8
G1 X94.03
G1 Y19.05
G2 X83.77 I-5.13 J0.0
G1 Y27.0
G1 F300.0 X82.57
G1 F800.0 Y33.0
G1 X95.23
G1 Y19.05
G2 X82.57 I-6.33 J0.0
G1 Y27.0
G1 F300.0 X81.37
G1 F800.0 Y34.2
G1 X96.43
G1 Y19.05
G2 X81.37 I-7.53 J0.0
G1 Y27.0
G1 F300.0 X80.17
G1 F800.0 Y35.4
G1 X97.63
G1 Y19.05
G2 X80.17 I-8.73 J0.0
G1 Y27.0
G1 F300.0 X78.97
G1 F800.0 Y36.6
G1 X98.83
G1 Y19.05
G2 X78.97 I-9.93 J0.0
G1 Y27.0
G0 Z10.0
G0 X88.57
G0 Z-0.5
G1 F300.0 Z-3.0
G1 F800.0 X89.23
G1 Y19.05
G2 X88.57 I-0.33 J0.0
G1 Y27.0
G1 F300.0 X87.37
G1 F800.0 Y28.2
G1 X90.43
G1 Y19.05
G2 X87.37 I-1.53 J0.0
G1 Y27.0
G1 F300.0 X86.17
G1 F800.0 Y29.4
G1 X91.63
G1 Y19.05
G2 X86.17 I-2.73 J0.0
G1 Y27.0
G1 F300.0 X84.97
G1 F800.0 Y30.6
G1 X92.83
G1 Y19.05
G2 X84.97 I-3.93 J0.0
G1 Y27.0
G1 F300.0 X83.77
G1 F800.0 Y31.8
G1 X94.03
G1 Y19.05
G2 X83.77 I-5.13 J0.0
G1 Y27.0
G1 F300.0 X82.57
G1 F800.0 Y33.0
G1 X95.23
G1 Y19.05
G2 X82.57 I-6.33 J0.0
G1 Y27.0
G1 F300.0 X81.37
G1 F800.0 Y34.2
G1 X96.43
G1 Y19.05
G2 X81.37 I-7.53 J0.0
G1 Y27.0
G1 F300.0 X80.17
G1 F800.0 Y35.4
G1 X97.63
G1 Y19.05
G2 X80.17 I-8.73 J0.0
G1 Y27.0
G1 F300.0 X78.97
G1 F800.0 Y36.6
G1 X98.83
G1 Y19.05
G2 X78.97 I-9.93 J0.0
G1 Y27.0
G0 Z10.0
G0 X88.57
G0 Z-2.0
G1 F300.0 Z-4.5
G1 F800.0 X89.23
G1 Y19.05
G2 X88.57 I-0.33 J0.0
G1 Y27.0
G1 F300.0 X87.37
G1 F800.0 Y28.2
G1 X90.43
G1 Y19.05
G2 X87.37 I-1.53 J0.0
G1 Y27.0
G1 F300.0 X86.17
G1 F800.0 Y29.4
G1 X91.63
G1 Y19.05
G2 X86.17 I-2.73 J0.0
G1 Y27.0
G1 F300.0 X84.97
G1 F800.0 Y30.6
G1 X92.83
G1 Y19.05
G2 X84.97 I-3.93 J0.0
G1 Y27.0
G1 F300.0 X83.77
G1 F800.0 Y31.8
G1 X94.03
G1 Y19.05
G2 X83.77 I-5.13 J0.0
G1 Y27.0
G1 F300.0 X82.57
G1 F800.0 Y33.0
G1 X95.23
G1 Y19.05
G2 X82.57 I-6.33 J0.0
G1 Y27.0
G1 F300.0 X81.37
G1 F800.0 Y34.2
G1 X96.43
G1 Y19.05
G2 X81.37 I-7.53 J0.0
G1 Y27.0
G1 F300.0 X80.17
G1 F800.0 Y35.4
G1 X97.63
G1 Y19.05
G2 X80.17 I-8.73 J0.0
G1 Y27.0
G1 F300.0 X78.97
G1 F800.0 Y36.6
G1 X98.83
G1 Y19.05
G2 X78.97 I-9.93 J0.0
G1 Y27.0
G0 Z10.0
G0 X88.57
G0 Z-3.5
G1 F300.0 Z-6.0
G1 F800.0 X89.23
G1 Y19.05
G2 X88.57 I-0.33 J0.0
G1 Y27.0
G1 F300.0 X87.37
G1 F800.0 Y28.2
G1 X90.43
G1 Y19.05
G2 X87.37 I-1.53 J0.0
G1 Y27.0
G1 F300.0 X86.17
G1 F800.0 Y29.4
G1 X91.63
G1 Y19.05
G2 X86.17 I-2.73 J0.0
G1 Y27.0
G1 F300.0 X84.97
G1 F800.0 Y30.6
G1 X92.83
G1 Y19.05
G2 X84.97 I-3.93 J0.0
G1 Y27.0
G1 F300.0 X83.77
G1 F800.0 Y31.8
G1 X94.03
G1 Y19.05
G2 X83.77 I-5.13 J0.0
G1 Y27.0
G1 F300.0 X82.57
G1 F800.0 Y33.0
G1 X95.23
G1 Y19.05
G2 X82.57 I-6.33 J0.0
G1 Y27.0
G1 F300.0 X81.37
G1 F800.0 Y34.2
G1 X96.43
G1 Y19.05
G2 X81.37 I-7.53 J0.0
G1 Y27.0
G1 F300.0 X80.17
G1 F800.0 Y35.4
G1 X97.63
G1 Y19.05
G2 X80.17 I-8.73 J0.0
G1 Y27.0
G1 F300.0 X78.97
G1 F800.0 Y36.6
G1 X98.83
G1 Y19.05
G2 X78.97 I-9.93 J0.0
G1 Y27.0
G0 Z10.0
G0 X88.57
G0 Z-5.0
G1 F300.0 Z-7.5
G1 F800.0 X89.23
G1 Y19.05
G2 X88.57 I-0.33 J0.0
G1 Y27.0
G1 F300.0 X87.37
G1 F800.0 Y28.2
G1 X90.43
G1 Y19.05
G2 X87.37 I-1.53 J0.0
G1 Y27.0
G1 F300.0 X86.17
G1 F800.0 Y29.4
G1 X91.63
G1 Y19.05
G2 X86.17 I-2.73 J0.0
G1 Y27.0
G1 F300.0 X84.97
G1 F800.0 Y30.6
G1 X92.83
G1 Y19.05
G2 X84.97 I-3.93 J0.0
G1 Y27.0
G1 F300.0 X83.77
G1 F800.0 Y31.8
G1 X94.03
G1 Y19.05
G2 X83.77 I-5.13 J0.0
G1 Y27.0
G1 F300.0 X82.57
G1 F800.0 Y33.0
G1 X95.23
G1 Y19.05
G2 X82.57 I-6.33 J0.0
G1 Y27.0
G1 F300.0 X81.37
G1 F800.0 Y34.2
G1 X96.43
G1 Y19.05
G2 X81.37 I-7.53 J0.0
G1 Y27.0
G1 F300.0 X80.17
G1 F800.0 Y35.4
G1 X97.63
G1 Y19.05
G2 X80.17 I-8.73 J0.0
G1 Y27.0
G1 F300.0 X78.97
G1 F800.0 Y36.6
G1 X98.83
G1 Y19.05
G2 X78.97 I-9.93 J0.0
G1 Y27.0
G0 Z10.0
G0 X88.57
G0 Z-6.5
G1 F300.0 Z-9.0
G1 F800.0 X89.23
G1 Y19.05
G2 X88.57 I-0.33 J0.0
G1 Y27.0
G1 F300.0 X87.37
G1 F800.0 Y28.2
G1 X90.43
G1 Y19.05
G2 X87.37 I-1.53 J0.0
G1 Y27.0
G1 F300.0 X86.17
G1 F800.0 Y29.4
G1 X91.63
G1 Y19.05
G2 X86.17 I-2.73 J0.0
G1 Y27.0
G1 F300.0 X84.97
G1 F800.0 Y30.6
G1 X92.83
G1 Y19.05
G2 X84.97 I-3.93 J0.0
G1 Y27.0
G1 F300.0 X83.77
G1 F800.0 Y31.8
G1 X94.03
G1 Y19.05
G2 X83.77 I-5.13 J0.0
G1 Y27.0
G1 F300.0 X82.57
G1 F800.0 Y33.0
G1 X95.23
G1 Y19.05
G2 X82.57 I-6.33 J0.0
G1 Y27.0
G1 F300.0 X81.37
G1 F800.0 Y34.2
G1 X96.43
G1 Y19.05
G2 X81.37 I-7.53 J0.0
G1 Y27.0
G1 F300.0 X80.17
G1 F800.0 Y35.4
G1 X97.63
G1 Y19.05
G2 X80.17 I-8.73 J0.0
G1 Y27.0
G1 F300.0 X78.97
G1 F800.0 Y36.6
G1 X98.83
G1 Y19.05
G2 X78.97 I-9.93 J0.0
G1 Y27.0
G0 Z10.0
G0 X120.32
G0 Z1.0
G1 F300.0 Z-1.5
G1 F800.0 X120.98
G1 Y19.05
G2 X120.32 I-0.33 J0.0
G1 Y27.0
G1 F300.0 Y28.2
G1 F800.0 X122.18
G1 Y19.05
G2 X119.12 I-1.53 J0.0
G1 Y28.2
G1 X120.32
G1 F300.0 Y29.4
G1 F800.0 X123.38
G1 Y19.05
G2 X117.92 I-2.73 J0.0
G1 Y29.4
G1 X120.32
G1 F300.0 Y30.6
G1 F800.0 X124.58
G1 Y19.05
G2 X116.72 I-3.93 J0.0
G1 Y30.6
G1 X120.32
G1 F300.0 Y31.8
G1 F800.0 X125.78
G1 Y19.05
G2 X115.52 I-5.13 J0.0
G1 Y31.8
G1 X120.32
G1 F300.0 Y33.0
G1 F800.0 X126.98
G1 Y19.05
G2 X114.32 I-6.33 J0.0
G1 Y33.0
G1 X120.32
G1 F300.0 Y34.2
G1 F800.0 X128.18
G1 Y19.05
G2 X113.12 I-7.53 J0.0
G1 Y34.2
G1 X120.32
G1 F300.0 Y35.4
G1 F800.0 X129.38
G1 Y19.05
G2 X111.92 I-8.73 J0.0
G1 Y35.4
G1 X120.32
G1 F300.0 Y36.6
G1 F800.0 X130.58
G1 Y19.05
G2 X110.72 I-9.93 J0.0
G1 Y36.6
G1 X120.32
G0 Z10.0
G0 Y27.0
G0 Z-0.5
G1 F300.0 Z-3.0
G1 F800.0 X120.98
G1 Y19.05
G2 X120.32 I-0.33 J0.0
G1 Y27.0
G1 F300.0 Y28.2
G1 F800.0 X122.18
G1 Y19.05
G2 X119.12 I-1.53 J0.0
G1 Y28.2
G1 X120.32
G1 F300.0 Y29.4
G1 F800.0 X123.38
G1 Y19.05
G2 X117.92 I-2.73 J0.0
G1 Y29.4
G1 X120.32
G1 F300.0 Y30.6
G1 F800.0 X124.58
G1 Y19.05
G2 X116.72 I-3.93 J0.0
G1 Y30.6
G1 X120.32
G1 F300.0 Y31.8
G1 F800.0 X125.78
G1 Y19.05
G2 X115.52 I-5.13 J0.0
G1 Y31.8
G1 X120.32
G1 F300.0 Y33.0
G1 F800.0 X126.98
G1 Y19.05
G2 X114.32 I-6.33 J0.0
G1 Y33.0
G1 X120.32
G1 F300.0 Y34.2
G1 F800.0 X128.18
G1 Y19.05
G2 X113.12 I-7.53 J0.0
G1 Y34.2
G1 X120.32
G1 F300.0 Y35.4
G1 F800.0 X129.38
G1 Y19.05
G2 X111.92 I-8.73 J0.0
G1 Y35.4
G1 X120.32
G1 F300.0 Y36.6
G1 F800.0 X130.58
G1 Y19.05
G2 X110.72 I-9.93 J0.0
G1 Y36.6
G1 X120.32
G0 Z10.0
G0 Y27.0
G0 Z-2.0
G1 F300.0 Z-4.5
G1 F800.0 X120.98
G1 Y19.05
G2 X120.32 I-0.33 J0.0
G1 Y27.0
G1 F300.0 Y28.2
G1 F800.0 X122.18
G1 Y19.05
G2 X119.12 I-1.53 J0.0
G1 Y28.2
G1 X120.32
G1 F300.0 Y29.4
G1 F800.0 X123.38
G1 Y19.05
G2 X117.92 I-2.73 J0.0
G1 Y29.4
G1 X120.32
G1 F300.0 Y30.6
G1 F800.0 X124.58
G1 Y19.05
G2 X116.72 I-3.93 J0.0
G1 Y30.6
G1 X120.32
G1 F300.0 Y31.8
G1 F800.0 X125.78
G1 Y19.05
G2 X115.52 I-5.13 J0.0
G1 Y31.8
G1 X120.32
G1 F300.0 Y33.0
G1 F800.0 X126.98
G1 Y19.05
G2 X114.32 I-6.33 J0.0
G1 Y33.0
G1 X120.32
G1 F300.0 Y34.2
G1 F800.0 X128.18
G1 Y19.05
G2 X113.12 I-7.53 J0.0
G1 Y34.2
G1 X120.32
G1 F300.0 Y35.4
G1 F800.0 X129.38
G1 Y19.05
G2 X111.92 I-8.73 J0.0
G1 Y35.4
G1 X120.32
G1 F300.0 Y36.6
G1 F800.0 X130.58
G1 Y19.05
G2 X110.72 I-9.93 J0.0
G1 Y36.6
G1 X120.32
G0 Z10.0
G0 Y27.0
G0 Z-3.5
G1 F300.0 Z-6.0
G1 F800.0 X120.98
G1 Y19.05
G2 X120.32 I-0.33 J0.0
G1 Y27.0
G1 F300.0 Y28.2
G1 F800.0 X122.18
G1 Y19.05
G2 X119.12 I-1.53 J0.0
G1 Y28.2
G1 X120.32
G1 F300.0 Y29.4
G1 F800.0 X123.38
G1 Y19.05
G2 X117.92 I-2.73 J0.0
G1 Y29.4
G1 X120.32
G1 F300.0 Y30.6
G1 F800.0 X124.58
G1 Y19.05
G2 X116.72 I-3.93 J0.0
G1 Y30.6
G1 X120.32
G1 F300.0 Y31.8
G1 F800.0 X125.78
G1 Y19.05
G2 X115.52 I-5.13 J0.0
G1 Y31.8
G1 X120.32
G1 F300.0 Y33.0
G1 F800.0 X126.98
G1 Y19.05
G2 X114.32 I-6.33 J0.0
G1 Y33.0
G1 X120.32
G1 F300.0 Y34.2
G1 F800.0 X128.18
G1 Y19.05
G2 X113.12 I-7.53 J0.0
G1 Y34.2
G1 X120.32
G1 F300.0 Y35.4
G1 F800.0 X129.38
G1 Y19.05
G2 X111.92 I-8.73 J0.0
G1 Y35.4
G1 X120.32
G1 F300.0 Y36.6
G1 F800.0 X130.58
G1 Y19.05
G2 X110.72 I-9.93 J0.0
G1 Y36.6
G1 X120.32
G0 Z10.0
G0 Y27.0
G0 Z-5.0
G1 F300.0 Z-7.5
G1 F800.0 X120.98
G1 Y19.05
G2 X120.32 I-0.33 J0.0
G1 Y27.0
G1 F300.0 Y28.2
G1 F800.0 X122.18
G1 Y19.05
G2 X119.12 I-1.53 J0.0
G1 Y28.2
G1 X120.32
G1 F300.0 Y29.4
G1 F800.0 X123.38
G1 Y19.05
G2 X117.92 I-2.73 J0.0
G1 Y29.4
G1 X120.32
G1 F300.0 Y30.6
G1 F800.0 X124.58
G1 Y19.05
G2 X116.72 I-3.93 J0.0
G1 Y30.6
G1 X120.32
G1 F300.0 Y31.8
G1 F800.0 X125.78
G1 Y19.05
G2 X115.52 I-5.13 J0.0
G1 Y31.8
G1 X120.32
G1 F300.0 Y33.0
G1 F800.0 X126.98
G1 Y19.05
G2 X114.32 I-6.33 J0.0
G1 Y33.0
G1 X120.32
G1 F300.0 Y34.2
G1 F800.0 X128.18
G1 Y19.05
G2 X113.12 I-7.53 J0.0
G1 Y34.2
G1 X120.32
G1 F300.0 Y35.4
G1 F800.0 X129.38
G1 Y19.05
G2 X111.92 I-8.73 J0.0
G1 Y35.4
G1 X120.32
G1 F300.0 Y36.6
G1 F800.0 X130.58
G1 Y19.05
G2 X110.72 I-9.93 J0.0
G1 Y36.6
G1 X120.32
G0 Z10.0
G0 Y27.0
G0 Z-6.5
G1 F300.0 Z-9.0
G1 F800.0 X120.98
G1 Y19.05
G2 X120.32 I-0.33 J0.0
G1 Y27.0
G1 F300.0 Y28.2
G1 F800.0 X122.18
G1 Y19.05
G2 X119.12 I-1.53 J0.0
G1 Y28.2
G1 X120.32
G1 F300.0 Y29.4
G1 F800.0 X123.38
G1 Y19.05
G2 X117.92 I-2.73 J0.0
G1 Y29.4
G1 X120.32
G1 F300.0 Y30.6
G1 F800.0 X124.58
G1 Y19.05
G2 X116.72 I-3.93 J0.0
G1 Y30.6
G1 X120.32
G1 F300.0 Y31.8
G1 F800.0 X125.78
G1 Y19.05
G2 X115.52 I-5.13 J0.0
G1 Y31.8
G1 X120.32
G1 F300.0 Y33.0
G1 F800.0 X126.98
G1 Y19.05
G2 X114.32 I-6.33 J0.0
G1 Y33.0
G1 X120.32
G1 F300.0 Y34.2
G1 F800.0 X128.18
G1 Y19.05
G2 X113.12 I-7.53 J0.0
G1 Y34.2
G1 X120.32
G1 F300.0 Y35.4
G1 F800.0 X129.38
G1 Y19.05
G2 X111.92 I-8.73 J0.0
G1 Y35.4
G1 X120.32
G1 F300.0 Y36.6
G1 F800.0 X130.58
G1 Y19.05
G2 X110.72 I-9.93 J0.0
G1 Y36.6
G1 X120.32
G0 Z10.0
G0 X152.07 Y27.0
G0 Z1.0
G1 F300.0 Z-1.5
G1 F800.0 X152.73
G1 Y19.05
G2 X152.07 I-0.33 J0.0
G1 Y27.0
G1 F300.0 Y28.2
G1 F800.0 X153.93
G1 Y19.05
G2 X150.87 I-1.53 J0.0
G1 Y28.2
G1 X152.07
G1 F300.0 Y29.4
G1 F800.0 X155.13
G1 Y19.05
G2 X149.67 I-2.73 J0.0
G1 Y29.4
G1 X152.07
G1 F300.0 Y30.6
G1 F800.0 X156.33
G1 Y19.05
G2 X148.47 I-3.93 J0.0
G1 Y30.6
G1 X152.07
G1 F300.0 Y31.8
G1 F800.0 X157.53
G1 Y19.05
G2 X147.27 I-5.13 J0.0
G1 Y31.8
G1 X152.07
G1 F300.0 Y33.0
G1 F800.0 X158.73
G1 Y19.05
G2 X146.07 I-6.33 J0.0
G1 Y33.0
G1 X152.07
G1 F300.0 Y34.2
G1 F800.0 X159.93
G1 Y19.05
G2 X144.87 I-7.53 J0.0
G1 Y34.2
G1 X152.07
G1 F300.0 Y35.4
G1 F800.0 X161.13
G1 Y19.05
G2 X143.67 I-8.73 J0.0
G1 Y35.4
G1 X152.07
G1 F300.0 Y36.6
G1 F800.0 X162.33
G1 Y19.05
G2 X142.47 I-9.93 J0.0
G1 Y36.6
G1 X152.07
G0 Z10.0
G0 Y27.0
G0 Z-0.5
G1 F300.0 Z-3.0
G1 F800.0 X152.73
G1 Y19.05
G2 X152.07 I-0.33 J0.0
G1 Y27.0
G1 F300.0 Y28.2
G1 F800.0 X153.93
G1 Y19.05
G2 X150.87 I-1.53 J0.0
G1 Y28.2
G1 X152.07
G1 F300.0 Y29.4
G1 F800.0 X155.13
G1 Y19.05
G2 X149.67 I-2.73 J0.0
G1 Y29.4
G1 X152.07
G1 F300.0 Y30.6
G1 F800.0 X156.33
G1 Y19.05
G2 X148.47 I-3.93 J0.0
G1 Y30.6
G1 X152.07
G1 F300.0 Y31.8
G1 F800.0 X157.53
G1 Y19.05
G2 X147.27 I-5.13 J0.0
G1 Y31.8
G1 X152.07
G1 F300.0 Y33.0
G1 F800.0 X158.73
G1 Y19.05
G2 X146.07 I-6.33 J0.0
G1 Y33.0
G1 X152.07
G1 F300.0 Y34.2
G1 F800.0 X159.93
G1 Y19.05
G2 X144.87 I-7.53 J0.0
G1 Y34.2
G1 X152.07
G1 F300.0 Y35.4
G1 F800.0 X161.13
G1 Y19.05
G2 X143.67 I-8.73 J0.0
G1 Y35.4
G1 X152.07
G1 F300.0 Y36.6
G1 F800.0 X162.33
G1 Y19.05
G2 X142.47 I-9.93 J0.0
G1 Y36.6
G1 X152.07
G0 Z10.0
G0 Y27.0
G0 Z-2.0
G1 F300.0 Z-4.5
G1 F800.0 X152.73
G1 Y19.05
G2 X152.07 I-0.33 J0.0
G1 Y27.0
G1 F300.0 Y28.2
G1 F800.0 X153.93
G1 Y19.05
G2 X150.87 I-1.53 J0.0
G1 Y28.2
G1 X152.07
G1 F300.0 Y29.4
G1 F800.0 X155.13
G1 Y19.05
G2 X149.67 I-2.73 J0.0
G1 Y29.4
G1 X152.07
G1 F300.0 Y30.6
G1 F800.0 X156.33
G1 Y19.05
G2 X148.47 I-3.93 J0.0
G1 Y30.6
G1 X152.07
G1 F300.0 Y31.8
G1 F800.0 X157.53
G1 Y19.05
G2 X147.27 I-5.13 J0.0
G1 Y31.8
G1 X152.07
G1 F300.0 Y33.0
G1 F800.0 X158.73
G1 Y19.05
G2 X146.07 I-6.33 J0.0
G1 Y33.0
G1 X152.07
G1 F300.0 Y34.2
G1 F800.0 X159.93
G1 Y19.05
G2 X144.87 I-7.53 J0.0
G1 Y34.2
G1 X152.07
G1 F300.0 Y35.4
G1 F800.0 X161.13
G1 Y19.05
G2 X143.67 I-8.73 J0.0
G1 Y35.4
G1 X152.07
G1 F300.0 Y36.6
G1 F800.0 X162.33
G1 Y19.05
G2 X142.47 I-9.93 J0.0
G1 Y36.6
G1 X152.07
G0 Z10.0
G0 Y27.0
G0 Z-3.5
G1 F300.0 Z-6.0
G1 F800.0 X152.73
G1 Y19.05
G2 X152.07 I-0.33 J0.0
G1 Y27.0
G1 F300.0 Y28.2
G1 F800.0 X153.93
G1 Y19.05
G2 X150.87 I-1.53 J0.0
G1 Y28.2
G1 X152.07
G1 F300.0 Y29.4
G1 F800.0 X155.13
G1 Y19.05
G2 X149.67 I-2.73 J0.0
G1 Y29.4
G1 X152.07
G1 F300.0 Y30.6
G1 F800.0 X156.33
G1 Y19.05
G2 X148.47 I-3.93 J0.0
G1 Y30.6
G1 X152.07
G1 F300.0 Y31.8
G1 F800.0 X157.53
G1 Y19.05
G2 X147.27 I-5.13 J0.0
G1 Y31.8
G1 X152.07
G1 F300.0 Y33.0
G1 F800.0 X158.73
G1 Y19.05
G2 X146.07 I-6.33 J0.0
G1 Y33.0
G1 X152.07
G1 F300.0 Y34.2
G1 F800.0 X159.93
G1 Y19.05
G2 X144.87 I-7.53 J0.0
G1 Y34.2
G1 X152.07
G1 F300.0 Y35.4
G1 F800.0 X161.13
G1 Y19.05
G2 X143.67 I-8.73 J0.0
G1 Y35.4
G1 X152.07
G1 F300.0 Y36.6
G1 F800.0 X162.33
G1 Y19.05
G2 X142.47 I-9.93 J0.0
G1 Y36.6
G1 X152.07
G0 Z10.0
G0 Y27.0
G0 Z-5.0
G1 F300.0 Z-7.5
G1 F800.0 X152.73
G1 Y19.05
G2 X152.07 I-0.33 J0.0
G1 Y27.0
G1 F300.0 Y28.2
G1 F800.0 X153.93
G1 Y19.05
G2 X150.87 I-1.53 J0.0
G1 Y28.2
G1 X152.07
G1 F300.0 Y29.4
G1 F800.0 X155.13
G1 Y19.05
G2 X149.67 I-2.73 J0.0
G1 Y29.4
G1 X152.07
G1 F300.0 Y30.6
G1 F800.0 X156.33
G1 Y19.05
G2 X148.47 I-3.93 J0.0
G1 Y30.6
G1 X152.07
G1 F300.0 Y31.8
G1 F800.0 X157.53
G1 Y19.05
G2 X147.27 I-5.13 J0.0
G1 Y31.8
G1 X152.07
G1 F300.0 Y33.0
G1 F800.0 X158.73
G1 Y19.05
G2 X146.07 I-6.33 J0.0
G1 Y33.0
G1 X152.07
G1 F300.0 Y34.2
G1 F800.0 X159.93
G1 Y19.05
G2 X144.87 I-7.53 J0.0
G1 Y34.2
G1 X152.07
G1 F300.0 Y35.4
G1 F800.0 X161.13
G1 Y19.05
G2 X143.67 I-8.73 J0.0
G1 Y35.4
G1 X152.07
G1 F300.0 Y36.6
G1 F800.0 X162.33
G1 Y19.05
G2 X142.47 I-9.93 J0.0
G1 Y36.6
G1 X152.07
G0 Z10.0
G0 Y27.0
G0 Z-6.5
G1 F300.0 Z-9.0
G1 F800.0 X152.73
G1 Y19.05
G2 X152.07 I-0.33 J0.0
G1 Y27.0
G1 F300.0 Y28.2
G1 F800.0 X153.93
G1 Y19.05
G2 X150.87 I-1.53 J0.0
G1 Y28.2
G1 X152.07
G1 F300.0 Y29.4
G1 F800.0 X155.13
G1 Y19.05
G2 X149.67 I-2.73 J0.0
G1 Y29.4
G1 X152.07
G1 F300.0 Y30.6
G1 F800.0 X156.33
G1 Y19.05
G2 X148.47 I-3.93 J0.0
G1 Y30.6
G1 X152.07
G1 F300.0 Y31.8
G1 F800.0 X157.53
G1 Y19.05
G2 X147.27 I-5.13 J0.0
G1 Y31.8
G1 X152.07
G1 F300.0 Y33.0
G1 F800.0 X158.73
G1 Y19.05
G2 X146.07 I-6.33 J0.0
G1 Y33.0
G1 X152.07
G1 F300.0 Y34.2
G1 F800.0 X159.93
G1 Y19.05
G2 X144.87 I-7.53 J0.0
G1 Y34.2
G1 X152.07
G1 F300.0 Y35.4
G1 F800.0 X161.13
G1 Y19.05
G2 X143.67 I-8.73 J0.0
G1 Y35.4
G1 X152.07
G1 F300.0 Y36.6
G1 F800.0 X162.33
G1 Y19.05
G2 X142.47 I-9.93 J0.0
G1 Y36.6
G1 X152.07
( Pocket2 )
S1000
G0 Z10.0
G0 X89.261 Y19.05
G0 Z-8.0
G1 F300.0 Z-10.5
G2 F800.0 X88.7195 Y18.7374 I-0.361 J0.0
G2 Y19.3626 I0.1805 J0.3126
G2 X89.261 Y19.05 I0.1805 J-0.3126
G1 F300.0 X90.461
G2 F800.0 X88.1195 Y17.6981 I-1.561 J0.0
G2 Y20.4019 I0.7805 J1.3519
G2 X90.461 Y19.05 I0.7805 J-1.3519
G1 F300.0 X91.661
G2 F800.0 X87.5195 Y16.6589 I-2.761 J0.0
G2 Y21.4411 I1.3805 J2.3911
G2 X91.661 Y19.05 I1.3805 J-2.3911
G1 F300.0 X92.861
G2 F800.0 X86.9195 Y15.6197 I-3.961 J0.0
G2 Y22.4803 I1.9805 J3.4303
G2 X92.861 Y19.05 I1.9805 J-3.4303
G0 Z10.0
G0 X89.261
G0 Z-9.5
G1 F300.0 Z-12.0
G2 F800.0 X88.7195 Y18.7374 I-0.361 J0.0
G2 Y19.3626 I0.1805 J0.3126
G2 X89.261 Y19.05 I0.1805 J-0.3126
G1 F300.0 X90.461
G2 F800.0 X88.1195 Y17.6981 I-1.561 J0.0
G2 Y20.4019 I0.7805 J1.3519
G2 X90.461 Y19.05 I0.7805 J-1.3519
G1 F300.0 X91.661
G2 F800.0 X87.5195 Y16.6589 I-2.761 J0.0
G2 Y21.4411 I1.3805 J2.3911
G2 X91.661 Y19.05 I1.3805 J-2.3911
G1 F300.0 X92.861
G2 F800.0 X86.9195 Y15.6197 I-3.961 J0.0
G2 Y22.4803 I1.9805 J3.4303
G2 X92.861 Y19.05 I1.9805 J-3.4303
G0 Z10.0
G0 X89.261
G0 Z-11.0
G1 F300.0 Z-12.7
G2 F800.0 X88.7195 Y18.7374 I-0.361 J0.0
G2 Y19.3626 I0.1805 J0.3126
G2 X89.261 Y19.05 I0.1805 J-0.3126
G1 F300.0 X90.461
G2 F800.0 X88.1195 Y17.6981 I-1.561 J0.0
G2 Y20.4019 I0.7805 J1.3519
G2 X90.461 Y19.05 I0.7805 J-1.3519
G1 F300.0 X91.661
G2 F800.0 X87.5195 Y16.6589 I-2.761 J0.0
G2 Y21.4411 I1.3805 J2.3911
G2 X91.661 Y19.05 I1.3805 J-2.3911
G1 F300.0 X92.861
G2 F800.0 X86.9195 Y15.6197 I-3.961 J0.0
G2 Y22.4803 I1.9805 J3.4303
G2 X92.861 Y19.05 I1.9805 J-3.4303
G0 Z10.0
G0 X120.289
G0 Z-8.0
G1 F300.0 Z-10.5
G2 F800.0 X120.4695 Y19.3626 I0.361 J0.0
G2 X121.011 Y19.05 I0.1805 J-0.3126
G2 X120.4695 Y18.7374 I-0.361 J0.0
G2 X120.289 Y19.05 I0.1805 J0.3126
G1 F300.0 X119.089
G2 F800.0 X119.8695 Y20.4019 I1.561 J0.0
G2 X122.211 Y19.05 I0.7805 J-1.3519
G2 X119.8695 Y17.6981 I-1.561 J0.0
G2 X119.089 Y19.05 I0.7805 J1.3519
G1 F300.0 X117.889
G2 F800.0 X119.2695 Y21.4411 I2.761 J0.0
G2 X123.411 Y19.05 I1.3805 J-2.3911
G2 X119.2695 Y16.6589 I-2.761 J0.0
G2 X117.889 Y19.05 I1.3805 J2.3911
G1 F300.0 X116.689
G2 F800.0 X118.6695 Y22.4803 I3.961 J0.0
G2 X124.611 Y19.05 I1.9805 J-3.4303
G2 X118.6695 Y15.6197 I-3.961 J0.0
G2 X116.689 Y19.05 I1.9805 J3.4303
G0 Z10.0
G0 X120.289
G0 Z-9.5
G1 F300.0 Z-12.0
G2 F800.0 X120.4695 Y19.3626 I0.361 J0.0
G2 X121.011 Y19.05 I0.1805 J-0.3126
G2 X120.4695 Y18.7374 I-0.361 J0.0
G2 X120.289 Y19.05 I0.1805 J0.3126
G1 F300.0 X119.089
G2 F800.0 X119.8695 Y20.4019 I1.561 J0.0
G2 X122.211 Y19.05 I0.7805 J-1.3519
G2 X119.8695 Y17.6981 I-1.561 J0.0
G2 X119.089 Y19.05 I0.7805 J1.3519
G1 F300.0 X117.889
G2 F800.0 X119.2695 Y21.4411 I2.761 J0.0
G2 X123.411 Y19.05 I1.3805 J-2.3911
G2 X119.2695 Y16.6589 I-2.761 J0.0
G2 X117.889 Y19.05 I1.3805 J2.3911
G1 F300.0 X116.689
G2 F800.0 X118.6695 Y22.4803 I3.961 J0.0
G2 X124.611 Y19.05 I1.9805 J-3.4303
G2 X118.6695 Y15.6197 I-3.961 J0.0
G2 X116.689 Y19.05 I1.9805 J3.4303
G0 Z10.0
G0 X120.289
G0 Z-11.0
G1 F300.0 Z-12.7
G2 F800.0 X120.4695 Y19.3626 I0.361 J0.0
G2 X121.011 Y19.05 I0.1805 J-0.3126
G2 X120.4695 Y18.7374 I-0.361 J0.0
G2 X120.289 Y19.05 I0.1805 J0.3126
G1 F300.0 X119.089
G2 F800.0 X119.8695 Y20.4019 I1.561 J0.0
G2 X122.211 Y19.05 I0.7805 J-1.3519
G2 X119.8695 Y17.6981 I-1.561 J0.0
G2 X119.089 Y19.05 I0.7805 J1.3519
G1 F300.0 X117.889
G2 F800.0 X119.2695 Y21.4411 I2.761 J0.0
G2 X123.411 Y19.05 I1.3805 J-2.3911
G2 X119.2695 Y16.6589 I-2.761 J0.0
G2 X117.889 Y19.05 I1.3805 J2.3911
G1 F300.0 X116.689
G2 F800.0 X118.6695 Y22.4803 I3.961 J0.0
G2 X124.611 Y19.05 I1.9805 J-3.4303
G2 X118.6695 Y15.6197 I-3.961 J0.0
G2 X116.689 Y19.05 I1.9805 J3.4303
G0 Z10.0
G0 X152.039
G0 Z-8.0
G1 F300.0 Z-10.5
G2 F800.0 X152.2195 Y19.3626 I0.361 J0.0
G2 X152.761 Y19.05 I0.1805 J-0.3126
G2 X152.2195 Y18.7374 I-0.361 J0.0
G2 X152.039 Y19.05 I0.1805 J0.3126
G1 F300.0 X150.839
G2 F800.0 X151.6195 Y20.4019 I1.561 J0.0
G2 X153.961 Y19.05 I0.7805 J-1.3519
G2 X151.6195 Y17.6981 I-1.561 J0.0
G2 X150.839 Y19.05 I0.7805 J1.3519
G1 F300.0 X149.639
G2 F800.0 X151.0195 Y21.4411 I2.761 J0.0
G2 X155.161 Y19.05 I1.3805 J-2.3911
G2 X151.0195 Y16.6589 I-2.761 J0.0
G2 X149.639 Y19.05 I1.3805 J2.3911
G1 F300.0 X148.439
G2 F800.0 X150.4195 Y22.4803 I3.961 J0.0
G2 X156.361 Y19.05 I1.9805 J-3.4303
G2 X150.4195 Y15.6197 I-3.961 J0.0
G2 X148.439 Y19.05 I1.9805 J3.4303
G0 Z10.0
G0 X152.039
G0 Z-9.5
G1 F300.0 Z-12.0
G2 F800.0 X152.2195 Y19.3626 I0.361 J0.0
G2 X152.761 Y19.05 I0.1805 J-0.3126
G2 X152.2195 Y18.7374 I-0.361 J0.0
G2 X152.039 Y19.05 I0.1805 J0.3126
G1 F300.0 X150.839
G2 F800.0 X151.6195 Y20.4019 I1.561 J0.0
G2 X153.961 Y19.05 I0.7805 J-1.3519
G2 X151.6195 Y17.6981 I-1.561 J0.0
G2 X150.839 Y19.05 I0.7805 J1.3519
G1 F300.0 X149.639
G2 F800.0 X151.0195 Y21.4411 I2.761 J0.0
G2 X155.161 Y19.05 I1.3805 J-2.3911
G2 X151.0195 Y16.6589 I-2.761 J0.0
G2 X149.639 Y19.05 I1.3805 J2.3911
G1 F300.0 X148.439
G2 F800.0 X150.4195 Y22.4803 I3.961 J0.0
G2 X156.361 Y19.05 I1.9805 J-3.4303
G2 X150.4195 Y15.6197 I-3.961 J0.0
G2 X148.439 Y19.05 I1.9805 J3.4303
G0 Z10.0
G0 X152.039
G0 Z-11.0
G1 F300.0 Z-12.7
G2 F800.0 X152.2195 Y19.3626 I0.361 J0.0
G2 X152.761 Y19.05 I0.1805 J-0.3126
G2 X152.2195 Y18.7374 I-0.361 J0.0
G2 X152.039 Y19.05 I0.1805 J0.3126
G1 F300.0 X150.839
G2 F800.0 X151.6195 Y20.4019 I1.561 J0.0
G2 X153.961 Y19.05 I0.7805 J-1.3519
G2 X151.6195 Y17.6981 I-1.561 J0.0
G2 X150.839 Y19.05 I0.7805 J1.3519
G1 F300.0 X149.639
G2 F800.0 X151.0195 Y21.4411 I2.761 J0.0
G2 X155.161 Y19.05 I1.3805 J-2.3911
G2 X151.0195 Y16.6589 I-2.761 J0.0
G2 X149.639 Y19.05 I1.3805 J2.3911
G1 F300.0 X148.439
G2 F800.0 X150.4195 Y22.4803 I3.961 J0.0
G2 X156.361 Y19.05 I1.9805 J-3.4303
G2 X150.4195 Y15.6197 I-3.961 J0.0
G2 X148.439 Y19.05 I1.9805 J3.4303
( Profile1 )
S1000
G0 Z10.0
G0 X16.3679 Y34.6
G0 Z1.0
G1 F300.0 Z-1.5
G1 F800.0 X66.5179
G1 Y9.85
G1 X16.3679
G1 Y34.6
G1 F300.0 Y35.8
G1 F800.0 X67.7179
G1 Y8.65
G1 X15.1679
G1 Y35.8
G1 X16.3679
G1 F300.0 Y36.6
G1 F800.0 X68.5179
G1 Y7.85
G1 X14.3679
G1 Y36.6
G1 X16.3679
G1 F300.0 Y34.6
G1 Z-3.0
G1 F800.0 X66.5179
G1 Y9.85
G1 X16.3679
G1 Y34.6
G1 F300.0 Y35.8
G1 F800.0 X67.7179
G1 Y8.65
G1 X15.1679
G1 Y35.8
G1 X16.3679
G1 F300.0 Y36.6
G1 F800.0 X68.5179
G1 Y7.85
G1 X14.3679
G1 Y36.6
G1 X16.3679
G1 F300.0 Y34.6
G1 Z-4.5
G1 F800.0 X66.5179
G1 Y9.85
G1 X16.3679
G1 Y34.6
G1 F300.0 Y35.8
G1 F800.0 X67.7179
G1 Y8.65
G1 X15.1679
G1 Y35.8
G1 X16.3679
G1 F300.0 Y36.6
G1 F800.0 X68.5179
G1 Y7.85
G1 X14.3679
G1 Y36.6
G1 X16.3679
G1 F300.0 Y34.6
G1 Z-6.0
G1 F800.0 X66.5179
G1 Y9.85
G1 X16.3679
G1 Y34.6
G1 F300.0 Y35.8
G1 F800.0 X67.7179
G1 Y8.65
G1 X15.1679
G1 Y35.8
G1 X16.3679
G1 F300.0 Y36.6
G1 F800.0 X68.5179
G1 Y7.85
G1 X14.3679
G1 Y36.6
G1 X16.3679
G1 F300.0 Y34.6
G1 Z-7.5
G1 F800.0 X66.5179
G1 Y9.85
G1 X16.3679
G1 Y34.6
G1 F300.0 Y35.8
G1 F800.0 X67.7179
G1 Y8.65
G1 X15.1679
G1 Y35.8
G1 X16.3679
G1 F300.0 Y36.6
G1 F800.0 X68.5179
G1 Y7.85
G1 X14.3679
G1 Y36.6
G1 X16.3679
G1 F300.0 Y34.6
G1 Z-9.0
G1 F800.0 X66.5179
G1 Y9.85
G1 X16.3679
G1 Y34.6
G1 F300.0 Y35.8
G1 F800.0 X67.7179
G1 Y8.65
G1 X15.1679
G1 Y35.8
G1 X16.3679
G1 F300.0 Y36.6
G1 F800.0 X68.5179
G1 Y7.85
G1 X14.3679
G1 Y36.6
G1 X16.3679
G1 F300.0 Y34.6
G1 Z-10.5
G1 F800.0 X66.5179
G1 Y9.85
G1 X16.3679
G1 Y34.6
G1 F300.0 Y35.8
G1 F800.0 X67.7179
G1 Y8.65
G1 X15.1679
G1 Y35.8
G1 X16.3679
G1 F300.0 Y36.6
G1 F800.0 X68.5179
G1 Y7.85
G1 X14.3679
G1 Y36.6
G1 X16.3679
G1 F300.0 Y34.6
G1 Z-12.0
G1 F800.0 X66.5179
G1 Y9.85
G1 X16.3679
G1 Y34.6
G1 F300.0 Y35.8
G1 F800.0 X67.7179
G1 Y8.65
G1 X15.1679
G1 Y35.8
G1 X16.3679
G1 F300.0 Y36.6
G1 F800.0 X68.5179
G1 Y7.85
G1 X14.3679
G1 Y36.6
G1 X16.3679
G1 F300.0 Y34.6
G1 Z-12.7
G1 F800.0 X66.5179
G1 Y9.85
G1 X16.3679
G1 Y34.6
G1 F300.0 Y35.8
G1 F800.0 X67.7179
G1 Y8.65
G1 X15.1679
G1 Y35.8
G1 X16.3679
G1 F300.0 Y36.6
G1 F800.0 X68.5179
G1 Y7.85
G1 X14.3679
G1 Y36.6
G1 X16.3679
( Profile2 )
S1000
G0 Z10.0
G0 X180.9224 Y67.9968
G0 Z1.0
G1 F300.0 Z-1.0
G1 F800.0 X-3.6963
G0 Z10.0
G0 X180.9224 Y66.7968
G0 Z1.0
G1 F300.0 Z-1.0
G1 F800.0 X-3.6963
G0 Z10.0
G0 X180.9224 Y65.5968
G0 Z1.0
G1 F300.0 Z-1.0
G1 F800.0 X-3.6963
G0 Z10.0
G0 X180.9224 Y64.5287
G0 Z1.0
G1 F300.0 Z-1.0
G1 F800.0 X-3.6963
G0 Z10.0
G0 X180.9224 Y67.9968
G0 Z0.0
G1 F300.0 Z-2.0
G1 F800.0 X-3.6963
G0 Z10.0
G0 X180.9224 Y66.7968
G0 Z0.0
G1 F300.0 Z-2.0
G1 F800.0 X-3.6963
G0 Z10.0
G0 X180.9224 Y65.5968
G0 Z0.0
G1 F300.0 Z-2.0
G1 F800.0 X-3.6963
G0 Z10.0
G0 X180.9224 Y64.6162
G0 Z0.0
G1 F300.0 Z-2.0
G1 F800.0 X-3.6963
G0 Z10.0
G0 X180.9224 Y67.9968
G0 Z-1.0
G1 F300.0 Z-3.0
G1 F800.0 X-3.6963
G0 Z10.0
G0 X180.9224 Y66.7968
G0 Z-1.0
G1 F300.0 Z-3.0
G1 F800.0 X-3.6963
G0 Z10.0
G0 X180.9224 Y65.5968
G0 Z-1.0
G1 F300.0 Z-3.0
G1 F800.0 X-3.6963
G0 Z10.0
G0 X180.9224 Y64.7037
G0 Z-1.0
G1 F300.0 Z-3.0
G1 F800.0 X-3.6963
G0 Z10.0
G0 X180.9224 Y67.9968
G0 Z-2.0
G1 F300.0 Z-4.0
G1 F800.0 X-3.6963
G0 Z10.0
G0 X180.9224 Y66.7968
G0 Z-2.0
G1 F300.0 Z-4.0
G1 F800.0 X-3.6963
G0 Z10.0
G0 X180.9224 Y65.5968
G0 Z-2.0
G1 F300.0 Z-4.0
G1 F800.0 X-3.6963
G0 Z10.0
G0 X180.9224 Y64.7912
G0 Z-2.0
G1 F300.0 Z-4.0
G1 F800.0 X-3.6963
G0 Z10.0
G0 X180.9224 Y67.9968
G0 Z-3.0
G1 F300.0 Z-5.0
G1 F800.0 X-3.6963
G0 Z10.0
G0 X180.9224 Y66.7968
G0 Z-3.0
G1 F300.0 Z-5.0
G1 F800.0 X-3.6963
G0 Z10.0
G0 X180.9224 Y65.5968
G0 Z-3.0
G1 F300.0 Z-5.0
G1 F800.0 X-3.6963
G0 Z10.0
G0 X180.9224 Y64.8786
G0 Z-3.0
G1 F300.0 Z-5.0
G1 F800.0 X-3.6963
G0 Z10.0
G0 X180.9224 Y67.9968
G0 Z-4.0
G1 F300.0 Z-6.0
G1 F800.0 X-3.6963
G0 Z10.0
G0 X180.9224 Y66.7968
G0 Z-4.0
G1 F300.0 Z-6.0
G1 F800.0 X-3.6963
G0 Z10.0
G0 X180.9224 Y65.5968
G0 Z-4.0
G1 F300.0 Z-6.0
G1 F800.0 X-3.6963
G0 Z10.0
G0 X180.9224 Y64.9661
G0 Z-4.0
G1 F300.0 Z-6.0
G1 F800.0 X-3.6963
G0 Z10.0
G0 X180.9224 Y67.9968
G0 Z-5.0
G1 F300.0 Z-6.35
G1 F800.0 X-3.6963
G0 Z10.0
G0 X180.9224 Y66.7968
G0 Z-5.0
G1 F300.0 Z-6.35
G1 F800.0 X-3.6963
G0 Z10.0
G0 X180.9224 Y65.5968
G0 Z-5.0
G1 F300.0 Z-6.35
G1 F800.0 X-3.6963
G0 Z10.0
G0 X180.9224 Y64.9968
G0 Z-4.35
G1 F300.0 Z-6.35
G1 F800.0 X-3.6963
( Profile3 )
S1000
G0 Z10.0
G0 X180.7606 Y69.7273
G0 Z1.0
G1 F300.0 Z-1.0
G1 F800.0 X-3.6963
G0 Z10.0
G0 X180.7606 Y68.5273
G0 Z1.0
G1 F300.0 Z-1.0
G1 F800.0 X-3.6963
G0 Z10.0
G0 X180.7606 Y67.7037
G0 Z1.0
G1 F300.0 Z-1.0
G1 F800.0 X-3.6963
G0 Z10.0
G0 X180.7606 Y69.7273
G0 Z0.0
G1 F300.0 Z-2.0
G1 F800.0 X-3.6963
G0 Z10.0
G0 X180.7606 Y68.5273
G0 Z0.0
G1 F300.0 Z-2.0
G1 F800.0 X-3.6963
G0 Z10.0
G0 X180.7606 Y67.7912
G0 Z0.0
G1 F300.0 Z-2.0
G1 F800.0 X-3.6963
G0 Z10.0
G0 X180.7606 Y69.7273
G0 Z-1.0
G1 F300.0 Z-3.0
G1 F800.0 X-3.6963
G0 Z10.0
G0 X180.7606 Y68.5273
G0 Z-1.0
G1 F300.0 Z-3.0
G1 F800.0 X-3.6963
G0 Z10.0
G0 X180.7606 Y67.8787
G0 Z-1.0
G1 F300.0 Z-3.0
G1 F800.0 X-3.6963
G0 Z10.0
G0 X180.7606 Y69.7273
G0 Z-2.0
G1 F300.0 Z-4.0
G1 F800.0 X-3.6963
G0 Z10.0
G0 X180.7606 Y68.5273
G0 Z-2.0
G1 F300.0 Z-4.0
G1 F800.0 X-3.6963
G0 Z10.0
G0 X180.7606 Y67.9662
G0 Z-2.0
G1 F300.0 Z-4.0
G1 F800.0 X-3.6963
G0 Z10.0
G0 X180.7606 Y69.7273
G0 Z-3.0
G1 F300.0 Z-5.0
G1 F800.0 X-3.6963
G0 Z10.0
G0 X180.7606 Y68.5273
G0 Z-3.0
G1 F300.0 Z-5.0
G1 F800.0 X-3.6963
G0 Z10.0
G0 X180.7606 Y68.0536
G0 Z-3.0
G1 F300.0 Z-5.0
G1 F800.0 X-3.6963
G0 Z10.0
G0 X180.7606 Y69.7273
G0 Z-4.0
G1 F300.0 Z-6.0
G1 F800.0 X-3.6963
G0 Z10.0
G0 X180.7606 Y68.5273
G0 Z-4.0
G1 F300.0 Z-6.0
G1 F800.0 X-3.6963
G0 Z10.0
G0 X180.7606 Y68.1411
G0 Z-4.0
G1 F300.0 Z-6.0
G1 F800.0 X-3.6963
G0 Z10.0
G0 X180.7606 Y69.7273
G0 Z-5.0
G1 F300.0 Z-7.0
G1 F800.0 X-3.6963
G0 Z10.0
G0 X180.7606 Y68.5273
G0 Z-5.0
G1 F300.0 Z-7.0
G1 F800.0 X-3.6963
G0 Z10.0
G0 X180.7606 Y68.2286
G0 Z-5.0
G1 F300.0 Z-7.0
G1 F800.0 X-3.6963
G0 Z10.0
G0 X180.7606 Y69.7273
G0 Z-6.0
G1 F300.0 Z-8.0
G1 F800.0 X-3.6963
G0 Z10.0
G0 X180.7606 Y68.5273
G0 Z-6.0
G1 F300.0 Z-8.0
G1 F800.0 X-3.6963
G0 Z10.0
G0 X180.7606 Y68.3161
G0 Z-6.0
G1 F300.0 Z-8.0
G1 F800.0 X-3.6963
G0 Z10.0
G0 X180.7606 Y69.7273
G0 Z-7.0
G1 F300.0 Z-9.0
G1 F800.0 X-3.6963
G0 Z10.0
G0 X180.7606 Y68.5273
G0 Z-7.0
G1 F300.0 Z-9.0
G1 F800.0 X-3.6963
G0 Z10.0
G0 X180.7606 Y68.4036
G0 Z-7.0
G1 F300.0 Z-9.0
G1 F800.0 X-3.6963
G0 Z10.0
G0 X180.7606 Y69.7273
G0 Z-8.0
G1 F300.0 Z-10.0
G1 F800.0 X-3.6963
G0 Z10.0
G0 X180.7606 Y68.5273
G0 Z-8.0
G1 F300.0 Z-10.0
G1 F800.0 X-3.6963
G0 Z10.0
G0 X180.7606 Y68.4911
G0 Z-8.0
G1 F300.0 Z-10.0
G1 F800.0 X-3.6963
G0 Z10.0
G0 X180.7606 Y69.7273
G0 Z-9.0
G1 F300.0 Z-11.0
G1 F800.0 X-3.6963
G0 Z10.0
G0 X180.7606 Y68.5786
G0 Z-9.0
G1 F300.0 Z-11.0
G1 F800.0 X-3.6963
G0 Z10.0
G0 X180.7606 Y69.7273
G0 Z-10.0
G1 F300.0 Z-12.0
G1 F800.0 X-3.6963
G0 Z10.0
G0 X180.7606 Y68.6661
G0 Z-10.0
G1 F300.0 Z-12.0
G1 F800.0 X-3.6963
G0 Z10.0
G0 X180.7606 Y69.7273
G0 Z-11.0
G1 F300.0 Z-12.7
G1 F800.0 X-3.6963
G0 Z10.0
G0 X180.7606 Y68.7273
G0 Z-10.7
G1 F300.0 Z-12.7
G1 F800.0 X-3.6963
( Profile4 )
S1000
G0 Z10.0
G0 X0.0 Y-3.5
G0 Z1.0
G1 F300.0 Z-1.5
G1 F800.0 X177.8
G3 X181.3 Y0.0 I0.0 J3.5
G1 Y66.675
G3 X177.8 Y70.175 I-3.5 J0.0
G1 X0.0
G3 X-3.5 Y66.675 I0.0 J-3.5
G1 Y0.0
G3 X0.0 Y-3.5 I3.5 J0.0
G1 F300.0 Y-2.3
G1 F800.0 X177.8
G3 X180.1 Y0.0 I0.0 J2.3
G1 Y66.675
G3 X177.8 Y68.975 I-2.3 J0.0
G1 X0.0
G3 X-2.3 Y66.675 I0.0 J-2.3
G1 Y0.0
G3 X0.0 Y-2.3 I2.3 J0.0
G1 F300.0 Y-1.5
G1 F800.0 X177.8
G3 X179.3 Y0.0 I0.0 J1.5
G1 Y66.675
G3 X177.8 Y68.175 I-1.5 J0.0
G1 X0.0
G3 X-1.5 Y66.675 I0.0 J-1.5
G1 Y0.0
G3 X0.0 Y-1.5 I1.5 J0.0
G1 F300.0 Y-3.5
G1 Z-3.0
G1 F800.0 X177.8
G3 X181.3 Y0.0 I0.0 J3.5
G1 Y66.675
G3 X177.8 Y70.175 I-3.5 J0.0
G1 X0.0
G3 X-3.5 Y66.675 I0.0 J-3.5
G1 Y0.0
G3 X0.0 Y-3.5 I3.5 J0.0
G1 F300.0 Y-2.3
G1 F800.0 X177.8
G3 X180.1 Y0.0 I0.0 J2.3
G1 Y66.675
G3 X177.8 Y68.975 I-2.3 J0.0
G1 X0.0
G3 X-2.3 Y66.675 I0.0 J-2.3
G1 Y0.0
G3 X0.0 Y-2.3 I2.3 J0.0
G1 F300.0 Y-1.5
G1 F800.0 X177.8
G3 X179.3 Y0.0 I0.0 J1.5
G1 Y66.675
G3 X177.8 Y68.175 I-1.5 J0.0
G1 X0.0
G3 X-1.5 Y66.675 I0.0 J-1.5
G1 Y0.0
G3 X0.0 Y-1.5 I1.5 J0.0
G1 F300.0 Y-3.5
G1 Z-4.5
G1 F800.0 X177.8
G3 X181.3 Y0.0 I0.0 J3.5
G1 Y66.675
G3 X177.8 Y70.175 I-3.5 J0.0
G1 X0.0
G3 X-3.5 Y66.675 I0.0 J-3.5
G1 Y0.0
G3 X0.0 Y-3.5 I3.5 J0.0
G1 F300.0 Y-2.3
G1 F800.0 X177.8
G3 X180.1 Y0.0 I0.0 J2.3
G1 Y66.675
G3 X177.8 Y68.975 I-2.3 J0.0
G1 X0.0
G3 X-2.3 Y66.675 I0.0 J-2.3
G1 Y0.0
G3 X0.0 Y-2.3 I2.3 J0.0
G1 F300.0 Y-1.5
G1 F800.0 X177.8
G3 X179.3 Y0.0 I0.0 J1.5
G1 Y66.675
G3 X177.8 Y68.175 I-1.5 J0.0
G1 X0.0
G3 X-1.5 Y66.675 I0.0 J-1.5
G1 Y0.0
G3 X0.0 Y-1.5 I1.5 J0.0
G1 F300.0 Y-3.5
G1 Z-6.0
G1 F800.0 X177.8
G3 X181.3 Y0.0 I0.0 J3.5
G1 Y66.675
G3 X177.8 Y70.175 I-3.5 J0.0
G1 X0.0
G3 X-3.5 Y66.675 I0.0 J-3.5
G1 Y0.0
G3 X0.0 Y-3.5 I3.5 J0.0
G1 F300.0 Y-2.3
G1 F800.0 X177.8
G3 X180.1 Y0.0 I0.0 J2.3
G1 Y66.675
G3 X177.8 Y68.975 I-2.3 J0.0
G1 X0.0
G3 X-2.3 Y66.675 I0.0 J-2.3
G1 Y0.0
G3 X0.0 Y-2.3 I2.3 J0.0
G1 F300.0 Y-1.5
G1 F800.0 X177.8
G3 X179.3 Y0.0 I0.0 J1.5
G1 Y66.675
G3 X177.8 Y68.175 I-1.5 J0.0
G1 X0.0
G3 X-1.5 Y66.675 I0.0 J-1.5
G1 Y0.0
G3 X0.0 Y-1.5 I1.5 J0.0
G1 F300.0 Y-3.5
G1 Z-7.5
G1 F800.0 X177.8
G3 X181.3 Y0.0 I0.0 J3.5
G1 Y66.675
G3 X177.8 Y70.175 I-3.5 J0.0
G1 X0.0
G3 X-3.5 Y66.675 I0.0 J-3.5
G1 Y0.0
G3 X0.0 Y-3.5 I3.5 J0.0
G1 F300.0 Y-2.3
G1 F800.0 X177.8
G3 X180.1 Y0.0 I0.0 J2.3
G1 Y66.675
G3 X177.8 Y68.975 I-2.3 J0.0
G1 X0.0
G3 X-2.3 Y66.675 I0.0 J-2.3
G1 Y0.0
G3 X0.0 Y-2.3 I2.3 J0.0
G1 F300.0 Y-1.5
G1 F800.0 X177.8
G3 X179.3 Y0.0 I0.0 J1.5
G1 Y66.675
G3 X177.8 Y68.175 I-1.5 J0.0
G1 X0.0
G3 X-1.5 Y66.675 I0.0 J-1.5
G1 Y0.0
G3 X0.0 Y-1.5 I1.5 J0.0
G1 F300.0 Y-3.5
G1 Z-9.0
G1 F800.0 X177.8
G3 X181.3 Y0.0 I0.0 J3.5
G1 Y66.675
G3 X177.8 Y70.175 I-3.5 J0.0
G1 X0.0
G3 X-3.5 Y66.675 I0.0 J-3.5
G1 Y0.0
G3 X0.0 Y-3.5 I3.5 J0.0
G1 F300.0 Y-2.3
G1 F800.0 X177.8
G3 X180.1 Y0.0 I0.0 J2.3
G1 Y66.675
G3 X177.8 Y68.975 I-2.3 J0.0
G1 X0.0
G3 X-2.3 Y66.675 I0.0 J-2.3
G1 Y0.0
G3 X0.0 Y-2.3 I2.3 J0.0
G1 F300.0 Y-1.5
G1 F800.0 X177.8
G3 X179.3 Y0.0 I0.0 J1.5
G1 Y66.675
G3 X177.8 Y68.175 I-1.5 J0.0
G1 X0.0
G3 X-1.5 Y66.675 I0.0 J-1.5
G1 Y0.0
G3 X0.0 Y-1.5 I1.5 J0.0
G1 F300.0 Y-3.5
G1 Z-10.5
G1 F800.0 X177.8
G3 X181.3 Y0.0 I0.0 J3.5
G1 Y66.675
G3 X177.8 Y70.175 I-3.5 J0.0
G1 X0.0
G3 X-3.5 Y66.675 I0.0 J-3.5
G1 Y0.0
G3 X0.0 Y-3.5 I3.5 J0.0
G1 F300.0 Y-2.3
G1 F800.0 X177.8
G3 X180.1 Y0.0 I0.0 J2.3
G1 Y66.675
G3 X177.8 Y68.975 I-2.3 J0.0
G1 X0.0
G3 X-2.3 Y66.675 I0.0 J-2.3
G1 Y0.0
G3 X0.0 Y-2.3 I2.3 J0.0
G1 F300.0 Y-1.5
G1 F800.0 X177.8
G3 X179.3 Y0.0 I0.0 J1.5
G1 Y66.675
G3 X177.8 Y68.175 I-1.5 J0.0
G1 X0.0
G3 X-1.5 Y66.675 I0.0 J-1.5
G1 Y0.0
G3 X0.0 Y-1.5 I1.5 J0.0
G1 F300.0 Y-3.5
G1 Z-12.0
G1 F800.0 X177.8
G3 X181.3 Y0.0 I0.0 J3.5
G1 Y66.675
G3 X177.8 Y70.175 I-3.5 J0.0
G1 X0.0
G3 X-3.5 Y66.675 I0.0 J-3.5
G1 Y0.0
G3 X0.0 Y-3.5 I3.5 J0.0
G1 F300.0 Y-2.3
G1 F800.0 X177.8
G3 X180.1 Y0.0 I0.0 J2.3
G1 Y66.675
G3 X177.8 Y68.975 I-2.3 J0.0
G1 X0.0
G3 X-2.3 Y66.675 I0.0 J-2.3
G1 Y0.0
G3 X0.0 Y-2.3 I2.3 J0.0
G1 F300.0 Y-1.5
G1 F800.0 X177.8
G3 X179.3 Y0.0 I0.0 J1.5
G1 Y66.675
G3 X177.8 Y68.175 I-1.5 J0.0
G1 X0.0
G3 X-1.5 Y66.675 I0.0 J-1.5
G1 Y0.0
G3 X0.0 Y-1.5 I1.5 J0.0
G1 F300.0 Y-3.5
G1 Z-12.7
G1 F800.0 X177.8
G3 X181.3 Y0.0 I0.0 J3.5
G1 Y66.675
G3 X177.8 Y70.175 I-3.5 J0.0
G1 X0.0
G3 X-3.5 Y66.675 I0.0 J-3.5
G1 Y0.0
G3 X0.0 Y-3.5 I3.5 J0.0
G1 F300.0 Y-2.3
G1 F800.0 X177.8
G3 X180.1 Y0.0 I0.0 J2.3
G1 Y66.675
G3 X177.8 Y68.975 I-2.3 J0.0
G1 X0.0
G3 X-2.3 Y66.675 I0.0 J-2.3
G1 Y0.0
G3 X0.0 Y-2.3 I2.3 J0.0
G1 F300.0 Y-1.5
G1 F800.0 X177.8
G3 X179.3 Y0.0 I0.0 J1.5
G1 Y66.675
G3 X177.8 Y68.175 I-1.5 J0.0
G1 X0.0
G3 X-1.5 Y66.675 I0.0 J-1.5
G1 Y0.0
G3 X0.0 Y-1.5 I1.5 J0.0
G0 Z10.0
M5
M30
