( Made using CamBam - http://www.cambam.co.uk )
( BottomPart 9/27/2015 7:07:20 PM )
( T0 : 3.0 )
G21 G90 G64 G40
G0 Z10.0
( T0 : 3.0 )
T0 M6
( Pocket1 )
G17
M3 S1000
G0 X1.0221 Y6.4
G0 Z1.0
G1 F300.0 Z-3.0
G1 F800.0 X175.7891
G1 Y6.3
G1 X1.0221
G1 Y6.4
G1 F300.0 X-0.1779
G1 F800.0 Y7.6
G1 X176.9891
G1 Y5.1
G1 X-0.1779
G1 Y6.4
G1 F300.0 X-1.3779
G1 F800.0 Y8.8
G1 X178.1891
G1 Y3.9
G1 X-1.3779
G1 Y6.4
G1 F300.0 X-2.5779
G1 F800.0 Y10.0
G1 X179.3891
G1 Y2.7
G1 X-2.5779
G1 Y6.4
G1 F300.0 X-3.7779
G1 F800.0 Y11.2
G1 X180.5891
G1 Y1.5
G1 X-3.7779
G1 Y6.4
G0 Z10.0
G0 X1.0221
G0 Z-2.0
G1 F300.0 Z-6.0
G1 F800.0 X175.7891
G1 Y6.3
G1 X1.0221
G1 Y6.4
G1 F300.0 X-0.1779
G1 F800.0 Y7.6
G1 X176.9891
G1 Y5.1
G1 X-0.1779
G1 Y6.4
G1 F300.0 X-1.3779
G1 F800.0 Y8.8
G1 X178.1891
G1 Y3.9
G1 X-1.3779
G1 Y6.4
G1 F300.0 X-2.5779
G1 F800.0 Y10.0
G1 X179.3891
G1 Y2.7
G1 X-2.5779
G1 Y6.4
G1 F300.0 X-3.7779
G1 F800.0 Y11.2
G1 X180.5891
G1 Y1.5
G1 X-3.7779
G1 Y6.4
G0 Z10.0
G0 X1.0221
G0 Z-5.0
G1 F300.0 Z-6.35
G1 F800.0 X175.7891
G1 Y6.3
G1 X1.0221
G1 Y6.4
G1 F300.0 X-0.1779
G1 F800.0 Y7.6
G1 X176.9891
G1 Y5.1
G1 X-0.1779
G1 Y6.4
G1 F300.0 X-1.3779
G1 F800.0 Y8.8
G1 X178.1891
G1 Y3.9
G1 X-1.3779
G1 Y6.4
G1 F300.0 X-2.5779
G1 F800.0 Y10.0
G1 X179.3891
G1 Y2.7
G1 X-2.5779
G1 Y6.4
G1 F300.0 X-3.7779
G1 F800.0 Y11.2
G1 X180.5891
G1 Y1.5
G1 X-3.7779
G1 Y6.4
G0 Z10.0
G0 X1.4619 Y129.9218
G0 Z1.0
G1 F300.0 Z-3.0
G1 F800.0 Y130.0218
G1 X176.2289
G1 Y129.9218
G1 X1.4619
G1 F300.0 Y128.7218
G1 F800.0 X0.2619
G1 Y131.2218
G1 X177.4289
G1 Y128.7218
G1 X1.4619
G1 F300.0 Y127.5218
G1 F800.0 X-0.9381
G1 Y132.4218
G1 X178.6289
G1 Y127.5218
G1 X1.4619
G1 F300.0 Y126.3218
G1 F800.0 X-2.1381
G1 Y133.6218
G1 X179.8289
G1 Y126.3218
G1 X1.4619
G1 F300.0 Y125.1218
G1 F800.0 X-3.3381
G1 Y134.8218
G1 X181.0289
G1 Y125.1218
G1 X1.4619
G0 Z10.0
G0 Y129.9218
G0 Z-2.0
G1 F300.0 Z-6.0
G1 F800.0 Y130.0218
G1 X176.2289
G1 Y129.9218
G1 X1.4619
G1 F300.0 Y128.7218
G1 F800.0 X0.2619
G1 Y131.2218
G1 X177.4289
G1 Y128.7218
G1 X1.4619
G1 F300.0 Y127.5218
G1 F800.0 X-0.9381
G1 Y132.4218
G1 X178.6289
G1 Y127.5218
G1 X1.4619
G1 F300.0 Y126.3218
G1 F800.0 X-2.1381
G1 Y133.6218
G1 X179.8289
G1 Y126.3218
G1 X1.4619
G1 F300.0 Y125.1218
G1 F800.0 X-3.3381
G1 Y134.8218
G1 X181.0289
G1 Y125.1218
G1 X1.4619
G0 Z10.0
G0 Y129.9218
G0 Z-5.0
G1 F300.0 Z-6.35
G1 F800.0 Y130.0218
G1 X176.2289
G1 Y129.9218
G1 X1.4619
G1 F300.0 Y128.7218
G1 F800.0 X0.2619
G1 Y131.2218
G1 X177.4289
G1 Y128.7218
G1 X1.4619
G1 F300.0 Y127.5218
G1 F800.0 X-0.9381
G1 Y132.4218
G1 X178.6289
G1 Y127.5218
G1 X1.4619
G1 F300.0 Y126.3218
G1 F800.0 X-2.1381
G1 Y133.6218
G1 X179.8289
G1 Y126.3218
G1 X1.4619
G1 F300.0 Y125.1218
G1 F800.0 X-3.3381
G1 Y134.8218
G1 X181.0289
G1 Y125.1218
G1 X1.4619
( Drill1 )
S1000
G0 Z3.0
G0 X25.4 Y129.9718
G0 Z3.0
G0 X25.45 Y129.9718
G0 Z1.0
G1 F300.0 Z0.0
G2 F800.0 X25.375 Y129.9285 Z-0.5 I-0.05 J0.0
G2 Y130.0151 Z-1.0 I0.025 J0.0433
G2 X25.45 Y129.9718 Z-1.5 I0.025 J-0.0433
G2 X25.375 Y129.9285 Z-2.0 I-0.05 J0.0
G2 Y130.0151 Z-2.5 I0.025 J0.0433
G2 X25.45 Y129.9718 Z-3.0 I0.025 J-0.0433
G2 X25.375 Y129.9285 Z-3.5 I-0.05 J0.0
G2 Y130.0151 Z-4.0 I0.025 J0.0433
G2 X25.45 Y129.9718 Z-4.5 I0.025 J-0.0433
G2 X25.375 Y129.9285 Z-5.0 I-0.05 J0.0
G2 Y130.0151 Z-5.5 I0.025 J0.0433
G2 X25.45 Y129.9718 Z-6.0 I0.025 J-0.0433
G2 X25.375 Y129.9285 Z-6.5 I-0.05 J0.0
G2 Y130.0151 Z-7.0 I0.025 J0.0433
G2 X25.45 Y129.9718 Z-7.5 I0.025 J-0.0433
G2 X25.375 Y129.9285 Z-8.0 I-0.05 J0.0
G2 Y130.0151 Z-8.5 I0.025 J0.0433
G2 X25.45 Y129.9718 Z-9.0 I0.025 J-0.0433
G2 X25.375 Y129.9285 Z-9.5 I-0.05 J0.0
G2 Y130.0151 Z-10.0 I0.025 J0.0433
G2 X25.45 Y129.9718 Z-10.5 I0.025 J-0.0433
G2 X25.375 Y129.9285 Z-11.0 I-0.05 J0.0
G2 Y130.0151 Z-11.5 I0.025 J0.0433
G2 X25.45 Y129.9718 Z-12.0 I0.025 J-0.0433
G2 X25.375 Y129.9285 Z-12.5 I-0.05 J0.0
G2 X25.3511 Y129.9614 Z-12.7 I0.025 J0.0433
G2 X25.4155 Y130.0194 I0.0489 J0.0104
G2 X25.4335 Y129.9346 I-0.0155 J-0.0476
G2 X25.3511 Y129.9614 I-0.0335 J0.0372
G0 Z3.0
G0 X25.45 Y6.35
G0 Z1.0
G1 F300.0 Z0.0
G2 F800.0 X25.375 Y6.3067 Z-0.5 I-0.05 J0.0
G2 Y6.3933 Z-1.0 I0.025 J0.0433
G2 X25.45 Y6.35 Z-1.5 I0.025 J-0.0433
G2 X25.375 Y6.3067 Z-2.0 I-0.05 J0.0
G2 Y6.3933 Z-2.5 I0.025 J0.0433
G2 X25.45 Y6.35 Z-3.0 I0.025 J-0.0433
G2 X25.375 Y6.3067 Z-3.5 I-0.05 J0.0
G2 Y6.3933 Z-4.0 I0.025 J0.0433
G2 X25.45 Y6.35 Z-4.5 I0.025 J-0.0433
G2 X25.375 Y6.3067 Z-5.0 I-0.05 J0.0
G2 Y6.3933 Z-5.5 I0.025 J0.0433
G2 X25.45 Y6.35 Z-6.0 I0.025 J-0.0433
G2 X25.375 Y6.3067 Z-6.5 I-0.05 J0.0
G2 Y6.3933 Z-7.0 I0.025 J0.0433
G2 X25.45 Y6.35 Z-7.5 I0.025 J-0.0433
G2 X25.375 Y6.3067 Z-8.0 I-0.05 J0.0
G2 Y6.3933 Z-8.5 I0.025 J0.0433
G2 X25.45 Y6.35 Z-9.0 I0.025 J-0.0433
G2 X25.375 Y6.3067 Z-9.5 I-0.05 J0.0
G2 Y6.3933 Z-10.0 I0.025 J0.0433
G2 X25.45 Y6.35 Z-10.5 I0.025 J-0.0433
G2 X25.375 Y6.3067 Z-11.0 I-0.05 J0.0
G2 Y6.3933 Z-11.5 I0.025 J0.0433
G2 X25.45 Y6.35 Z-12.0 I0.025 J-0.0433
G2 X25.375 Y6.3067 Z-12.5 I-0.05 J0.0
G2 X25.3511 Y6.3396 Z-12.7 I0.025 J0.0433
G2 X25.4155 Y6.3976 I0.0489 J0.0104
G2 X25.4335 Y6.3128 I-0.0155 J-0.0476
G2 X25.3511 Y6.3396 I-0.0335 J0.0372
G0 Z3.0
G0 X152.45 Y6.35
G0 Z1.0
G1 F300.0 Z0.0
G2 F800.0 X152.375 Y6.3067 Z-0.5 I-0.05 J0.0
G2 Y6.3933 Z-1.0 I0.025 J0.0433
G2 X152.45 Y6.35 Z-1.5 I0.025 J-0.0433
G2 X152.375 Y6.3067 Z-2.0 I-0.05 J0.0
G2 Y6.3933 Z-2.5 I0.025 J0.0433
G2 X152.45 Y6.35 Z-3.0 I0.025 J-0.0433
G2 X152.375 Y6.3067 Z-3.5 I-0.05 J0.0
G2 Y6.3933 Z-4.0 I0.025 J0.0433
G2 X152.45 Y6.35 Z-4.5 I0.025 J-0.0433
G2 X152.375 Y6.3067 Z-5.0 I-0.05 J0.0
G2 Y6.3933 Z-5.5 I0.025 J0.0433
G2 X152.45 Y6.35 Z-6.0 I0.025 J-0.0433
G2 X152.375 Y6.3067 Z-6.5 I-0.05 J0.0
G2 Y6.3933 Z-7.0 I0.025 J0.0433
G2 X152.45 Y6.35 Z-7.5 I0.025 J-0.0433
G2 X152.375 Y6.3067 Z-8.0 I-0.05 J0.0
G2 Y6.3933 Z-8.5 I0.025 J0.0433
G2 X152.45 Y6.35 Z-9.0 I0.025 J-0.0433
G2 X152.375 Y6.3067 Z-9.5 I-0.05 J0.0
G2 Y6.3933 Z-10.0 I0.025 J0.0433
G2 X152.45 Y6.35 Z-10.5 I0.025 J-0.0433
G2 X152.375 Y6.3067 Z-11.0 I-0.05 J0.0
G2 Y6.3933 Z-11.5 I0.025 J0.0433
G2 X152.45 Y6.35 Z-12.0 I0.025 J-0.0433
G2 X152.375 Y6.3067 Z-12.5 I-0.05 J0.0
G2 X152.3511 Y6.3396 Z-12.7 I0.025 J0.0433
G2 X152.4155 Y6.3976 I0.0489 J0.0104
G2 X152.4335 Y6.3128 I-0.0155 J-0.0476
G2 X152.3511 Y6.3396 I-0.0335 J0.0372
G0 Z3.0
G0 X152.45 Y129.9718
G0 Z1.0
G1 F300.0 Z0.0
G2 F800.0 X152.375 Y129.9285 Z-0.5 I-0.05 J0.0
G2 Y130.0151 Z-1.0 I0.025 J0.0433
G2 X152.45 Y129.9718 Z-1.5 I0.025 J-0.0433
G2 X152.375 Y129.9285 Z-2.0 I-0.05 J0.0
G2 Y130.0151 Z-2.5 I0.025 J0.0433
G2 X152.45 Y129.9718 Z-3.0 I0.025 J-0.0433
G2 X152.375 Y129.9285 Z-3.5 I-0.05 J0.0
G2 Y130.0151 Z-4.0 I0.025 J0.0433
G2 X152.45 Y129.9718 Z-4.5 I0.025 J-0.0433
G2 X152.375 Y129.9285 Z-5.0 I-0.05 J0.0
G2 Y130.0151 Z-5.5 I0.025 J0.0433
G2 X152.45 Y129.9718 Z-6.0 I0.025 J-0.0433
G2 X152.375 Y129.9285 Z-6.5 I-0.05 J0.0
G2 Y130.0151 Z-7.0 I0.025 J0.0433
G2 X152.45 Y129.9718 Z-7.5 I0.025 J-0.0433
G2 X152.375 Y129.9285 Z-8.0 I-0.05 J0.0
G2 Y130.0151 Z-8.5 I0.025 J0.0433
G2 X152.45 Y129.9718 Z-9.0 I0.025 J-0.0433
G2 X152.375 Y129.9285 Z-9.5 I-0.05 J0.0
G2 Y130.0151 Z-10.0 I0.025 J0.0433
G2 X152.45 Y129.9718 Z-10.5 I0.025 J-0.0433
G2 X152.375 Y129.9285 Z-11.0 I-0.05 J0.0
G2 Y130.0151 Z-11.5 I0.025 J0.0433
G2 X152.45 Y129.9718 Z-12.0 I0.025 J-0.0433
G2 X152.375 Y129.9285 Z-12.5 I-0.05 J0.0
G2 X152.3511 Y129.9614 Z-12.7 I0.025 J0.0433
G2 X152.4155 Y130.0194 I0.0489 J0.0104
G2 X152.4335 Y129.9346 I-0.0155 J-0.0476
G2 X152.3511 Y129.9614 I-0.0335 J0.0372
( Profile1 )
S1000
G0 Z10.0
G0 X0.0 Y-2.5
G0 Z1.0
G1 F300.0 Z-2.0
G1 F800.0 X177.8
G3 X180.3 Y0.0 I0.0 J2.5
G1 Y136.3218
G3 X177.8 Y138.8218 I-2.5 J0.0
G1 X0.0
G3 X-2.5 Y136.3218 I0.0 J-2.5
G1 Y0.0
G3 X0.0 Y-2.5 I2.5 J0.0
G1 F300.0 Y-1.5
G1 F800.0 X177.8
G3 X179.3 Y0.0 I0.0 J1.5
G1 Y136.3218
G3 X177.8 Y137.8218 I-1.5 J0.0
G1 X0.0
G3 X-1.5 Y136.3218 I0.0 J-1.5
G1 Y0.0
G3 X0.0 Y-1.5 I1.5 J0.0
G1 F300.0 Y-2.5
G1 Z-4.0
G1 F800.0 X177.8
G3 X180.3 Y0.0 I0.0 J2.5
G1 Y136.3218
G3 X177.8 Y138.8218 I-2.5 J0.0
G1 X0.0
G3 X-2.5 Y136.3218 I0.0 J-2.5
G1 Y0.0
G3 X0.0 Y-2.5 I2.5 J0.0
G1 F300.0 Y-1.5
G1 F800.0 X177.8
G3 X179.3 Y0.0 I0.0 J1.5
G1 Y136.3218
G3 X177.8 Y137.8218 I-1.5 J0.0
G1 X0.0
G3 X-1.5 Y136.3218 I0.0 J-1.5
G1 Y0.0
G3 X0.0 Y-1.5 I1.5 J0.0
G1 F300.0 Y-2.5
G1 Z-6.0
G1 F800.0 X177.8
G3 X180.3 Y0.0 I0.0 J2.5
G1 Y136.3218
G3 X177.8 Y138.8218 I-2.5 J0.0
G1 X0.0
G3 X-2.5 Y136.3218 I0.0 J-2.5
G1 Y0.0
G3 X0.0 Y-2.5 I2.5 J0.0
G1 F300.0 Y-1.5
G1 F800.0 X177.8
G3 X179.3 Y0.0 I0.0 J1.5
G1 Y136.3218
G3 X177.8 Y137.8218 I-1.5 J0.0
G1 X0.0
G3 X-1.5 Y136.3218 I0.0 J-1.5
G1 Y0.0
G3 X0.0 Y-1.5 I1.5 J0.0
G1 F300.0 Y-2.5
G1 Z-8.0
G1 F800.0 X177.8
G3 X180.3 Y0.0 I0.0 J2.5
G1 Y136.3218
G3 X177.8 Y138.8218 I-2.5 J0.0
G1 X0.0
G3 X-2.5 Y136.3218 I0.0 J-2.5
G1 Y0.0
G3 X0.0 Y-2.5 I2.5 J0.0
G1 F300.0 Y-1.5
G1 F800.0 X177.8
G3 X179.3 Y0.0 I0.0 J1.5
G1 Y136.3218
G3 X177.8 Y137.8218 I-1.5 J0.0
G1 X0.0
G3 X-1.5 Y136.3218 I0.0 J-1.5
G1 Y0.0
G3 X0.0 Y-1.5 I1.5 J0.0
G1 F300.0 Y-2.5
G1 Z-10.0
G1 F800.0 X177.8
G3 X180.3 Y0.0 I0.0 J2.5
G1 Y136.3218
G3 X177.8 Y138.8218 I-2.5 J0.0
G1 X0.0
G3 X-2.5 Y136.3218 I0.0 J-2.5
G1 Y0.0
G3 X0.0 Y-2.5 I2.5 J0.0
G1 F300.0 Y-1.5
G1 F800.0 X177.8
G3 X179.3 Y0.0 I0.0 J1.5
G1 Y136.3218
G3 X177.8 Y137.8218 I-1.5 J0.0
G1 X0.0
G3 X-1.5 Y136.3218 I0.0 J-1.5
G1 Y0.0
G3 X0.0 Y-1.5 I1.5 J0.0
G1 F300.0 Y-2.5
G1 Z-12.0
G1 F800.0 X177.8
G3 X180.3 Y0.0 I0.0 J2.5
G1 Y136.3218
G3 X177.8 Y138.8218 I-2.5 J0.0
G1 X0.0
G3 X-2.5 Y136.3218 I0.0 J-2.5
G1 Y0.0
G3 X0.0 Y-2.5 I2.5 J0.0
G1 F300.0 Y-1.5
G1 F800.0 X177.8
G3 X179.3 Y0.0 I0.0 J1.5
G1 Y136.3218
G3 X177.8 Y137.8218 I-1.5 J0.0
G1 X0.0
G3 X-1.5 Y136.3218 I0.0 J-1.5
G1 Y0.0
G3 X0.0 Y-1.5 I1.5 J0.0
G1 F300.0 Y-2.5
G1 Z-12.7
G1 F800.0 X177.8
G3 X180.3 Y0.0 I0.0 J2.5
G1 Y136.3218
G3 X177.8 Y138.8218 I-2.5 J0.0
G1 X0.0
G3 X-2.5 Y136.3218 I0.0 J-2.5
G1 Y0.0
G3 X0.0 Y-2.5 I2.5 J0.0
G1 F300.0 Y-1.5
G1 F800.0 X177.8
G3 X179.3 Y0.0 I0.0 J1.5
G1 Y136.3218
G3 X177.8 Y137.8218 I-1.5 J0.0
G1 X0.0
G3 X-1.5 Y136.3218 I0.0 J-1.5
G1 Y0.0
G3 X0.0 Y-1.5 I1.5 J0.0
G0 Z10.0
M5
M30
