( Made using CamBam - http://www.cambam.co.uk )
( FrontPart 9/27/2015 7:08:00 PM )
( T0 : 3.0 )
G21 G90 G64 G40
G0 Z10.0
( T0 : 3.0 )
T0 M6
( Pocket1 )
G17
M3 S1000
G0 X-1.6902 Y56.2119
G0 Z1.0
G1 F300.0 Z-3.0
G1 F800.0 X180.535
G1 Y55.1668
G1 X-1.6902
G1 Y56.2119
G1 F300.0 Y56.8119
G1 F800.0 X181.135
G1 Y54.5668
G1 X-2.2902
G1 Y56.8119
G1 X-1.6902
G1 F300.0 Y58.0119
G1 F800.0 X182.335
G1 Y53.3668
G1 X-3.4902
G1 Y58.0119
G1 X-1.6902
G1 F300.0 Y56.2119
G1 Z-6.0
G1 F800.0 X180.535
G1 Y55.1668
G1 X-1.6902
G1 Y56.2119
G1 F300.0 Y56.8119
G1 F800.0 X181.135
G1 Y54.5668
G1 X-2.2902
G1 Y56.8119
G1 X-1.6902
G1 F300.0 Y58.0119
G1 F800.0 X182.335
G1 Y53.3668
G1 X-3.4902
G1 Y58.0119
G1 X-1.6902
G1 F300.0 Y56.2119
G1 Z-9.0
G1 F800.0 X180.535
G1 Y55.1668
G1 X-1.6902
G1 Y56.2119
G1 F300.0 Y56.8119
G1 F800.0 X181.135
G1 Y54.5668
G1 X-2.2902
G1 Y56.8119
G1 X-1.6902
G1 F300.0 Y58.0119
G1 F800.0 X182.335
G1 Y53.3668
G1 X-3.4902
G1 Y58.0119
G1 X-1.6902
G1 F300.0 Y56.2119
G1 Z-9.525
G1 F800.0 X180.535
G1 Y55.1668
G1 X-1.6902
G1 Y56.2119
G1 F300.0 Y56.8119
G1 F800.0 X181.135
G1 Y54.5668
G1 X-2.2902
G1 Y56.8119
G1 X-1.6902
G1 F300.0 Y58.0119
G1 F800.0 X182.335
G1 Y53.3668
G1 X-3.4902
G1 Y58.0119
G1 X-1.6902
( Profile1 )
S1000
G0 Z10.0
G0 X0.0 Y-2.5
G0 Z1.0
G1 F300.0 Z-3.0
G1 F800.0 X177.8
G3 X180.3 Y0.0 I0.0 J2.5
G1 Y55.0418
G3 X177.8 Y57.5418 I-2.5 J0.0
G1 X0.0
G3 X-2.5 Y55.0418 I0.0 J-2.5
G1 Y0.0
G3 X0.0 Y-2.5 I2.5 J0.0
G1 F300.0 Y-1.5
G1 F800.0 X177.8
G3 X179.3 Y0.0 I0.0 J1.5
G1 Y55.0418
G3 X177.8 Y56.5418 I-1.5 J0.0
G1 X0.0
G3 X-1.5 Y55.0418 I0.0 J-1.5
G1 Y0.0
G3 X0.0 Y-1.5 I1.5 J0.0
G1 F300.0 Y-2.5
G1 Z-6.0
G1 F800.0 X177.8
G3 X180.3 Y0.0 I0.0 J2.5
G1 Y55.0418
G3 X177.8 Y57.5418 I-2.5 J0.0
G1 X0.0
G3 X-2.5 Y55.0418 I0.0 J-2.5
G1 Y0.0
G3 X0.0 Y-2.5 I2.5 J0.0
G1 F300.0 Y-1.5
G1 F800.0 X177.8
G3 X179.3 Y0.0 I0.0 J1.5
G1 Y55.0418
G3 X177.8 Y56.5418 I-1.5 J0.0
G1 X0.0
G3 X-1.5 Y55.0418 I0.0 J-1.5
G1 Y0.0
G3 X0.0 Y-1.5 I1.5 J0.0
G1 F300.0 Y-2.5
G1 Z-9.0
G1 F800.0 X177.8
G3 X180.3 Y0.0 I0.0 J2.5
G1 Y55.0418
G3 X177.8 Y57.5418 I-2.5 J0.0
G1 X0.0
G3 X-2.5 Y55.0418 I0.0 J-2.5
G1 Y0.0
G3 X0.0 Y-2.5 I2.5 J0.0
G1 F300.0 Y-1.5
G1 F800.0 X177.8
G3 X179.3 Y0.0 I0.0 J1.5
G1 Y55.0418
G3 X177.8 Y56.5418 I-1.5 J0.0
G1 X0.0
G3 X-1.5 Y55.0418 I0.0 J-1.5
G1 Y0.0
G3 X0.0 Y-1.5 I1.5 J0.0
G1 F300.0 Y-2.5
G1 Z-12.0
G1 F800.0 X177.8
G3 X180.3 Y0.0 I0.0 J2.5
G1 Y55.0418
G3 X177.8 Y57.5418 I-2.5 J0.0
G1 X0.0
G3 X-2.5 Y55.0418 I0.0 J-2.5
G1 Y0.0
G3 X0.0 Y-2.5 I2.5 J0.0
G1 F300.0 Y-1.5
G1 F800.0 X177.8
G3 X179.3 Y0.0 I0.0 J1.5
G1 Y55.0418
G3 X177.8 Y56.5418 I-1.5 J0.0
G1 X0.0
G3 X-1.5 Y55.0418 I0.0 J-1.5
G1 Y0.0
G3 X0.0 Y-1.5 I1.5 J0.0
G1 F300.0 Y-2.5
G1 Z-12.7
G1 F800.0 X177.8
G3 X180.3 Y0.0 I0.0 J2.5
G1 Y55.0418
G3 X177.8 Y57.5418 I-2.5 J0.0
G1 X0.0
G3 X-2.5 Y55.0418 I0.0 J-2.5
G1 Y0.0
G3 X0.0 Y-2.5 I2.5 J0.0
G1 F300.0 Y-1.5
G1 F800.0 X177.8
G3 X179.3 Y0.0 I0.0 J1.5
G1 Y55.0418
G3 X177.8 Y56.5418 I-1.5 J0.0
G1 X0.0
G3 X-1.5 Y55.0418 I0.0 J-1.5
G1 Y0.0
G3 X0.0 Y-1.5 I1.5 J0.0
G0 Z10.0
M5
M30
