( Made using CamBam - http://www.cambam.co.uk )
( freecadexport 9/26/2015 6:23:27 PM )
( T0 : 3.0 )
G21 G90 G64 G40
G0 Z10.0
( T0 : 3.0 )
T0 M6
( Profile1 )
G17
M3 S1000
G0 X33.0 Y14.25
G0 Z1.0
G1 F300.0 Z-1.5
G2 F800.0 X29.25 Y12.0849 I-2.5 J0.0
G2 Y16.4151 I1.25 J2.1651
G2 X33.0 Y14.25 I1.25 J-2.1651
G1 F300.0 Z-3.0
G2 F800.0 X29.25 Y12.0849 I-2.5 J0.0
G2 Y16.4151 I1.25 J2.1651
G2 X33.0 Y14.25 I1.25 J-2.1651
G1 F300.0 Z-4.5
G2 F800.0 X29.25 Y12.0849 I-2.5 J0.0
G2 Y16.4151 I1.25 J2.1651
G2 X33.0 Y14.25 I1.25 J-2.1651
G1 F300.0 Z-5.0
G2 F800.0 X29.25 Y12.0849 I-2.5 J0.0
G2 Y16.4151 I1.25 J2.1651
G2 X33.0 Y14.25 I1.25 J-2.1651
G0 Z10.0
G0 X19.4
G0 Z1.0
G1 F300.0 Z-1.5
G2 F800.0 X16.55 Y12.6046 I-1.9 J0.0
G2 Y15.8954 I0.95 J1.6454
G2 X19.4 Y14.25 I0.95 J-1.6454
G1 F300.0 Z-3.0
G2 F800.0 X16.55 Y12.6046 I-1.9 J0.0
G2 Y15.8954 I0.95 J1.6454
G2 X19.4 Y14.25 I0.95 J-1.6454
G1 F300.0 Z-4.5
G2 F800.0 X16.55 Y12.6046 I-1.9 J0.0
G2 Y15.8954 I0.95 J1.6454
G2 X19.4 Y14.25 I0.95 J-1.6454
G1 F300.0 Z-5.0
G2 F800.0 X16.55 Y12.6046 I-1.9 J0.0
G2 Y15.8954 I0.95 J1.6454
G2 X19.4 Y14.25 I0.95 J-1.6454
G0 Z10.0
G0 X17.6891 Y31.3594
G0 Z1.0
G1 F300.0 Z-1.5
G2 F800.0 X16.55 Y31.6046 I-0.1891 J1.8906
G2 Y34.8954 I0.95 J1.6454
G2 X19.4 Y33.25 I0.95 J-1.6454
G2 X17.6891 Y31.3594 I-1.9 J0.0
G1 F300.0 Z-3.0
G2 F800.0 X16.55 Y31.6046 I-0.1891 J1.8906
G2 Y34.8954 I0.95 J1.6454
G2 X19.4 Y33.25 I0.95 J-1.6454
G2 X17.6891 Y31.3594 I-1.9 J0.0
G1 F300.0 Z-4.5
G2 F800.0 X16.55 Y31.6046 I-0.1891 J1.8906
G2 Y34.8954 I0.95 J1.6454
G2 X19.4 Y33.25 I0.95 J-1.6454
G2 X17.6891 Y31.3594 I-1.9 J0.0
G1 F300.0 Z-5.0
G2 F800.0 X16.55 Y31.6046 I-0.1891 J1.8906
G2 Y34.8954 I0.95 J1.6454
G2 X19.4 Y33.25 I0.95 J-1.6454
G2 X17.6891 Y31.3594 I-1.9 J0.0
G0 Z10.0
G0 X28.0268 Y32.885
G0 Z1.0
G1 F300.0 Z-1.5
G2 F800.0 X29.25 Y35.4151 I2.4732 J0.365
G2 X33.0 Y33.25 I1.25 J-2.1651
G2 X29.25 Y31.0849 I-2.5 J0.0
G2 X28.0268 Y32.885 I1.25 J2.1651
G1 F300.0 Z-3.0
G2 F800.0 X29.25 Y35.4151 I2.4732 J0.365
G2 X33.0 Y33.25 I1.25 J-2.1651
G2 X29.25 Y31.0849 I-2.5 J0.0
G2 X28.0268 Y32.885 I1.25 J2.1651
G1 F300.0 Z-4.5
G2 F800.0 X29.25 Y35.4151 I2.4732 J0.365
G2 X33.0 Y33.25 I1.25 J-2.1651
G2 X29.25 Y31.0849 I-2.5 J0.0
G2 X28.0268 Y32.885 I1.25 J2.1651
G1 F300.0 Z-5.0
G2 F800.0 X29.25 Y35.4151 I2.4732 J0.365
G2 X33.0 Y33.25 I1.25 J-2.1651
G2 X29.25 Y31.0849 I-2.5 J0.0
G2 X28.0268 Y32.885 I1.25 J2.1651
G0 Z10.0
G0 X30.1792 Y49.5207
G0 Z1.0
G1 F300.0 Z-1.5
G2 F800.0 X29.25 Y49.8349 I0.3208 J2.4793
G2 Y54.1651 I1.25 J2.1651
G2 X33.0 Y52.0 I1.25 J-2.1651
G2 X30.1792 Y49.5207 I-2.5 J0.0
G1 F300.0 Z-3.0
G2 F800.0 X29.25 Y49.8349 I0.3208 J2.4793
G2 Y54.1651 I1.25 J2.1651
G2 X33.0 Y52.0 I1.25 J-2.1651
G2 X30.1792 Y49.5207 I-2.5 J0.0
G1 F300.0 Z-4.5
G2 F800.0 X29.25 Y49.8349 I0.3208 J2.4793
G2 Y54.1651 I1.25 J2.1651
G2 X33.0 Y52.0 I1.25 J-2.1651
G2 X30.1792 Y49.5207 I-2.5 J0.0
G1 F300.0 Z-5.0
G2 F800.0 X29.25 Y49.8349 I0.3208 J2.4793
G2 Y54.1651 I1.25 J2.1651
G2 X33.0 Y52.0 I1.25 J-2.1651
G2 X30.1792 Y49.5207 I-2.5 J0.0
G0 Z10.0
G0 X19.3575 Y51.8502
G0 Z1.0
G1 F300.0 Z-1.5
G2 F800.0 X16.55 Y50.6046 I-1.8575 J0.3998
G2 Y53.8954 I0.95 J1.6454
G2 X19.4 Y52.25 I0.95 J-1.6454
G2 X19.3575 Y51.8502 I-1.9 J0.0
G1 F300.0 Z-3.0
G2 F800.0 X16.55 Y50.6046 I-1.8575 J0.3998
G2 Y53.8954 I0.95 J1.6454
G2 X19.4 Y52.25 I0.95 J-1.6454
G2 X19.3575 Y51.8502 I-1.9 J0.0
G1 F300.0 Z-4.5
G2 F800.0 X16.55 Y50.6046 I-1.8575 J0.3998
G2 Y53.8954 I0.95 J1.6454
G2 X19.4 Y52.25 I0.95 J-1.6454
G2 X19.3575 Y51.8502 I-1.9 J0.0
G1 F300.0 Z-5.0
G2 F800.0 X16.55 Y50.6046 I-1.8575 J0.3998
G2 Y53.8954 I0.95 J1.6454
G2 X19.4 Y52.25 I0.95 J-1.6454
G2 X19.3575 Y51.8502 I-1.9 J0.0
G0 Z10.0
G0 X19.037 Y73.5003
G0 Z1.0
G1 F300.0 Z-1.5
G2 F800.0 X17.75 Y73.8349 I-0.037 J2.4997
G2 Y78.1651 I1.25 J2.1651
G2 X21.5 Y76.0 I1.25 J-2.1651
G2 X19.037 Y73.5003 I-2.5 J0.0
G1 F300.0 Z-3.0
G2 F800.0 X17.75 Y73.8349 I-0.037 J2.4997
G2 Y78.1651 I1.25 J2.1651
G2 X21.5 Y76.0 I1.25 J-2.1651
G2 X19.037 Y73.5003 I-2.5 J0.0
G1 F300.0 Z-4.5
G2 F800.0 X17.75 Y73.8349 I-0.037 J2.4997
G2 Y78.1651 I1.25 J2.1651
G2 X21.5 Y76.0 I1.25 J-2.1651
G2 X19.037 Y73.5003 I-2.5 J0.0
G1 F300.0 Z-5.0
G2 F800.0 X17.75 Y73.8349 I-0.037 J2.4997
G2 Y78.1651 I1.25 J2.1651
G2 X21.5 Y76.0 I1.25 J-2.1651
G2 X19.037 Y73.5003 I-2.5 J0.0
G0 Z10.0
G0 X42.012 Y75.7557
G0 Z1.0
G1 F300.0 Z-1.5
G2 F800.0 X43.25 Y78.1651 I2.488 J0.2443
G2 X47.0 Y76.0 I1.25 J-2.1651
G2 X43.25 Y73.8349 I-2.5 J0.0
G2 X42.012 Y75.7557 I1.25 J2.1651
G1 F300.0 Z-3.0
G2 F800.0 X43.25 Y78.1651 I2.488 J0.2443
G2 X47.0 Y76.0 I1.25 J-2.1651
G2 X43.25 Y73.8349 I-2.5 J0.0
G2 X42.012 Y75.7557 I1.25 J2.1651
G1 F300.0 Z-4.5
G2 F800.0 X43.25 Y78.1651 I2.488 J0.2443
G2 X47.0 Y76.0 I1.25 J-2.1651
G2 X43.25 Y73.8349 I-2.5 J0.0
G2 X42.012 Y75.7557 I1.25 J2.1651
G1 F300.0 Z-5.0
G2 F800.0 X43.25 Y78.1651 I2.488 J0.2443
G2 X47.0 Y76.0 I1.25 J-2.1651
G2 X43.25 Y73.8349 I-2.5 J0.0
G2 X42.012 Y75.7557 I1.25 J2.1651
G0 Z10.0
G0 X75.5 Y80.5
G0 Z1.0
G1 F300.0 Z-1.5
G1 F800.0 Y91.5
G1 X114.5
G1 Y80.5
G1 X75.5
G1 F300.0 Z-3.0
G1 F800.0 Y91.5
G1 X114.5
G1 Y80.5
G1 X75.5
G1 F300.0 Z-4.5
G1 F800.0 Y91.5
G1 X114.5
G1 Y80.5
G1 X75.5
G1 F300.0 Z-5.0
G1 F800.0 Y91.5
G1 X114.5
G1 Y80.5
G1 X75.5
G0 Z10.0
G0 X129.3555 Y76.3944
G0 Z1.0
G1 F300.0 Z-1.5
G2 F800.0 X130.3 Y77.8954 I1.8945 J-0.1444
G2 X133.15 Y76.25 I0.95 J-1.6454
G2 X130.3 Y74.6046 I-1.9 J0.0
G2 X129.3555 Y76.3944 I0.95 J1.6454
G1 F300.0 Z-3.0
G2 F800.0 X130.3 Y77.8954 I1.8945 J-0.1444
G2 X133.15 Y76.25 I0.95 J-1.6454
G2 X130.3 Y74.6046 I-1.9 J0.0
G2 X129.3555 Y76.3944 I0.95 J1.6454
G1 F300.0 Z-4.5
G2 F800.0 X130.3 Y77.8954 I1.8945 J-0.1444
G2 X133.15 Y76.25 I0.95 J-1.6454
G2 X130.3 Y74.6046 I-1.9 J0.0
G2 X129.3555 Y76.3944 I0.95 J1.6454
G1 F300.0 Z-5.0
G2 F800.0 X130.3 Y77.8954 I1.8945 J-0.1444
G2 X133.15 Y76.25 I0.95 J-1.6454
G2 X130.3 Y74.6046 I-1.9 J0.0
G2 X129.3555 Y76.3944 I0.95 J1.6454
G0 Z10.0
G0 X131.0601 Y93.3595
G0 Z1.0
G1 F300.0 Z-1.5
G2 F800.0 X130.3 Y93.6046 I0.1899 J1.8905
G2 Y96.8954 I0.95 J1.6454
G2 X133.15 Y95.25 I0.95 J-1.6454
G2 X131.0601 Y93.3595 I-1.9 J0.0
G1 F300.0 Z-3.0
G2 F800.0 X130.3 Y93.6046 I0.1899 J1.8905
G2 Y96.8954 I0.95 J1.6454
G2 X133.15 Y95.25 I0.95 J-1.6454
G2 X131.0601 Y93.3595 I-1.9 J0.0
G1 F300.0 Z-4.5
G2 F800.0 X130.3 Y93.6046 I0.1899 J1.8905
G2 Y96.8954 I0.95 J1.6454
G2 X133.15 Y95.25 I0.95 J-1.6454
G2 X131.0601 Y93.3595 I-1.9 J0.0
G1 F300.0 Z-5.0
G2 F800.0 X130.3 Y93.6046 I0.1899 J1.8905
G2 Y96.8954 I0.95 J1.6454
G2 X133.15 Y95.25 I0.95 J-1.6454
G2 X131.0601 Y93.3595 I-1.9 J0.0
G0 Z10.0
G0 X115.8002 Y36.2449
G0 Z1.0
G1 F300.0 Z-1.5
G2 F800.0 X118.1 Y33.25 I-0.8002 J-2.9949
G2 X113.45 Y30.5653 I-3.1 J0.0
G2 Y35.9347 I1.55 J2.6847
G2 X115.8002 Y36.2449 I1.55 J-2.6847
G1 F300.0 Z-3.0
G2 F800.0 X118.1 Y33.25 I-0.8002 J-2.9949
G2 X113.45 Y30.5653 I-3.1 J0.0
G2 Y35.9347 I1.55 J2.6847
G2 X115.8002 Y36.2449 I1.55 J-2.6847
G1 F300.0 Z-4.5
G2 F800.0 X118.1 Y33.25 I-0.8002 J-2.9949
G2 X113.45 Y30.5653 I-3.1 J0.0
G2 Y35.9347 I1.55 J2.6847
G2 X115.8002 Y36.2449 I1.55 J-2.6847
G1 F300.0 Z-5.0
G2 F800.0 X118.1 Y33.25 I-0.8002 J-2.9949
G2 X113.45 Y30.5653 I-3.1 J0.0
G2 Y35.9347 I1.55 J2.6847
G2 X115.8002 Y36.2449 I1.55 J-2.6847
( Drill1 )
S1000
G0 Z10.0
G0 X110.25 Y95.0
G0 Z10.0
G0 X110.555 Y95.0
G0 Z1.0
G1 F300.0 Z0.0
G2 F800.0 X110.0975 Y94.7359 Z-0.5 I-0.305 J0.0
G2 Y95.2641 Z-1.0 I0.1525 J0.2641
G2 X110.555 Y95.0 Z-1.5 I0.1525 J-0.2641
G2 X110.0975 Y94.7359 Z-2.0 I-0.305 J0.0
G2 Y95.2641 Z-2.5 I0.1525 J0.2641
G2 X110.555 Y95.0 Z-3.0 I0.1525 J-0.2641
G2 X110.0975 Y94.7359 Z-3.5 I-0.305 J0.0
G2 Y95.2641 Z-4.0 I0.1525 J0.2641
G2 X110.555 Y95.0 Z-4.5 I0.1525 J-0.2641
G2 X110.0975 Y94.7359 Z-5.0 I-0.305 J0.0
G2 Y95.2641 I0.1525 J0.2641
G2 X110.555 Y95.0 I0.1525 J-0.2641
G2 X110.0975 Y94.7359 I-0.305 J0.0
G0 Z10.0
G0 X110.555 Y77.0
G0 Z1.0
G1 F300.0 Z0.0
G2 F800.0 X110.0975 Y76.7359 Z-0.5 I-0.305 J0.0
G2 Y77.2641 Z-1.0 I0.1525 J0.2641
G2 X110.555 Y77.0 Z-1.5 I0.1525 J-0.2641
G2 X110.0975 Y76.7359 Z-2.0 I-0.305 J0.0
G2 Y77.2641 Z-2.5 I0.1525 J0.2641
G2 X110.555 Y77.0 Z-3.0 I0.1525 J-0.2641
G2 X110.0975 Y76.7359 Z-3.5 I-0.305 J0.0
G2 Y77.2641 Z-4.0 I0.1525 J0.2641
G2 X110.555 Y77.0 Z-4.5 I0.1525 J-0.2641
G2 X110.0975 Y76.7359 Z-5.0 I-0.305 J0.0
G2 Y77.2641 I0.1525 J0.2641
G2 X110.555 Y77.0 I0.1525 J-0.2641
G2 X110.0975 Y76.7359 I-0.305 J0.0
G0 Z10.0
G0 X80.055 Y77.0
G0 Z1.0
G1 F300.0 Z0.0
G2 F800.0 X79.5975 Y76.7359 Z-0.5 I-0.305 J0.0
G2 Y77.2641 Z-1.0 I0.1525 J0.2641
G2 X80.055 Y77.0 Z-1.5 I0.1525 J-0.2641
G2 X79.5975 Y76.7359 Z-2.0 I-0.305 J0.0
G2 Y77.2641 Z-2.5 I0.1525 J0.2641
G2 X80.055 Y77.0 Z-3.0 I0.1525 J-0.2641
G2 X79.5975 Y76.7359 Z-3.5 I-0.305 J0.0
G2 Y77.2641 Z-4.0 I0.1525 J0.2641
G2 X80.055 Y77.0 Z-4.5 I0.1525 J-0.2641
G2 X79.5975 Y76.7359 Z-5.0 I-0.305 J0.0
G2 Y77.2641 I0.1525 J0.2641
G2 X80.055 Y77.0 I0.1525 J-0.2641
G2 X79.5975 Y76.7359 I-0.305 J0.0
G0 Z10.0
G0 X80.055 Y95.0
G0 Z1.0
G1 F300.0 Z0.0
G2 F800.0 X79.5975 Y94.7359 Z-0.5 I-0.305 J0.0
G2 Y95.2641 Z-1.0 I0.1525 J0.2641
G2 X80.055 Y95.0 Z-1.5 I0.1525 J-0.2641
G2 X79.5975 Y94.7359 Z-2.0 I-0.305 J0.0
G2 Y95.2641 Z-2.5 I0.1525 J0.2641
G2 X80.055 Y95.0 Z-3.0 I0.1525 J-0.2641
G2 X79.5975 Y94.7359 Z-3.5 I-0.305 J0.0
G2 Y95.2641 Z-4.0 I0.1525 J0.2641
G2 X80.055 Y95.0 Z-4.5 I0.1525 J-0.2641
G2 X79.5975 Y94.7359 Z-5.0 I-0.305 J0.0
G2 Y95.2641 I0.1525 J0.2641
G2 X80.055 Y95.0 I0.1525 J-0.2641
G2 X79.5975 Y94.7359 I-0.305 J0.0
G0 Z10.0
G0 X115.005 Y44.2351
G0 Z1.0
G1 F300.0 Z0.0
G2 F800.0 X114.9975 Y44.2307 Z-0.5 I-0.005 J0.0
G2 Y44.2394 Z-1.0 I0.0025 J0.0043
G2 X115.005 Y44.2351 Z-1.5 I0.0025 J-0.0043
G2 X114.9975 Y44.2307 Z-2.0 I-0.005 J0.0
G2 Y44.2394 Z-2.5 I0.0025 J0.0043
G2 X115.005 Y44.2351 Z-3.0 I0.0025 J-0.0043
G2 X114.9975 Y44.2307 Z-3.5 I-0.005 J0.0
G2 Y44.2394 Z-4.0 I0.0025 J0.0043
G2 X115.005 Y44.2351 Z-4.5 I0.0025 J-0.0043
G2 X114.9975 Y44.2307 Z-5.0 I-0.005 J0.0
G2 Y44.2394 I0.0025 J0.0043
G2 X115.005 Y44.2351 I0.0025 J-0.0043
G2 X114.9975 Y44.2307 I-0.005 J0.0
( Profile2 )
S1000
G0 Z10.0
G0 X0.0 Y-1.5
G0 Z1.0
G1 F300.0 Z-1.5
G1 F800.0 X152.4
G3 X153.9 Y0.0 I0.0 J1.5
G1 Y127.0
G3 X152.4 Y128.5 I-1.5 J0.0
G1 X0.0
G3 X-1.5 Y127.0 I0.0 J-1.5
G1 Y0.0
G3 X0.0 Y-1.5 I1.5 J0.0
G1 F300.0 Z-3.0
G1 F800.0 X152.4
G3 X153.9 Y0.0 I0.0 J1.5
G1 Y127.0
G3 X152.4 Y128.5 I-1.5 J0.0
G1 X0.0
G3 X-1.5 Y127.0 I0.0 J-1.5
G1 Y0.0
G3 X0.0 Y-1.5 I1.5 J0.0
G1 F300.0 Z-4.5
G1 F800.0 X152.4
G3 X153.9 Y0.0 I0.0 J1.5
G1 Y127.0
G3 X152.4 Y128.5 I-1.5 J0.0
G1 X0.0
G3 X-1.5 Y127.0 I0.0 J-1.5
G1 Y0.0
G3 X0.0 Y-1.5 I1.5 J0.0
G1 F300.0 Z-5.0
G1 F800.0 X152.4
G3 X153.9 Y0.0 I0.0 J1.5
G1 Y127.0
G3 X152.4 Y128.5 I-1.5 J0.0
G1 X0.0
G3 X-1.5 Y127.0 I0.0 J-1.5
G1 Y0.0
G3 X0.0 Y-1.5 I1.5 J0.0
G0 Z10.0
M5
M30
